OTTER-Stable/projects/better/res/luts/cool.cube
TITLE "cool"
LUT_3D_SIZE 5
DOMAIN_MIN 0.000000 0.000000 0.000000
DOMAIN_MAX 0.903226 0.903226 0.903226
0.0000 0.0000 0.0000
0.1922 0.0118 0.0078
0.3725 0.0314 0.0118
0.5529 0.0588 0.0235
0.7294 0.0824 0.0392
0.0118 0.2118 0.0510
0.2000 0.2275 0.0706
0.4039 0.2392 0.0863
0.6000 0.2471 0.1020
0.7882 0.2627 0.1255
0.0157 0.4196 0.1333
0.1765 0.4471 0.1608
0.4000 0.4471 0.1647
0.6078 0.4549 0.1804
0.8039 0.4627 0.1922
0.0196 0.6275 0.2157
0.0863 0.6941 0.2824
0.3843 0.6667 0.2549
0.6039 0.6706 0.2627
0.8078 0.6745 0.2745
0.0235 0.8353 0.2941
0.0902 0.9020 0.3608
0.3451 0.8902 0.3529
0.5882 0.8863 0.3490
0.8039 0.8902 0.3569
0.0039 0.0118 0.1765
0.1608 0.0275 0.2706
0.3608 0.0431 0.2588
0.5412 0.0627 0.2431
0.7216 0.0863 0.2353
0.0118 0.2157 0.2824
0.1765 0.2392 0.3059
0.3922 0.2431 0.3059
0.5922 0.2510 0.3020
0.7922 0.2706 0.3137
0.0196 0.4235 0.3098
0.1490 0.4706 0.3608
0.3961 0.4588 0.3451
0.6039 0.4627 0.3451
0.8078 0.4745 0.3569
0.0275 0.6353 0.3569
0.0980 0.7059 0.4275
0.3804 0.6824 0.4000
0.6078 0.6824 0.4000
0.8118 0.6863 0.4078
0.0353 0.8471 0.4118
0.1020 0.9137 0.4784
0.3451 0.9098 0.4745
0.5961 0.9020 0.4667
0.8078 0.9020 0.4706
0.0039 0.0314 0.3176
0.0314 0.0824 0.5451
0.3098 0.0627 0.5059
0.5176 0.0784 0.4902
0.7059 0.0980 0.4784
0.0039 0.2157 0.5216
0.0706 0.2824 0.5882
0.3490 0.2549 0.5569
0.5725 0.2627 0.5529
0.7725 0.2784 0.5529
0.0196 0.4275 0.5490
0.0863 0.4941 0.6157
0.3569 0.4745 0.5922
0.5804 0.4706 0.5843
0.7922 0.4784 0.5882
0.0314 0.6431 0.5765
0.0980 0.7098 0.6431
0.3373 0.6980 0.6353
0.5882 0.6941 0.6275
0.8000 0.6980 0.6275
0.0392 0.8510 0.6118
0.1098 0.9216 0.6824
0.2863 0.9412 0.7020
0.5765 0.9137 0.6745
0.7961 0.9098 0.6706
0.0039 0.0510 0.4196
0.0000 0.0941 0.7725
0.2000 0.1137 0.7804
0.4588 0.1020 0.7412
0.6627 0.1137 0.7255
0.0039 0.2157 0.7451
0.0588 0.2863 0.8314
0.2471 0.3020 0.8392
0.5216 0.2824 0.8118
0.7333 0.2863 0.8000
0.0118 0.4235 0.7922
0.0784 0.4941 0.8588
0.2353 0.5176 0.8784
0.5412 0.4902 0.8471
0.7608 0.4902 0.8431
0.0235 0.6392 0.8118
0.0941 0.7098 0.8863
0.1608 0.7765 0.9529
0.5412 0.7098 0.8824
0.7686 0.7059 0.8745
0.0392 0.8549 0.8471
0.1059 0.9216 0.9137
0.1725 0.9882 0.9804
0.5294 0.9373 0.9255
0.7725 0.9255 0.9137
0.0039 0.0706 0.5216
0.0039 0.1216 0.8941
0.0510 0.1922 1.0000
0.3647 0.1451 0.9804
0.6078 0.1412 0.9529
0.0039 0.2275 0.9216
0.0667 0.2980 1.0000
0.1529 0.3647 1.0000
0.4353 0.3333 1.0000
0.6745 0.3294 1.0000
0.0118 0.4275 1.0000
0.1216 0.4902 1.0000
0.2235 0.5529 1.0000
0.4824 0.5412 1.0000
0.7020 0.5373 1.0000
0.0471 0.6353 1.0000
0.1843 0.6863 1.0000
0.3059 0.7373 1.0000
0.5294 0.7373 1.0000
0.7412 0.7451 1.0000
0.1020 0.8353 1.0000
0.2627 0.8667 1.0000
0.4353 0.8980 1.0000
0.6314 0.9098 1.0000
0.8275 0.9216 1.0000
