OTTER-Stable/projects/better/res/luts/RRCoolLUT.CUBE
#Created by: Adobe Photoshop Export Color Lookup Plugin
TITLE "tutoriallutchanges.PNG"
#LUT size
LUT_3D_SIZE 8
#data domain
#LUT data points
DOMAIN_MIN 0.000000 0.000000 0.000000
DOMAIN_MAX 0.903226 0.903226 0.903226
0.000000 0.000000 0.000000
0.184235 0.005554 0.008881
0.317596 0.008118 0.017059
0.409180 0.009583 0.025787
0.470154 0.010468 0.032043
0.522919 0.011139 0.038483
0.606873 0.012024 0.049591
0.750092 0.013367 0.071014
0.016327 0.183929 0.030609
0.197815 0.189728 0.041870
0.332245 0.191101 0.051514
0.425507 0.190796 0.061798
0.487885 0.190308 0.069336
0.542114 0.189423 0.076691
0.629089 0.187561 0.089569
0.779236 0.182617 0.113800
0.028625 0.311951 0.067657
0.202789 0.320679 0.079987
0.336060 0.323364 0.088898
0.428650 0.324371 0.096008
0.490265 0.324829 0.101685
0.544128 0.325012 0.106750
0.629608 0.325043 0.116180
0.776764 0.323883 0.134033
0.039764 0.398743 0.094360
0.206055 0.410431 0.108307
0.338928 0.413971 0.116272
0.431274 0.415527 0.122681
0.492859 0.416321 0.127472
0.546295 0.416779 0.131927
0.631683 0.417389 0.139526
0.778107 0.417511 0.154785
0.049866 0.455444 0.110748
0.208496 0.469971 0.127106
0.340973 0.473938 0.135132
0.433197 0.475800 0.141113
0.494659 0.476746 0.145355
0.548126 0.477478 0.149384
0.633301 0.478363 0.156494
0.779358 0.479095 0.170197
0.056976 0.505402 0.125793
0.210693 0.521454 0.143402
0.342926 0.526031 0.151428
0.434937 0.528076 0.157166
0.496246 0.529266 0.161346
0.549683 0.530029 0.165192
0.634796 0.531128 0.171570
0.780640 0.532227 0.184326
0.070190 0.584106 0.148712
0.214478 0.603119 0.169312
0.346130 0.608643 0.177551
0.437714 0.611115 0.183197
0.498901 0.612488 0.186890
0.552307 0.613495 0.190247
0.637299 0.614807 0.196472
0.782898 0.616486 0.207947
0.093445 0.718353 0.188080
0.221375 0.742096 0.212860
0.351807 0.749359 0.222198
0.442932 0.752594 0.227631
0.504028 0.754272 0.231323
0.557068 0.755524 0.234558
0.641876 0.757385 0.239868
0.787170 0.759766 0.249847
0.000031 0.002167 0.187073
0.173737 0.008118 0.222107
0.311676 0.009369 0.224091
0.405396 0.010864 0.226379
0.467285 0.011963 0.228333
0.521027 0.012939 0.229889
0.606262 0.014557 0.232849
0.751678 0.017303 0.238556
0.011993 0.185974 0.229401
0.188538 0.194397 0.239716
0.332672 0.182678 0.230499
0.428070 0.172455 0.224091
0.490906 0.167084 0.222168
0.545776 0.162811 0.222260
0.633728 0.156586 0.224884
0.787109 0.145447 0.236053
0.019165 0.320618 0.243652
0.170685 0.333221 0.222717
0.342957 0.335236 0.227753
0.434021 0.327423 0.237915
0.496002 0.323944 0.235046
0.549774 0.321381 0.234344
0.635284 0.318146 0.234558
0.782288 0.313660 0.239410
0.023804 0.413116 0.255707
0.170319 0.422974 0.227570
0.336365 0.426117 0.232849
0.440094 0.427765 0.236847
0.500977 0.423126 0.238953
0.553955 0.421143 0.245300
0.638885 0.418427 0.246521
0.784698 0.414886 0.250244
0.026733 0.474609 0.264771
0.171875 0.482117 0.233551
0.335052 0.486053 0.239624
0.437469 0.487946 0.243469
0.504211 0.488922 0.246368
0.557159 0.485687 0.246765
0.641479 0.483124 0.254852
0.786743 0.479950 0.258972
0.034180 0.525757 0.270721
0.173767 0.533264 0.240021
0.335236 0.537903 0.246613
0.436646 0.540039 0.250610
0.502594 0.541199 0.253357
0.559509 0.542023 0.255859
0.643768 0.538574 0.259125
0.788544 0.535797 0.267456
0.052948 0.604004 0.278748
0.178131 0.613861 0.252014
0.336456 0.620239 0.259796
0.436737 0.622742 0.263885
0.501984 0.624084 0.266663
0.558411 0.625092 0.269073
0.647278 0.626465 0.273071
0.791656 0.623047 0.280518
0.086761 0.736267 0.294098
0.186127 0.750763 0.275269
0.340820 0.760132 0.285797
0.439545 0.763397 0.290527
0.503998 0.765076 0.293396
0.559509 0.766418 0.295837
0.647400 0.768158 0.299774
0.796783 0.770477 0.306641
0.000031 0.004944 0.313873
0.150391 0.017181 0.378937
0.301025 0.012817 0.376770
0.397522 0.013153 0.377533
0.460663 0.013855 0.378693
0.515228 0.014587 0.379791
0.601563 0.015900 0.381958
0.748260 0.018433 0.386047
0.010529 0.185883 0.375916
0.126617 0.179138 0.403748
0.321686 0.170288 0.399780
0.419464 0.169586 0.391388
0.483582 0.166168 0.389923
0.539459 0.162781 0.390259
0.628387 0.157501 0.392578
0.783295 0.146942 0.402679
0.018646 0.320557 0.388031
0.139038 0.346710 0.416107
0.324249 0.333710 0.404236
0.426300 0.328400 0.400604
0.491150 0.322052 0.395355
0.546570 0.316040 0.390533
0.633575 0.306915 0.384186
0.781586 0.293579 0.378784
0.023712 0.413483 0.397186
0.141754 0.436127 0.410156
0.306793 0.433411 0.385651
0.436920 0.433899 0.388428
0.496948 0.425964 0.401337
0.551453 0.422089 0.399628
0.637939 0.415070 0.392822
0.784424 0.404938 0.386292
0.027039 0.475311 0.403961
0.144531 0.495483 0.410645
0.301422 0.494751 0.381226
0.427460 0.495667 0.384033
0.504547 0.496429 0.386444
0.557404 0.488312 0.389282
0.641144 0.483704 0.399628
0.787170 0.474457 0.392609
0.029846 0.528961 0.410309
0.148224 0.546570 0.412292
0.299133 0.547028 0.380615
0.422363 0.548340 0.383545
0.497894 0.549225 0.385956
0.561554 0.549957 0.388123
0.645081 0.540802 0.395508
0.789612 0.533325 0.398773
0.034149 0.614258 0.421112
0.154419 0.627686 0.417053
0.298065 0.629242 0.383728
0.418396 0.631104 0.386963
0.492188 0.632294 0.389343
0.554382 0.633148 0.391510
0.650757 0.634552 0.395111
0.793793 0.624420 0.406464
0.041138 0.759705 0.441528
0.166687 0.765198 0.428680
0.300842 0.768311 0.396027
0.417511 0.771301 0.400146
0.489410 0.772949 0.402679
0.550018 0.774139 0.404907
0.644012 0.775848 0.408447
0.801300 0.778320 0.414886
0.000031 0.008575 0.392212
0.118164 0.030609 0.492493
0.289001 0.017120 0.484344
0.389069 0.016022 0.483612
0.453613 0.016113 0.484070
0.509094 0.016449 0.484558
0.596466 0.017395 0.486084
0.744415 0.019501 0.489380
0.009399 0.185608 0.477692
0.059143 0.198120 0.528900
0.296021 0.169098 0.504730
0.409607 0.165466 0.506012
0.475311 0.165009 0.502106
0.532013 0.162842 0.501221
0.622223 0.158264 0.502594
0.777954 0.148499 0.511078
0.017792 0.320343 0.489014
0.074951 0.359131 0.539154
0.281647 0.315125 0.517853
0.419128 0.312042 0.517853
0.484619 0.314362 0.507813
0.540405 0.311310 0.503540
0.628235 0.304688 0.498901
0.777313 0.293274 0.495422
0.023224 0.413422 0.497498
0.087372 0.459106 0.544769
0.289856 0.440369 0.527863
0.418152 0.429779 0.517822
0.486725 0.427612 0.516724
0.544098 0.423553 0.513580
0.633118 0.415039 0.506592
0.781555 0.399780 0.495361
0.026703 0.475311 0.503693
0.094208 0.516907 0.541412
0.285339 0.501617 0.518005
0.406250 0.497894 0.504791
0.495636 0.497803 0.506409
0.547699 0.491791 0.519440
0.636475 0.484772 0.512421
0.784515 0.471649 0.500916
0.029572 0.529053 0.509064
0.100708 0.566986 0.540192
0.283508 0.553955 0.513763
0.398895 0.552643 0.497528
0.485779 0.552856 0.499115
0.556641 0.553192 0.500946
0.639771 0.543701 0.516663
0.787140 0.532135 0.506165
0.034149 0.614532 0.518402
0.112396 0.646118 0.540314
0.283569 0.636230 0.511749
0.392181 0.636627 0.492310
0.476196 0.637207 0.494019
0.544739 0.637817 0.495758
0.649078 0.638824 0.498962
0.791595 0.625854 0.515472
0.041595 0.760376 0.536255
0.131927 0.781281 0.545044
0.287567 0.775787 0.516907
0.388702 0.776764 0.494690
0.469543 0.777863 0.496643
0.535583 0.778870 0.498535
0.636292 0.780334 0.501709
0.801483 0.782562 0.507629
0.000031 0.011444 0.441772
0.076172 0.048523 0.576019
0.278412 0.021088 0.557007
0.381805 0.018585 0.554840
0.447601 0.018127 0.554688
0.503876 0.018158 0.554901
0.592133 0.018707 0.555969
0.741150 0.020447 0.558685
0.008484 0.185730 0.545349
0.054016 0.196320 0.595978
0.279053 0.171600 0.575745
0.395477 0.166260 0.575195
0.468292 0.163788 0.576935
0.525726 0.162872 0.574646
0.616974 0.158997 0.574921
0.773865 0.149506 0.582458
0.017181 0.320221 0.556549
0.063965 0.357941 0.608551
0.256500 0.311066 0.591064
0.396545 0.305389 0.588226
0.478241 0.303802 0.588959
0.534973 0.305908 0.580627
0.623688 0.302307 0.574615
0.773682 0.292816 0.570740
0.022705 0.413361 0.564667
0.069397 0.459778 0.616760
0.264648 0.432831 0.600159
0.390564 0.416595 0.594452
0.482605 0.415253 0.595001
0.540161 0.417328 0.586243
0.629089 0.411621 0.579773
0.778107 0.398499 0.570892
0.026276 0.475220 0.570404
0.072632 0.525879 0.622345
0.269989 0.507904 0.606140
0.395844 0.502106 0.601440
0.480560 0.493744 0.593414
0.540283 0.492249 0.592865
0.631195 0.486237 0.588196
0.781311 0.471710 0.576691
0.029266 0.529022 0.575623
0.074615 0.577972 0.622284
0.268738 0.560150 0.599731
0.389038 0.556732 0.591095
0.471252 0.553131 0.583160
0.548187 0.553009 0.584473
0.634338 0.545319 0.593262
0.784058 0.532684 0.581604
0.033997 0.614563 0.584442
0.077698 0.660980 0.624878
0.269531 0.642273 0.595093
0.382721 0.640808 0.582062
0.460205 0.639984 0.572266
0.534363 0.640167 0.573517
0.645020 0.640747 0.576324
0.788696 0.626953 0.590088
0.041656 0.760620 0.600891
0.082458 0.802734 0.634003
0.274963 0.781647 0.596619
0.380157 0.781036 0.579407
0.451630 0.781464 0.567230
0.522614 0.782074 0.568695
0.628662 0.783173 0.571411
0.800110 0.785095 0.576843
0.000031 0.013550 0.487030
0.048584 0.060364 0.644104
0.264954 0.026886 0.619202
0.374146 0.021301 0.617340
0.441406 0.020264 0.616516
0.498535 0.019958 0.616394
0.587769 0.020111 0.617004
0.737885 0.021423 0.619110
0.007507 0.185730 0.604034
0.052338 0.194611 0.653198
0.262634 0.175690 0.638580
0.383270 0.168243 0.635925
0.457031 0.165131 0.636871
0.519379 0.162750 0.638641
0.611725 0.159698 0.637878
0.769501 0.150726 0.644165
0.016541 0.320221 0.615234
0.062805 0.354706 0.665894
0.233124 0.311951 0.655670
0.378876 0.302856 0.649292
0.461182 0.300385 0.649170
0.528900 0.299011 0.650085
0.618835 0.299744 0.640656
0.769928 0.292389 0.635559
0.022247 0.413147 0.623230
0.068237 0.455811 0.673737
0.241669 0.431427 0.664307
0.368591 0.409180 0.657776
0.461060 0.406738 0.657135
0.535034 0.405548 0.657806
0.624878 0.407043 0.645233
0.774628 0.396942 0.636139
0.025818 0.475128 0.628723
0.071594 0.521454 0.679138
0.247162 0.505035 0.669800
0.373993 0.492462 0.664246
0.458038 0.483124 0.660065
0.536713 0.482178 0.660645
0.627838 0.482086 0.650421
0.778046 0.469849 0.640472
0.028931 0.528931 0.633789
0.074249 0.577911 0.683868
0.251831 0.567139 0.674652
0.378418 0.561035 0.669861
0.462463 0.556641 0.666138
0.534821 0.549347 0.659058
0.628571 0.546265 0.657593
0.780426 0.534119 0.647858
0.033691 0.614563 0.642151
0.077454 0.660950 0.685577
0.253326 0.649109 0.667938
0.372772 0.644958 0.657806
0.451996 0.643433 0.651733
0.522186 0.641296 0.645630
0.638977 0.641327 0.647797
0.785217 0.628418 0.655853
0.041595 0.760742 0.657715
0.082367 0.802826 0.693207
0.259857 0.788208 0.666534
0.370880 0.785187 0.651550
0.444183 0.784943 0.642181
0.509216 0.784973 0.634369
0.620544 0.785583 0.636566
0.797760 0.787048 0.641479
0.000031 0.018951 0.548035
0.044128 0.062469 0.734833
0.237579 0.038788 0.720093
0.359039 0.027130 0.717590
0.429504 0.024628 0.715942
0.488342 0.023560 0.715088
0.579620 0.022827 0.714661
0.731659 0.023346 0.715851
0.005859 0.185913 0.697449
0.049805 0.192871 0.744537
0.230896 0.185944 0.741821
0.362549 0.173431 0.734009
0.438843 0.169037 0.733337
0.502808 0.165802 0.734406
0.601593 0.161194 0.737762
0.761475 0.152924 0.741943
0.015472 0.320190 0.708832
0.060944 0.351257 0.757538
0.186218 0.321838 0.763580
0.351288 0.303406 0.747742
0.436279 0.299164 0.745636
0.505035 0.296753 0.745483
0.609222 0.294006 0.747070
0.762726 0.291534 0.737823
0.021362 0.413025 0.716583
0.066620 0.451508 0.765167
0.195709 0.438446 0.771515
0.334930 0.404419 0.757935
0.430542 0.399567 0.754791
0.505188 0.397217 0.754181
0.615845 0.395050 0.755219
0.767761 0.393768 0.739716
0.025085 0.475006 0.721924
0.070038 0.516602 0.770203
0.202026 0.510315 0.776337
0.340332 0.485291 0.763855
0.424286 0.471893 0.760284
0.503906 0.469482 0.759399
0.619720 0.467529 0.760223
0.771576 0.465637 0.742981
0.028198 0.528809 0.726624
0.072784 0.572662 0.774628
0.207031 0.571045 0.780670
0.345001 0.551849 0.769012
0.428894 0.542938 0.765747
0.501678 0.535095 0.762878
0.622131 0.533234 0.763550
0.774536 0.529724 0.747589
0.033173 0.614441 0.734619
0.076843 0.660828 0.781830
0.216217 0.664642 0.787079
0.352203 0.653442 0.777008
0.435913 0.649994 0.774414
0.508484 0.646851 0.772003
0.621155 0.637848 0.763611
0.777924 0.631348 0.759705
0.041260 0.760742 0.749146
0.082062 0.802856 0.787628
0.225677 0.802826 0.781067
0.351654 0.793396 0.765381
0.429138 0.791351 0.758667
0.496613 0.790466 0.753815
0.605194 0.789185 0.747620
0.791168 0.789581 0.751343
0.000031 0.028748 0.649384
0.035004 0.067139 0.888550
0.152466 0.076111 0.905853
0.314667 0.046967 0.886200
0.397949 0.037781 0.885254
0.465118 0.032104 0.886200
0.561188 0.029388 0.883728
0.718140 0.027863 0.882782
0.002655 0.186523 0.856842
0.045288 0.191895 0.900970
0.110809 0.233917 0.946899
0.316711 0.189270 0.906738
0.402283 0.180786 0.901703
0.470795 0.175385 0.900391
0.573914 0.168732 0.901306
0.743622 0.158142 0.908875
0.013336 0.320099 0.868835
0.057953 0.347961 0.915039
0.094971 0.350159 0.954285
0.295441 0.315582 0.922150
0.392456 0.305542 0.914124
0.466125 0.300476 0.911285
0.573944 0.295349 0.910126
0.746704 0.289307 0.913116
0.019531 0.412842 0.876495
0.064117 0.447144 0.922699
0.102448 0.465149 0.963318
0.266876 0.413452 0.935425
0.379211 0.400330 0.923920
0.459045 0.394958 0.920013
0.573334 0.389801 0.917938
0.752228 0.384888 0.919678
0.023468 0.474731 0.881653
0.067719 0.511688 0.927521
0.106689 0.536499 0.968872
0.272980 0.491516 0.940826
0.367493 0.468353 0.930817
0.453125 0.462158 0.926086
0.572327 0.457062 0.923462
0.756256 0.452606 0.924622
0.026794 0.528473 0.886200
0.070618 0.567230 0.931671
0.110077 0.596649 0.973541
0.277832 0.555969 0.945374
0.372223 0.536591 0.935699
0.447571 0.523529 0.931305
0.571411 0.518280 0.928314
0.759888 0.514130 0.929169
0.031952 0.614166 0.893646
0.074860 0.654785 0.938263
0.115112 0.690155 0.980988
0.285706 0.654144 0.952271
0.379608 0.639648 0.943329
0.454620 0.630676 0.939270
0.570953 0.619904 0.935547
0.765137 0.616272 0.936096
0.040405 0.760590 0.907043
0.081146 0.802734 0.949554
0.122955 0.846283 0.994080
0.299713 0.815155 0.963837
0.391998 0.806763 0.956207
0.466492 0.802826 0.952942
0.582184 0.798523 0.949890
0.768768 0.789154 0.942352
