OTTER-Stable/projects/better/res/luts/RRCoolLUT.CUBE
#Created by: Adobe Photoshop Export Color Lookup Plugin
TITLE "tutoriallutchanges.PNG"
#LUT size
LUT_3D_SIZE 5
#data domain
#LUT data points
DOMAIN_MIN 0.000000 0.000000 0.000000
DOMAIN_MAX 0.903226 0.903226 0.903226
0.000000 0.000000 0.000000
0.288757 0.007507 0.015137
0.442993 0.010071 0.028900
0.540161 0.011383 0.040375
0.750092 0.013367 0.071014
0.025879 0.284180 0.059174
0.305969 0.294403 0.077667
0.461853 0.295898 0.091064
0.560883 0.295868 0.101501
0.776642 0.294006 0.128204
0.044891 0.430359 0.103455
0.311005 0.446533 0.124908
0.466370 0.449402 0.135345
0.564728 0.450653 0.142853
0.778809 0.451599 0.163208
0.059998 0.521393 0.130402
0.314636 0.542114 0.155212
0.469391 0.545776 0.164795
0.567627 0.547394 0.171539
0.781158 0.549561 0.189087
0.093445 0.718353 0.188080
0.323181 0.748138 0.220398
0.476685 0.753571 0.229706
0.574432 0.756012 0.235596
0.787170 0.759766 0.249847
0.000031 0.004395 0.285828
0.273193 0.011841 0.343140
0.434448 0.012939 0.345184
0.534454 0.014404 0.347443
0.749237 0.018188 0.353668
0.017151 0.291290 0.353394
0.294708 0.303375 0.368408
0.463013 0.291077 0.358765
0.564423 0.280060 0.350708
0.781708 0.260986 0.344330
0.025665 0.447723 0.369843
0.272217 0.465759 0.346161
0.476044 0.467590 0.351501
0.572479 0.457825 0.364899
0.786316 0.445465 0.357605
0.030670 0.546295 0.381836
0.269958 0.561310 0.347900
0.466705 0.564270 0.353668
0.579987 0.565826 0.357697
0.790619 0.552734 0.369537
0.047882 0.756317 0.409546
0.274811 0.765167 0.367462
0.463104 0.770630 0.374908
0.572235 0.772949 0.379089
0.800842 0.776794 0.388641
0.000031 0.009705 0.422058
0.249054 0.020905 0.525024
0.421478 0.017181 0.522888
0.524384 0.017487 0.523712
0.742676 0.019989 0.527618
0.015656 0.291046 0.523865
0.225403 0.281860 0.557556
0.450073 0.273712 0.554871
0.553802 0.274200 0.543579
0.774323 0.261047 0.538910
0.024902 0.447662 0.537872
0.239258 0.479584 0.572632
0.452698 0.465179 0.559601
0.560944 0.460632 0.556854
0.781433 0.439606 0.540192
0.030426 0.546570 0.547729
0.239227 0.575073 0.563995
0.436218 0.571167 0.541992
0.572479 0.571442 0.544678
0.786499 0.551758 0.549469
0.041656 0.760529 0.571869
0.248230 0.779388 0.566589
0.423035 0.779480 0.534149
0.550354 0.780914 0.537170
0.800842 0.783997 0.545227
0.000031 0.014679 0.499390
0.220764 0.033081 0.641174
0.409302 0.021484 0.637085
0.515106 0.020538 0.636505
0.736694 0.021790 0.638947
0.014465 0.290863 0.631958
0.175873 0.289337 0.679993
0.420563 0.270111 0.665955
0.543213 0.266785 0.667328
0.767426 0.260864 0.657196
0.024048 0.447479 0.645294
0.191284 0.480713 0.693390
0.410919 0.447052 0.679779
0.553314 0.444427 0.680176
0.775299 0.436401 0.659058
0.029785 0.546448 0.654388
0.201050 0.591064 0.701233
0.419281 0.578064 0.690338
0.552429 0.567505 0.680481
0.780151 0.554230 0.671021
0.041534 0.760712 0.676422
0.215210 0.793793 0.695526
0.408264 0.786285 0.670044
0.528534 0.785950 0.657043
0.796661 0.787659 0.663391
0.000031 0.028748 0.649384
0.071777 0.097870 0.925446
0.361328 0.041718 0.884979
0.485260 0.031372 0.885529
0.718140 0.027863 0.882782
0.011261 0.290894 0.866425
0.084015 0.314087 0.942444
0.355835 0.280731 0.913727
0.490173 0.270996 0.908325
0.745422 0.260254 0.911469
0.021729 0.447113 0.879333
0.096191 0.500885 0.957184
0.324432 0.442291 0.931854
0.480896 0.430359 0.922546
0.754364 0.421997 0.922363
0.027832 0.546082 0.887634
0.102295 0.609528 0.965637
0.333374 0.565491 0.940552
0.473145 0.542511 0.931915
0.760925 0.534760 0.930634
0.040405 0.760590 0.907043
0.113739 0.836670 0.984253
0.352112 0.809753 0.958832
0.490356 0.801788 0.952148
0.768768 0.789154 0.942352
