OTTER-Stable/projects/better/res/luts/RRCoolLUT.CUBE
#Created by: Adobe Photoshop Export Color Lookup Plugin
TITLE "tutoriallutchanges.PNG"
#LUT size
LUT_3D_SIZE 32
#data domain
DOMAIN_MIN 0.0 0.0 0.0
DOMAIN_MAX 1.0 1.0 1.0
#LUT data points
0.000000 0.000000 0.000000
0.049683 0.002655 0.002686
0.098724 0.003479 0.004608
0.143127 0.004639 0.006592
0.184235 0.005554 0.008881
0.222046 0.006256 0.011108
0.256866 0.006958 0.013031
0.288757 0.007507 0.015137
0.317596 0.008118 0.017059
0.343842 0.008484 0.019867
0.367920 0.008911 0.021698
0.389618 0.009216 0.023926
0.409180 0.009583 0.025787
0.427002 0.009857 0.027283
0.442993 0.010071 0.028900
0.457245 0.010284 0.030640
0.470154 0.010468 0.032043
0.482300 0.010651 0.033142
0.494415 0.010773 0.034546
0.507874 0.010956 0.036072
0.522919 0.011139 0.038483
0.540161 0.011383 0.040375
0.559601 0.011627 0.042938
0.581635 0.011749 0.046478
0.606873 0.012024 0.049591
0.635529 0.012329 0.053894
0.668335 0.012604 0.058929
0.706207 0.012939 0.064575
0.750092 0.013367 0.071014
0.801361 0.013855 0.078766
0.862335 0.014404 0.088043
0.934143 0.015045 0.099030
0.005920 0.051056 0.008362
0.056244 0.052856 0.011871
0.105560 0.053436 0.013885
0.151184 0.053589 0.016846
0.193329 0.053406 0.020172
0.231415 0.053589 0.022583
0.267334 0.052856 0.026276
0.301331 0.051575 0.029999
0.331268 0.050751 0.033630
0.359039 0.049744 0.037384
0.384277 0.048645 0.041077
0.407410 0.047546 0.044342
0.428619 0.046387 0.047333
0.447113 0.045624 0.049622
0.464478 0.044556 0.052704
0.479889 0.043396 0.055603
0.493866 0.042542 0.057739
0.507202 0.041412 0.060455
0.520081 0.040710 0.062683
0.534607 0.039734 0.065399
0.550415 0.038635 0.068115
0.567322 0.038452 0.069763
0.586365 0.038239 0.072021
0.607819 0.037994 0.074280
0.632324 0.037476 0.077209
0.660248 0.037018 0.080750
0.691956 0.036163 0.084412
0.728516 0.035309 0.088501
0.770599 0.033936 0.093262
0.819733 0.032257 0.098633
0.878052 0.030121 0.104797
0.946106 0.026978 0.111572
0.010773 0.098694 0.014557
0.059814 0.101105 0.017517
0.108215 0.102142 0.020386
0.152557 0.103180 0.022766
0.194305 0.103485 0.025726
0.232849 0.103607 0.028351
0.268494 0.103363 0.031189
0.300690 0.103394 0.033997
0.330231 0.103149 0.037079
0.357452 0.102722 0.039795
0.382568 0.102173 0.042755
0.405365 0.101440 0.045624
0.425385 0.101013 0.048553
0.444214 0.100342 0.051086
0.460754 0.099976 0.053345
0.475891 0.099396 0.055481
0.489502 0.098938 0.057739
0.502594 0.098053 0.060303
0.515198 0.097778 0.062164
0.529480 0.096954 0.064270
0.545837 0.095917 0.067993
0.564209 0.095062 0.070709
0.585205 0.093750 0.074951
0.609589 0.091827 0.080444
0.637207 0.090027 0.086273
0.669159 0.087341 0.093323
0.706940 0.083405 0.102783
0.749878 0.078888 0.113403
0.801147 0.072754 0.126801
0.856323 0.068756 0.137695
0.915863 0.067841 0.145111
0.985626 0.066498 0.153320
0.013336 0.143433 0.021851
0.061432 0.145782 0.025757
0.109650 0.147308 0.027588
0.154572 0.148041 0.030518
0.196259 0.148651 0.032715
0.234375 0.148926 0.035645
0.269531 0.149139 0.038177
0.301697 0.149261 0.041260
0.331024 0.149292 0.043701
0.357971 0.149170 0.046143
0.382660 0.148926 0.048676
0.404907 0.148651 0.051575
0.425293 0.148438 0.053741
0.443512 0.148102 0.056244
0.459656 0.148041 0.057709
0.474640 0.147552 0.060272
0.487823 0.147369 0.062042
0.500610 0.147034 0.063751
0.513031 0.146729 0.065674
0.527130 0.146332 0.067932
0.542847 0.145844 0.070587
0.560852 0.145355 0.073273
0.580994 0.144775 0.076477
0.604248 0.143921 0.080292
0.630798 0.142883 0.085297
0.661194 0.141479 0.090485
0.696350 0.139771 0.097046
0.736755 0.137726 0.104492
0.784607 0.134399 0.114532
0.840973 0.130127 0.126617
0.909607 0.123993 0.142303
0.994629 0.113647 0.165344
0.016327 0.183929 0.030609
0.063904 0.186249 0.033630
0.112091 0.187836 0.036499
0.156189 0.189209 0.039001
0.197815 0.189728 0.041870
0.235748 0.190369 0.044006
0.270782 0.190765 0.046448
0.303009 0.190857 0.049133
0.332245 0.191101 0.051514
0.359192 0.191010 0.054321
0.383423 0.190948 0.057068
0.405640 0.190948 0.059052
0.425507 0.190796 0.061798
0.443787 0.190582 0.063843
0.459808 0.190613 0.065704
0.474487 0.190460 0.067444
0.487885 0.190308 0.069336
0.500214 0.190063 0.071014
0.512756 0.189941 0.072754
0.526520 0.189758 0.074615
0.542114 0.189423 0.076691
0.559906 0.189117 0.079437
0.580017 0.188751 0.082397
0.602844 0.188416 0.085480
0.629089 0.187561 0.089569
0.659088 0.186890 0.094116
0.693359 0.185760 0.099670
0.733124 0.184448 0.106171
0.779236 0.182617 0.113800
0.833801 0.180176 0.123932
0.899231 0.176666 0.136383
0.977295 0.171631 0.152100
0.018738 0.220886 0.040192
0.065338 0.223297 0.042938
0.113251 0.225159 0.046204
0.158051 0.226318 0.048370
0.199249 0.227142 0.051178
0.237122 0.227936 0.053375
0.272217 0.228302 0.055939
0.304047 0.228546 0.058838
0.333191 0.228851 0.061218
0.360077 0.228912 0.063660
0.384308 0.229034 0.066193
0.406311 0.229004 0.068268
0.426239 0.229065 0.070465
0.444305 0.229095 0.072205
0.460602 0.228973 0.074249
0.475281 0.228973 0.075745
0.488220 0.228943 0.077271
0.500488 0.228790 0.079193
0.512939 0.228760 0.080719
0.526917 0.228516 0.082214
0.542358 0.228516 0.084229
0.559937 0.228363 0.085999
0.580170 0.228027 0.088776
0.602600 0.227783 0.092224
0.628632 0.227448 0.095459
0.658417 0.226746 0.099670
0.692444 0.226166 0.104584
0.731659 0.225250 0.110718
0.777405 0.223999 0.117523
0.831207 0.222229 0.126434
0.895416 0.219788 0.137268
0.971863 0.216400 0.151123
0.022461 0.253967 0.049896
0.067200 0.256683 0.052948
0.114899 0.258881 0.056030
0.159210 0.260406 0.058716
0.200287 0.261353 0.061462
0.238281 0.262085 0.063690
0.273071 0.262573 0.066376
0.305084 0.263092 0.068390
0.334290 0.263336 0.070679
0.360809 0.263489 0.073486
0.385193 0.263641 0.075562
0.407104 0.263885 0.077423
0.426910 0.263947 0.079346
0.445038 0.263916 0.081421
0.461182 0.264008 0.082794
0.475861 0.263855 0.084656
0.488953 0.263916 0.086029
0.501282 0.263885 0.087189
0.513672 0.263885 0.088623
0.527252 0.263916 0.090149
0.542725 0.263855 0.091736
0.560425 0.263641 0.094086
0.580292 0.263641 0.096436
0.602966 0.263428 0.099091
0.628876 0.263062 0.102509
0.658325 0.262817 0.106415
0.692169 0.262360 0.110901
0.731323 0.261719 0.115967
0.776733 0.260864 0.122864
0.830200 0.259644 0.130798
0.893829 0.257874 0.140717
0.969330 0.255280 0.152985
0.025879 0.284180 0.059174
0.069427 0.286835 0.062256
0.116638 0.289520 0.065735
0.160583 0.291229 0.068817
0.201416 0.292480 0.071198
0.239288 0.293274 0.073303
0.274078 0.293915 0.075836
0.305969 0.294403 0.077667
0.334991 0.294861 0.080078
0.361694 0.295044 0.082458
0.385925 0.295319 0.084320
0.407867 0.295471 0.086212
0.427917 0.295624 0.087769
0.445679 0.295746 0.089783
0.461853 0.295898 0.091064
0.476501 0.295868 0.092712
0.489532 0.295898 0.094055
0.501984 0.295868 0.095154
0.514252 0.295929 0.096405
0.527985 0.295868 0.097961
0.543427 0.295868 0.099487
0.560883 0.295868 0.101501
0.580872 0.295746 0.103882
0.603424 0.295746 0.106323
0.629303 0.295532 0.109131
0.658752 0.295319 0.113068
0.692474 0.295044 0.117340
0.731415 0.294678 0.122070
0.776642 0.294006 0.128204
0.829742 0.293030 0.135742
0.893005 0.291626 0.144989
0.967987 0.289764 0.156586
0.028625 0.311951 0.067657
0.069824 0.314972 0.071259
0.117188 0.317932 0.074921
0.161804 0.319427 0.077606
0.202789 0.320679 0.079987
0.240112 0.321747 0.082336
0.274902 0.322479 0.084412
0.306763 0.323029 0.086517
0.336060 0.323364 0.088898
0.362610 0.323700 0.090820
0.386627 0.324097 0.092468
0.408691 0.324249 0.094574
0.428650 0.324371 0.096008
0.446686 0.324615 0.097778
0.462708 0.324677 0.099182
0.477142 0.324860 0.100311
0.490265 0.324829 0.101685
0.502625 0.324951 0.102753
0.515015 0.324829 0.103973
0.528564 0.325012 0.105225
0.544128 0.325012 0.106750
0.561554 0.325043 0.108612
0.581421 0.325104 0.110809
0.603912 0.325134 0.113068
0.629608 0.325043 0.116180
0.659180 0.324799 0.119598
0.692780 0.324707 0.123474
0.731689 0.324371 0.128265
0.776764 0.323883 0.134033
0.829651 0.323212 0.140900
0.892853 0.322266 0.149689
0.967529 0.320648 0.160675
0.032196 0.336639 0.075409
0.071930 0.339874 0.078796
0.118866 0.343262 0.082458
0.162506 0.345276 0.085754
0.203766 0.346527 0.088074
0.241058 0.347656 0.090393
0.275909 0.348297 0.092499
0.307556 0.349030 0.094727
0.336700 0.349487 0.096649
0.363312 0.349915 0.098450
0.387543 0.350189 0.100372
0.409424 0.350433 0.102051
0.429291 0.350708 0.103638
0.447235 0.350891 0.104980
0.463562 0.350922 0.106232
0.477875 0.351196 0.107513
0.490906 0.351166 0.109039
0.503296 0.351318 0.109772
0.515594 0.351379 0.110901
0.529175 0.351440 0.112457
0.544647 0.351563 0.113861
0.562286 0.351532 0.115509
0.581970 0.351593 0.117493
0.604523 0.351624 0.119720
0.630249 0.351624 0.122467
0.659546 0.351532 0.125793
0.693176 0.351471 0.129547
0.732086 0.351227 0.134125
0.776978 0.350891 0.139557
0.829834 0.350464 0.146240
0.892639 0.349640 0.154633
0.967346 0.348419 0.165070
0.034760 0.359589 0.082275
0.073395 0.362640 0.085541
0.119202 0.366760 0.090302
0.163666 0.368591 0.092834
0.204468 0.370026 0.095459
0.242157 0.371063 0.097473
0.276794 0.371918 0.099762
0.308594 0.372620 0.101746
0.337677 0.373138 0.103638
0.363953 0.373688 0.105530
0.388306 0.373932 0.107269
0.410126 0.374298 0.108826
0.429901 0.374542 0.110382
0.447876 0.374786 0.111908
0.464142 0.374878 0.113281
0.478607 0.374969 0.114471
0.491638 0.375092 0.115631
0.503845 0.375153 0.116760
0.516083 0.375305 0.117828
0.529938 0.375336 0.118927
0.545258 0.375397 0.120422
0.562714 0.375549 0.122192
0.582581 0.375702 0.124115
0.605042 0.375702 0.126282
0.630707 0.375854 0.128540
0.660126 0.375732 0.131836
0.693756 0.375763 0.135254
0.732391 0.375793 0.139679
0.777374 0.375488 0.144928
0.830048 0.375153 0.151398
0.892761 0.374420 0.159363
0.967285 0.373474 0.169128
0.037811 0.379944 0.088470
0.074524 0.383270 0.092041
0.120697 0.387482 0.096649
0.164368 0.389832 0.099701
0.205292 0.391205 0.102386
0.242737 0.392426 0.104523
0.277435 0.393341 0.106659
0.309357 0.393982 0.108429
0.338379 0.394501 0.110229
0.364807 0.395050 0.112091
0.388824 0.395416 0.113892
0.410767 0.395782 0.115479
0.430695 0.396027 0.116760
0.448578 0.396240 0.118256
0.464661 0.396484 0.119507
0.479156 0.396606 0.120575
0.492279 0.396698 0.121735
0.504547 0.396851 0.122894
0.516846 0.396942 0.123901
0.530334 0.397125 0.125031
0.545807 0.397186 0.126343
0.563324 0.397278 0.128052
0.583099 0.397369 0.129700
0.605560 0.397461 0.131897
0.631256 0.397583 0.134277
0.660583 0.397675 0.137329
0.694122 0.397705 0.140778
0.732819 0.397644 0.144958
0.777679 0.397583 0.149811
0.830353 0.397308 0.156158
0.893036 0.396820 0.163879
0.967377 0.396057 0.173431
0.039764 0.398743 0.094360
0.075073 0.402130 0.097870
0.121490 0.406464 0.102722
0.165558 0.408844 0.105560
0.206055 0.410431 0.108307
0.243683 0.411621 0.110382
0.278137 0.412628 0.112305
0.309967 0.413330 0.114532
0.338928 0.413971 0.116272
0.365356 0.414429 0.118347
0.389435 0.414886 0.119904
0.411346 0.415222 0.121338
0.431274 0.415527 0.122681
0.449310 0.415710 0.123871
0.465271 0.416016 0.125275
0.479675 0.416138 0.126587
0.492859 0.416321 0.127472
0.505066 0.416412 0.128510
0.517365 0.416504 0.129578
0.530975 0.416656 0.130676
0.546295 0.416779 0.131927
0.563782 0.417023 0.133514
0.583588 0.417053 0.135345
0.606171 0.417267 0.137360
0.631683 0.417389 0.139526
0.661072 0.417480 0.142273
0.694641 0.417511 0.145721
0.733276 0.417480 0.149933
0.778107 0.417511 0.154785
0.830627 0.417450 0.160736
0.893250 0.416962 0.168182
0.967651 0.416168 0.177460
0.042542 0.415375 0.098969
0.076141 0.418793 0.102936
0.122192 0.423676 0.108185
0.165985 0.426178 0.111450
0.206635 0.427795 0.113861
0.244232 0.429077 0.116180
0.278687 0.430115 0.118073
0.310547 0.430847 0.120026
0.339661 0.431366 0.122040
0.366150 0.431885 0.123566
0.390106 0.432434 0.125000
0.412018 0.432831 0.126526
0.431854 0.433075 0.128204
0.449768 0.433350 0.129395
0.465668 0.433624 0.130524
0.480255 0.433746 0.131622
0.493286 0.433960 0.132629
0.505554 0.434113 0.133484
0.517883 0.434235 0.134552
0.531433 0.434387 0.135651
0.546783 0.434540 0.136780
0.564331 0.434723 0.138306
0.584137 0.434814 0.140228
0.606567 0.435028 0.142090
0.632141 0.435120 0.144562
0.661438 0.435211 0.147339
0.694916 0.435455 0.150513
0.733673 0.435455 0.154480
0.778381 0.435455 0.159210
0.831024 0.435272 0.164948
0.893555 0.435211 0.172089
0.967865 0.434448 0.181274
0.044891 0.430359 0.103455
0.077271 0.433807 0.107056
0.122925 0.439026 0.112946
0.166595 0.441681 0.116272
0.207275 0.443420 0.118744
0.244812 0.444702 0.121063
0.279541 0.445648 0.123016
0.311005 0.446533 0.124908
0.340027 0.447174 0.126648
0.366516 0.447723 0.128418
0.390625 0.448212 0.129883
0.412628 0.448578 0.131348
0.432281 0.448853 0.132935
0.450165 0.449249 0.134094
0.466370 0.449402 0.135345
0.480835 0.449585 0.136322
0.493866 0.449799 0.137329
0.506104 0.449951 0.138214
0.518280 0.450104 0.139160
0.531860 0.450287 0.140228
0.547272 0.450470 0.141327
0.564728 0.450653 0.142853
0.584473 0.450897 0.144623
0.606964 0.450989 0.146454
0.632568 0.451050 0.149017
0.661774 0.451294 0.151550
0.695313 0.451508 0.154755
0.733978 0.451660 0.158722
0.778809 0.451599 0.163208
0.831360 0.451569 0.168823
0.893738 0.451477 0.175934
0.968079 0.450928 0.184662
0.047089 0.443695 0.107513
0.078064 0.447266 0.111328
0.123840 0.452789 0.117035
0.167419 0.455505 0.120605
0.208008 0.457336 0.123138
0.245331 0.458771 0.125458
0.279755 0.459778 0.127441
0.311646 0.460602 0.129333
0.340546 0.461334 0.131012
0.367004 0.461914 0.132751
0.390991 0.462341 0.134399
0.412842 0.462769 0.135864
0.432770 0.463135 0.137085
0.450623 0.463379 0.138428
0.466766 0.463623 0.139374
0.481171 0.463898 0.140564
0.494171 0.464081 0.141571
0.506378 0.464203 0.142334
0.518707 0.464417 0.143311
0.532349 0.464539 0.144592
0.547699 0.464691 0.145721
0.565186 0.464874 0.147034
0.584991 0.464996 0.148773
0.607361 0.465332 0.150482
0.632843 0.465546 0.152893
0.662201 0.465637 0.155518
0.695679 0.465851 0.158600
0.734314 0.465973 0.162323
0.779053 0.466156 0.166809
0.831543 0.466125 0.172424
0.894043 0.466003 0.179321
0.968231 0.465637 0.187927
0.049866 0.455444 0.110748
0.078644 0.459442 0.114960
0.124725 0.465088 0.121002
0.167908 0.468018 0.124481
0.208496 0.469971 0.127106
0.245697 0.471405 0.129486
0.280396 0.472382 0.131378
0.311981 0.473267 0.133453
0.340973 0.473938 0.135132
0.367493 0.474548 0.136719
0.391571 0.475067 0.138123
0.413422 0.475403 0.139771
0.433197 0.475800 0.141113
0.451080 0.476105 0.142242
0.467163 0.476440 0.143372
0.481598 0.476624 0.144379
0.494659 0.476746 0.145355
0.506775 0.476959 0.146118
0.519104 0.477142 0.147064
0.532745 0.477264 0.148132
0.548126 0.477478 0.149384
0.565460 0.477661 0.150726
0.585327 0.477875 0.152435
0.607849 0.478149 0.154175
0.633301 0.478363 0.156494
0.662537 0.478546 0.158997
0.696014 0.478668 0.162109
0.734680 0.478912 0.165771
0.779358 0.479095 0.170197
0.831848 0.479126 0.175690
0.894196 0.479065 0.182404
0.968475 0.478821 0.190887
0.051300 0.466980 0.114105
0.079681 0.470612 0.118195
0.125336 0.476685 0.124573
0.168671 0.479706 0.128265
0.209137 0.481659 0.130890
0.246490 0.483093 0.133270
0.280853 0.484283 0.135193
0.312592 0.485138 0.137115
0.341461 0.485901 0.138977
0.367920 0.486511 0.140503
0.391907 0.487030 0.141937
0.413757 0.487457 0.143463
0.433472 0.487854 0.144806
0.451447 0.488129 0.145966
0.467499 0.488434 0.147064
0.481964 0.488647 0.148041
0.494812 0.488861 0.148987
0.507202 0.489044 0.149811
0.519501 0.489197 0.150696
0.533081 0.489410 0.151733
0.548523 0.489594 0.153046
0.565887 0.489838 0.154297
0.585693 0.489960 0.155914
0.608124 0.490204 0.157654
0.633606 0.490448 0.159973
0.662872 0.490723 0.162445
0.696320 0.490845 0.165497
0.734924 0.491058 0.169098
0.779755 0.491302 0.173492
0.832153 0.491425 0.178650
0.894531 0.491272 0.185303
0.968689 0.491089 0.193604
0.053314 0.478302 0.117401
0.079498 0.482422 0.121948
0.125854 0.488464 0.128143
0.169128 0.491547 0.131866
0.209381 0.493683 0.134735
0.246918 0.495056 0.136902
0.281311 0.496185 0.139069
0.313080 0.497070 0.140778
0.341888 0.497833 0.142548
0.368347 0.498474 0.144287
0.392334 0.499023 0.145752
0.414185 0.499451 0.147247
0.433899 0.499847 0.148376
0.451813 0.500183 0.149506
0.467926 0.500427 0.150635
0.482391 0.500671 0.151733
0.495361 0.500885 0.152557
0.507507 0.501129 0.153442
0.519867 0.501251 0.154388
0.533447 0.501465 0.155334
0.548706 0.501617 0.156647
0.566223 0.501862 0.157928
0.585999 0.502106 0.159485
0.608490 0.502289 0.161285
0.633942 0.502625 0.163330
0.663269 0.502777 0.165833
0.696655 0.503082 0.168732
0.735168 0.503387 0.172424
0.779907 0.503448 0.176575
0.832367 0.503693 0.181824
0.894684 0.503662 0.188354
0.968994 0.503540 0.196503
0.054413 0.491241 0.121521
0.080719 0.494812 0.125336
0.126160 0.501373 0.132233
0.169830 0.504517 0.136078
0.210022 0.506683 0.138763
0.247345 0.508209 0.141174
0.281799 0.509369 0.143127
0.313507 0.510284 0.144989
0.342377 0.511108 0.146790
0.368774 0.511719 0.148346
0.392761 0.512299 0.149780
0.414642 0.512665 0.151245
0.434296 0.513123 0.152527
0.452240 0.513428 0.153656
0.468323 0.513763 0.154755
0.482849 0.513947 0.155670
0.495697 0.514191 0.156616
0.508057 0.514374 0.157410
0.520264 0.514587 0.158295
0.533905 0.514771 0.159363
0.549194 0.515045 0.160370
0.566620 0.515259 0.161743
0.586456 0.515472 0.163330
0.608826 0.515778 0.165161
0.634308 0.515961 0.167297
0.663605 0.516235 0.169678
0.697021 0.516510 0.172607
0.735626 0.516785 0.176056
0.780334 0.516998 0.180267
0.832733 0.517120 0.185364
0.895081 0.517334 0.191833
0.969299 0.517120 0.199768
0.056976 0.505402 0.125793
0.081177 0.509064 0.129456
0.127441 0.515686 0.136658
0.170349 0.519257 0.140594
0.210693 0.521454 0.143402
0.248077 0.523041 0.145752
0.282410 0.524292 0.147797
0.313934 0.525238 0.149780
0.342926 0.526031 0.151428
0.369354 0.526703 0.152924
0.393341 0.527252 0.154541
0.415131 0.527710 0.155884
0.434937 0.528076 0.157166
0.452698 0.528473 0.158203
0.468689 0.528809 0.159485
0.483246 0.528992 0.160370
0.496246 0.529266 0.161346
0.508545 0.529388 0.162262
0.520691 0.529694 0.162781
0.534302 0.529846 0.163910
0.549683 0.530029 0.165192
0.567078 0.530334 0.166534
0.586884 0.530548 0.167816
0.609192 0.530914 0.169678
0.634796 0.531128 0.171570
0.664063 0.531403 0.174011
0.697418 0.531647 0.176819
0.735931 0.532013 0.180176
0.780640 0.532227 0.184326
0.833038 0.532440 0.189392
0.895325 0.532562 0.195679
0.969696 0.532593 0.203705
0.059998 0.521393 0.130402
0.082947 0.524841 0.133911
0.128479 0.532074 0.141693
0.171326 0.535919 0.145905
0.211670 0.538208 0.148712
0.248596 0.539886 0.151154
0.282959 0.541168 0.153351
0.314636 0.542114 0.155212
0.343445 0.542969 0.156860
0.369965 0.543579 0.158264
0.393921 0.544189 0.159882
0.415649 0.544739 0.161194
0.435547 0.545074 0.162506
0.453369 0.545532 0.163574
0.469391 0.545776 0.164795
0.483795 0.546112 0.165649
0.496796 0.546265 0.166595
0.509064 0.546509 0.167145
0.521240 0.546722 0.167999
0.534882 0.546936 0.169159
0.550323 0.547150 0.170197
0.567627 0.547394 0.171539
0.587341 0.547668 0.172882
0.609741 0.547913 0.174652
0.635376 0.548218 0.176544
0.664490 0.548584 0.178955
0.697815 0.548950 0.181671
0.736420 0.549316 0.185089
0.781158 0.549561 0.189087
0.833405 0.549866 0.193970
0.895752 0.549927 0.200165
0.969971 0.550049 0.207916
0.063232 0.539581 0.135620
0.083405 0.543304 0.139435
0.129089 0.550934 0.147583
0.172150 0.554779 0.151794
0.212585 0.557098 0.154694
0.249603 0.558899 0.157166
0.283936 0.560242 0.159393
0.315308 0.561249 0.161224
0.344299 0.562134 0.162903
0.370514 0.562897 0.164551
0.394745 0.563416 0.165924
0.416382 0.563965 0.167236
0.436188 0.564392 0.168457
0.453827 0.564850 0.169647
0.470154 0.565063 0.170715
0.484436 0.565338 0.171570
0.497284 0.565643 0.172455
0.509644 0.565857 0.173218
0.521942 0.566071 0.174072
0.535492 0.566345 0.174988
0.550781 0.566559 0.175964
0.568085 0.566833 0.177338
0.587921 0.567108 0.178650
0.610352 0.567413 0.180389
0.635803 0.567749 0.182343
0.664948 0.568085 0.184723
0.698364 0.568481 0.187256
0.736938 0.568878 0.190582
0.781616 0.569214 0.194427
0.833954 0.569397 0.199280
0.896118 0.569763 0.205322
0.970551 0.569885 0.212921
0.066437 0.560394 0.141846
0.085144 0.563690 0.145264
0.130493 0.571991 0.153809
0.173187 0.576233 0.158478
0.213287 0.578766 0.161560
0.250519 0.580475 0.164063
0.284821 0.581909 0.166138
0.316284 0.583008 0.167969
0.345001 0.583923 0.169769
0.371246 0.584686 0.171265
0.395325 0.585327 0.172668
0.417053 0.585815 0.174072
0.436890 0.586243 0.175262
0.454712 0.586670 0.176392
0.470825 0.586975 0.177368
0.485168 0.587341 0.178284
0.498199 0.587555 0.179138
0.510406 0.587769 0.179993
0.522675 0.587982 0.180695
0.536224 0.588257 0.181610
0.551544 0.588531 0.182892
0.568848 0.588806 0.183868
0.588654 0.589111 0.185364
0.611053 0.589417 0.186890
0.636566 0.589752 0.188934
0.665710 0.590118 0.191101
0.699066 0.590607 0.193665
0.737610 0.591003 0.196960
0.782196 0.591339 0.200714
0.834503 0.591675 0.205231
0.896729 0.592010 0.211334
0.971100 0.592102 0.218658
0.070190 0.584106 0.148712
0.086548 0.587097 0.151886
0.131836 0.596100 0.161316
0.174683 0.600433 0.166077
0.214478 0.603119 0.169312
0.251556 0.605072 0.171936
0.285583 0.606567 0.174042
0.317200 0.607666 0.175873
0.346130 0.608643 0.177551
0.372345 0.609375 0.179169
0.396210 0.610138 0.180542
0.417938 0.610657 0.181793
0.437714 0.611115 0.183197
0.455566 0.611542 0.184174
0.471527 0.611908 0.185181
0.486084 0.612213 0.186066
0.498901 0.612488 0.186890
0.511261 0.612732 0.187622
0.523468 0.612946 0.188446
0.537018 0.613220 0.189362
0.552307 0.613495 0.190247
0.569672 0.613739 0.191559
0.589417 0.614105 0.192963
0.611816 0.614471 0.194489
0.637299 0.614807 0.196472
0.666473 0.615143 0.198608
0.699799 0.615723 0.201111
0.738342 0.616028 0.204102
0.782898 0.616486 0.207947
0.835175 0.617035 0.212433
0.897430 0.617432 0.218140
0.971771 0.617767 0.225128
0.074860 0.610992 0.156586
0.087891 0.613861 0.159576
0.133362 0.623444 0.169586
0.175995 0.628143 0.174591
0.216003 0.631073 0.177948
0.252808 0.633087 0.180695
0.286865 0.634735 0.183014
0.318390 0.635864 0.184845
0.347046 0.636902 0.186584
0.373322 0.637695 0.188019
0.397247 0.638458 0.189575
0.419098 0.638977 0.190796
0.438751 0.639496 0.191956
0.456482 0.639984 0.193024
0.472534 0.640320 0.194122
0.486969 0.640656 0.194946
0.499969 0.640900 0.195801
0.512115 0.641235 0.196655
0.524353 0.641449 0.197144
0.537964 0.641693 0.198181
0.553253 0.641998 0.199127
0.570557 0.642334 0.200317
0.590332 0.642670 0.201599
0.612640 0.643036 0.203186
0.638184 0.643402 0.204987
0.667358 0.643890 0.207062
0.700745 0.644287 0.209625
0.739136 0.644867 0.212524
0.783752 0.645203 0.216156
0.835938 0.645752 0.220551
0.898163 0.646240 0.226135
0.972626 0.646606 0.232880
0.079712 0.641937 0.165894
0.089325 0.644257 0.168274
0.135406 0.654602 0.178772
0.177856 0.659790 0.184387
0.217346 0.662994 0.188110
0.254364 0.665131 0.190796
0.288422 0.666809 0.192993
0.319763 0.668091 0.194916
0.348541 0.669159 0.196716
0.374603 0.670074 0.198273
0.398499 0.670837 0.199768
0.420197 0.671448 0.201141
0.439880 0.671997 0.202148
0.457794 0.672455 0.203186
0.473846 0.672821 0.204193
0.488098 0.673157 0.205109
0.501038 0.673492 0.205872
0.513214 0.673767 0.206635
0.525482 0.674042 0.207428
0.539063 0.674286 0.208313
0.554260 0.674652 0.209320
0.571655 0.674957 0.210388
0.591400 0.675293 0.211700
0.613800 0.675690 0.213135
0.639313 0.676178 0.214905
0.668274 0.676605 0.216919
0.701660 0.677094 0.219299
0.740082 0.677734 0.222290
0.784698 0.678162 0.225769
0.836945 0.678772 0.229919
0.899078 0.679352 0.235199
0.973602 0.679749 0.241974
0.086456 0.677185 0.176025
0.092133 0.678711 0.177582
0.137421 0.690277 0.189331
0.179779 0.696228 0.195709
0.219330 0.699677 0.199554
0.255859 0.702118 0.202545
0.290009 0.703796 0.204773
0.321228 0.705231 0.206818
0.350037 0.706299 0.208679
0.376099 0.707245 0.210205
0.400055 0.708069 0.211517
0.421631 0.708710 0.212921
0.441284 0.709320 0.213989
0.459137 0.709778 0.215088
0.475220 0.710205 0.215912
0.489502 0.710602 0.216858
0.502411 0.710938 0.217682
