OTTER-Stable/projects/better/res/luts/RRDarkenedLUT.CUBE
#Created by: Adobe Photoshop Export Color Lookup Plugin
TITLE "tutoriallutchanges.PNG"
#LUT size
LUT_3D_SIZE 5
#data domain
#LUT data points
DOMAIN_MIN 0.000000 0.000000 0.000000
DOMAIN_MAX 0.903226 0.903226 0.903226
0.000000 0.000000 0.000000
0.107788 0.000000 0.000000
0.208191 0.000000 0.000000
0.301239 0.000000 0.000000
0.387604 0.000000 0.000000
0.000000 0.107788 0.000000
0.107788 0.107788 0.000000
0.208191 0.107788 0.000000
0.301239 0.107758 0.000000
0.387604 0.107788 0.000000
0.000000 0.208191 0.000000
0.107788 0.208191 0.000000
0.208191 0.208191 0.000000
0.301239 0.208191 0.000000
0.387604 0.208191 0.000000
0.000000 0.301239 0.000000
0.107758 0.301239 0.000000
0.208191 0.301239 0.000000
0.301239 0.301239 0.000000
0.387604 0.301239 0.000000
0.000000 0.387604 0.000000
0.107788 0.387604 0.000000
0.208191 0.387604 0.000000
0.301239 0.387604 0.000000
0.387604 0.387604 0.000000
0.000000 0.000000 0.107788
0.107788 0.000000 0.107788
0.208191 0.000000 0.107788
0.301239 0.000000 0.107758
0.387604 0.000000 0.107788
0.000000 0.107788 0.107788
0.107788 0.107788 0.107788
0.272217 0.035339 0.035339
0.387604 0.000000 0.000000
0.474030 0.000000 0.000000
0.000000 0.208191 0.107788
0.035339 0.272217 0.035339
0.272217 0.272217 0.035339
0.387604 0.208191 0.000000
0.474030 0.175507 0.000000
0.000000 0.301239 0.107758
0.000000 0.387604 0.000000
0.208191 0.387604 0.000000
0.387604 0.387604 0.000000
0.474030 0.330750 0.000000
0.000000 0.387604 0.107788
0.000000 0.474030 0.000000
0.175507 0.474030 0.000000
0.330750 0.474030 0.000000
0.474030 0.474030 0.000000
0.000000 0.000000 0.208191
0.107788 0.000000 0.208191
0.208191 0.000000 0.208191
0.301239 0.000000 0.208191
0.387604 0.000000 0.208191
0.000000 0.107788 0.208191
0.035339 0.035339 0.272217
0.272217 0.035339 0.272217
0.387604 0.000000 0.208191
0.474030 0.000000 0.175507
0.000000 0.208191 0.208191
0.035339 0.272217 0.272217
0.208191 0.208191 0.208191
0.360321 0.140717 0.140717
0.505341 0.069855 0.069855
0.000000 0.301239 0.208191
0.000000 0.387604 0.208191
0.140717 0.360321 0.140717
0.360321 0.360321 0.140717
0.505341 0.301239 0.069855
0.000000 0.387604 0.208191
0.000000 0.474030 0.175507
0.069855 0.505341 0.069855
0.301239 0.505341 0.069855
0.505341 0.505341 0.069855
0.000000 0.000000 0.301239
0.107758 0.000000 0.301239
0.208191 0.000000 0.301239
0.301239 0.000000 0.301239
0.387604 0.000000 0.301239
0.000000 0.107758 0.301239
0.000000 0.000000 0.387604
0.208191 0.000000 0.387604
0.387604 0.000000 0.387604
0.474030 0.000000 0.330750
0.000000 0.208191 0.301239
0.000000 0.208191 0.387604
0.140717 0.140717 0.360321
0.360321 0.140717 0.360321
0.505341 0.069855 0.301239
0.000000 0.301239 0.301239
0.000000 0.387604 0.387604
0.140717 0.360321 0.360321
0.301239 0.301239 0.301239
0.446136 0.238770 0.238770
0.000000 0.387604 0.301239
0.000000 0.474030 0.330750
0.069855 0.505341 0.301239
0.238770 0.446136 0.238770
0.446136 0.446136 0.238770
0.000000 0.000000 0.387604
0.107788 0.000000 0.387604
0.208191 0.000000 0.387604
0.301239 0.000000 0.387604
0.387604 0.000000 0.387604
0.000000 0.107788 0.387604
0.000000 0.000000 0.474030
0.175507 0.000000 0.474030
0.330750 0.000000 0.474030
0.474030 0.000000 0.474030
0.000000 0.208191 0.387604
0.000000 0.175507 0.474030
0.069855 0.069855 0.505341
0.301239 0.069855 0.505341
0.505341 0.069855 0.505341
0.000000 0.301239 0.387604
0.000000 0.330750 0.474030
0.069855 0.301239 0.505341
0.238770 0.238770 0.446136
0.446136 0.238770 0.446136
0.000000 0.387604 0.387604
0.000000 0.474030 0.474030
0.069855 0.505341 0.505341
0.238770 0.446136 0.446136
0.387604 0.387604 0.387604
