OTTER-Stable/projects/better/res/luts/RRDarkenedLUT.CUBE
#Created by: Adobe Photoshop Export Color Lookup Plugin
TITLE "tutoriallutchanges.PNG"
#LUT size
LUT_3D_SIZE 32
#data domain
DOMAIN_MIN 0.0 0.0 0.0
DOMAIN_MAX 1.0 1.0 1.0
#LUT data points
0.000000 0.000000 0.000000
0.015839 0.000000 0.000000
0.031555 0.000000 0.000000
0.047089 0.000000 0.000000
0.062469 0.000000 0.000000
0.077698 0.000000 0.000000
0.092804 0.000000 0.000000
0.107788 0.000000 0.000000
0.122559 0.000000 0.000000
0.137207 0.000000 0.000000
0.151703 0.000000 0.000000
0.166046 0.000000 0.000000
0.180237 0.000000 0.000000
0.194275 0.000000 0.000000
0.208191 0.000000 0.000000
0.221954 0.000000 0.000000
0.235535 0.000000 0.000000
0.249023 0.000000 0.000000
0.262299 0.000000 0.000000
0.275452 0.000000 0.000000
0.288422 0.000000 0.000000
0.301239 0.000000 0.000000
0.313965 0.000000 0.000000
0.326538 0.000000 0.000000
0.338898 0.000000 0.000000
0.351196 0.000000 0.000000
0.363281 0.000000 0.000000
0.375397 0.000000 0.000000
0.387604 0.000000 0.000000
0.399811 0.000000 0.000000
0.412170 0.000000 0.000000
0.424438 0.000000 0.000000
0.000000 0.015839 0.000000
0.015839 0.015839 0.000000
0.031555 0.015839 0.000000
0.047089 0.015839 0.000000
0.062469 0.015839 0.000000
0.077698 0.015839 0.000000
0.092804 0.015839 0.000000
0.107788 0.015839 0.000000
0.122559 0.015839 0.000000
0.137207 0.015839 0.000000
0.151703 0.015839 0.000000
0.166046 0.015839 0.000000
0.180237 0.015839 0.000000
0.194275 0.015839 0.000000
0.208191 0.015808 0.000000
0.221954 0.015839 0.000000
0.235535 0.015839 0.000000
0.249023 0.015839 0.000000
0.262299 0.015808 0.000000
0.275452 0.015808 0.000000
0.288422 0.015869 0.000000
0.301239 0.015839 0.000000
0.313965 0.015839 0.000000
0.326538 0.015839 0.000000
0.338898 0.015869 0.000000
0.351196 0.015869 0.000000
0.363281 0.015808 0.000000
0.375397 0.015869 0.000000
0.387604 0.015808 0.000000
0.399811 0.015839 0.000000
0.412170 0.015808 0.000000
0.424438 0.015839 0.000000
0.000000 0.031555 0.000000
0.015839 0.031555 0.000000
0.031555 0.031555 0.000000
0.047089 0.031555 0.000000
0.062469 0.031555 0.000000
0.077698 0.031555 0.000000
0.092804 0.031555 0.000000
0.107788 0.031555 0.000000
0.122559 0.031555 0.000000
0.137207 0.031555 0.000000
0.151703 0.031555 0.000000
0.166046 0.031555 0.000000
0.180237 0.031555 0.000000
0.194275 0.031616 0.000000
0.208191 0.031616 0.000000
0.221954 0.031525 0.000000
0.235535 0.031555 0.000000
0.249023 0.031555 0.000000
0.262299 0.031525 0.000000
0.275452 0.031525 0.000000
0.288422 0.031555 0.000000
0.301239 0.031525 0.000000
0.313965 0.031616 0.000000
0.326538 0.031525 0.000000
0.338898 0.031616 0.000000
0.351196 0.031555 0.000000
0.363281 0.031525 0.000000
0.375397 0.031616 0.000000
0.387604 0.031616 0.000000
0.399811 0.031616 0.000000
0.412170 0.031525 0.000000
0.424438 0.031525 0.000000
0.000000 0.047089 0.000000
0.015839 0.047089 0.000000
0.031555 0.047089 0.000000
0.047089 0.047089 0.000000
0.062469 0.047089 0.000000
0.077698 0.047089 0.000000
0.092804 0.047089 0.000000
0.107788 0.047089 0.000000
0.122559 0.047089 0.000000
0.137207 0.047089 0.000000
0.151703 0.047089 0.000000
0.166046 0.047089 0.000000
0.180237 0.047089 0.000000
0.194275 0.047058 0.000000
0.208191 0.047089 0.000000
0.221954 0.047058 0.000000
0.235535 0.047089 0.000000
0.249023 0.047089 0.000000
0.262299 0.047089 0.000000
0.275452 0.047089 0.000000
0.288422 0.047150 0.000000
0.301239 0.047058 0.000000
0.313965 0.047150 0.000000
0.326538 0.047058 0.000000
0.338898 0.047089 0.000000
0.351196 0.047150 0.000000
0.363281 0.047150 0.000000
0.375397 0.047058 0.000000
0.387604 0.047089 0.000000
0.399811 0.047150 0.000000
0.412170 0.047150 0.000000
0.424438 0.047058 0.000000
0.000000 0.062469 0.000000
0.015839 0.062469 0.000000
0.031555 0.062469 0.000000
0.047089 0.062469 0.000000
0.062469 0.062469 0.000000
0.077698 0.062469 0.000000
0.092804 0.062469 0.000000
0.107788 0.062469 0.000000
0.122559 0.062469 0.000000
0.137207 0.062469 0.000000
0.151703 0.062469 0.000000
0.166046 0.062469 0.000000
0.180237 0.062469 0.000000
0.194275 0.062469 0.000000
0.208191 0.062439 0.000000
0.221954 0.062469 0.000000
0.235535 0.062469 0.000000
0.249023 0.062531 0.000000
0.262299 0.062469 0.000000
0.275452 0.062439 0.000000
0.288422 0.062469 0.000000
0.301239 0.062469 0.000000
0.313965 0.062531 0.000000
0.326538 0.062439 0.000000
0.338898 0.062531 0.000000
0.351196 0.062439 0.000000
0.363281 0.062469 0.000000
0.375397 0.062531 0.000000
0.387604 0.062469 0.000000
0.399811 0.062469 0.000000
0.412170 0.062469 0.000000
0.424438 0.062561 0.000000
0.000000 0.077698 0.000000
0.015839 0.077698 0.000000
0.031555 0.077698 0.000000
0.047089 0.077698 0.000000
0.062469 0.077698 0.000000
0.077698 0.077698 0.000000
0.092804 0.077698 0.000000
0.107788 0.077698 0.000000
0.122559 0.077698 0.000000
0.137207 0.077698 0.000000
0.151703 0.077759 0.000000
0.166046 0.077667 0.000000
0.180237 0.077667 0.000000
0.194275 0.077698 0.000000
0.208191 0.077698 0.000000
0.221954 0.077698 0.000000
0.235535 0.077698 0.000000
0.249023 0.077667 0.000000
0.262299 0.077759 0.000000
0.275452 0.077759 0.000000
0.288422 0.077698 0.000000
0.301239 0.077698 0.000000
0.313965 0.077759 0.000000
0.326538 0.077667 0.000000
0.338898 0.077667 0.000000
0.351196 0.077698 0.000000
0.363281 0.077759 0.000000
0.375397 0.077667 0.000000
0.387604 0.077667 0.000000
0.399811 0.077698 0.000000
0.412170 0.077759 0.000000
0.424438 0.077759 0.000000
0.000000 0.092804 0.000000
0.015839 0.092804 0.000000
0.031555 0.092804 0.000000
0.047089 0.092804 0.000000
0.062469 0.092804 0.000000
0.077698 0.092804 0.000000
0.092804 0.092804 0.000000
0.107788 0.092804 0.000000
0.122559 0.092804 0.000000
0.137207 0.092804 0.000000
0.151703 0.092804 0.000000
0.166046 0.092804 0.000000
0.180237 0.092834 0.000000
0.194275 0.092804 0.000000
0.208191 0.092804 0.000000
0.221954 0.092804 0.000000
0.235535 0.092834 0.000000
0.249023 0.092804 0.000000
0.262299 0.092804 0.000000
0.275452 0.092804 0.000000
0.288422 0.092834 0.000000
0.301239 0.092804 0.000000
0.313965 0.092804 0.000000
0.326538 0.092773 0.000000
0.338898 0.092834 0.000000
0.351196 0.092834 0.000000
0.363281 0.092804 0.000000
0.375397 0.092804 0.000000
0.387604 0.092834 0.000000
0.399811 0.092773 0.000000
0.412170 0.092804 0.000000
0.424438 0.092834 0.000000
0.000000 0.107788 0.000000
0.015839 0.107788 0.000000
0.031555 0.107788 0.000000
0.047089 0.107788 0.000000
0.062469 0.107788 0.000000
0.077698 0.107788 0.000000
0.092804 0.107788 0.000000
0.107788 0.107788 0.000000
0.122559 0.107788 0.000000
0.137207 0.107788 0.000000
0.151703 0.107788 0.000000
0.166046 0.107788 0.000000
0.180237 0.107819 0.000000
0.194275 0.107788 0.000000
0.208191 0.107788 0.000000
0.221954 0.107819 0.000000
0.235535 0.107788 0.000000
0.249023 0.107819 0.000000
0.262299 0.107788 0.000000
0.275452 0.107788 0.000000
0.288422 0.107819 0.000000
0.301239 0.107758 0.000000
0.313965 0.107758 0.000000
0.326538 0.107819 0.000000
0.338898 0.107819 0.000000
0.351196 0.107788 0.000000
0.363281 0.107788 0.000000
0.375397 0.107788 0.000000
0.387604 0.107788 0.000000
0.399811 0.107819 0.000000
0.412170 0.107819 0.000000
0.424438 0.107788 0.000000
0.000000 0.122559 0.000000
0.015839 0.122559 0.000000
0.031555 0.122559 0.000000
0.047089 0.122559 0.000000
0.062469 0.122559 0.000000
0.077698 0.122559 0.000000
0.092804 0.122559 0.000000
0.107788 0.122559 0.000000
0.122559 0.122559 0.000000
0.137207 0.122559 0.000000
0.151703 0.122559 0.000000
0.166046 0.122559 0.000000
0.180237 0.122559 0.000000
0.194275 0.122559 0.000000
0.208191 0.122559 0.000000
0.221954 0.122528 0.000000
0.235535 0.122559 0.000000
0.249023 0.122528 0.000000
0.262299 0.122528 0.000000
0.275452 0.122589 0.000000
0.288422 0.122528 0.000000
0.301239 0.122528 0.000000
0.313965 0.122528 0.000000
0.326538 0.122589 0.000000
0.338898 0.122528 0.000000
0.351196 0.122589 0.000000
0.363281 0.122528 0.000000
0.375397 0.122589 0.000000
0.387604 0.122528 0.000000
0.399811 0.122559 0.000000
0.412170 0.122528 0.000000
0.424438 0.122559 0.000000
0.000000 0.137207 0.000000
0.015839 0.137207 0.000000
0.031555 0.137207 0.000000
0.047089 0.137207 0.000000
0.062469 0.137207 0.000000
0.077698 0.137207 0.000000
0.092804 0.137207 0.000000
0.107788 0.137207 0.000000
0.122559 0.137207 0.000000
0.137207 0.137207 0.000000
0.151703 0.137207 0.000000
0.166046 0.137207 0.000000
0.180237 0.137207 0.000000
0.194275 0.137207 0.000000
0.208191 0.137207 0.000000
0.221954 0.137146 0.000000
0.235535 0.137207 0.000000
0.249023 0.137207 0.000000
0.262299 0.137207 0.000000
0.275452 0.137207 0.000000
0.288422 0.137207 0.000000
0.301239 0.137146 0.000000
0.313965 0.137146 0.000000
0.326538 0.137207 0.000000
0.338898 0.137207 0.000000
0.351196 0.137146 0.000000
0.363281 0.137207 0.000000
0.375397 0.137146 0.000000
0.387604 0.137146 0.000000
0.399811 0.137207 0.000000
0.412170 0.137207 0.000000
0.424438 0.137207 0.000000
0.000000 0.151703 0.000000
0.015839 0.151703 0.000000
0.031555 0.151703 0.000000
0.047089 0.151703 0.000000
0.062469 0.151703 0.000000
0.077759 0.151703 0.000000
0.092804 0.151703 0.000000
0.107788 0.151703 0.000000
0.122559 0.151703 0.000000
0.137207 0.151703 0.000000
0.151703 0.151703 0.000000
0.166046 0.151703 0.000000
0.180237 0.151703 0.000000
0.194275 0.151703 0.000000
0.208191 0.151703 0.000000
0.221954 0.151703 0.000000
0.235535 0.151703 0.000000
0.249023 0.151672 0.000000
0.262299 0.151764 0.000000
0.275452 0.151703 0.000000
0.288422 0.151703 0.000000
0.301239 0.151703 0.000000
0.313965 0.151703 0.000000
0.326538 0.151703 0.000000
0.338898 0.151703 0.000000
0.351196 0.151672 0.000000
0.363281 0.151764 0.000000
0.375397 0.151672 0.000000
0.387604 0.151703 0.000000
0.399811 0.151764 0.000000
0.412170 0.151672 0.000000
0.424438 0.151672 0.000000
0.000000 0.166046 0.000000
0.015839 0.166046 0.000000
0.031555 0.166046 0.000000
0.047089 0.166046 0.000000
0.062469 0.166046 0.000000
0.077667 0.166046 0.000000
0.092804 0.166046 0.000000
0.107788 0.166046 0.000000
0.122559 0.166046 0.000000
0.137207 0.166046 0.000000
0.151703 0.166046 0.000000
0.166046 0.166046 0.000000
0.180237 0.166046 0.000000
0.194275 0.166046 0.000000
0.208191 0.166046 0.000000
0.221954 0.166046 0.000000
0.235535 0.166046 0.000000
0.249023 0.166046 0.000000
0.262299 0.166046 0.000000
0.275452 0.166016 0.000000
0.288422 0.166046 0.000000
0.301239 0.166077 0.000000
0.313965 0.166046 0.000000
0.326538 0.166046 0.000000
0.338898 0.166016 0.000000
0.351196 0.166016 0.000000
0.363281 0.166046 0.000000
0.375397 0.166077 0.000000
0.387604 0.166016 0.000000
0.399811 0.166077 0.000000
0.412170 0.166046 0.000000
0.424438 0.166016 0.000000
0.000000 0.180237 0.000000
0.015839 0.180237 0.000000
0.031555 0.180237 0.000000
0.047089 0.180237 0.000000
0.062469 0.180237 0.000000
0.077667 0.180237 0.000000
0.092834 0.180237 0.000000
0.107819 0.180237 0.000000
0.122559 0.180237 0.000000
0.137207 0.180237 0.000000
0.151703 0.180237 0.000000
0.166046 0.180237 0.000000
0.180237 0.180237 0.000000
0.194275 0.180237 0.000000
0.208191 0.180237 0.000000
0.221954 0.180298 0.000000
0.235535 0.180237 0.000000
0.249023 0.180237 0.000000
0.262299 0.180206 0.000000
0.275452 0.180237 0.000000
0.288422 0.180298 0.000000
0.301239 0.180298 0.000000
0.313965 0.180237 0.000000
0.326538 0.180237 0.000000
0.338898 0.180237 0.000000
0.351196 0.180237 0.000000
0.363281 0.180206 0.000000
0.375397 0.180206 0.000000
0.387604 0.180206 0.000000
0.399811 0.180237 0.000000
0.412170 0.180206 0.000000
0.424438 0.180298 0.000000
0.000000 0.194275 0.000000
0.015839 0.194275 0.000000
0.031616 0.194275 0.000000
0.047058 0.194275 0.000000
0.062469 0.194275 0.000000
0.077698 0.194275 0.000000
0.092804 0.194275 0.000000
0.107788 0.194275 0.000000
0.122559 0.194275 0.000000
0.137207 0.194275 0.000000
0.151703 0.194275 0.000000
0.166046 0.194275 0.000000
0.180237 0.194275 0.000000
0.194275 0.194275 0.000000
0.208191 0.194305 0.000000
0.221954 0.194305 0.000000
0.235535 0.194275 0.000000
0.249023 0.194275 0.000000
0.262299 0.194275 0.000000
0.275452 0.194244 0.000000
0.288422 0.194244 0.000000
0.301239 0.194305 0.000000
0.313965 0.194275 0.000000
0.326538 0.194275 0.000000
0.338898 0.194305 0.000000
0.351196 0.194305 0.000000
0.363281 0.194305 0.000000
0.375397 0.194275 0.000000
0.387604 0.194305 0.000000
0.399811 0.194275 0.000000
0.412170 0.194305 0.000000
0.424438 0.194305 0.000000
0.000000 0.208191 0.000000
0.015808 0.208191 0.000000
0.031616 0.208191 0.000000
0.047089 0.208191 0.000000
0.062439 0.208191 0.000000
0.077698 0.208191 0.000000
0.092804 0.208191 0.000000
0.107788 0.208191 0.000000
0.122559 0.208191 0.000000
0.137207 0.208191 0.000000
0.151703 0.208191 0.000000
0.166046 0.208191 0.000000
0.180237 0.208191 0.000000
0.194305 0.208191 0.000000
0.208191 0.208191 0.000000
0.221954 0.208130 0.000000
0.235535 0.208191 0.000000
0.249023 0.208191 0.000000
0.262299 0.208130 0.000000
0.275452 0.208191 0.000000
0.288422 0.208191 0.000000
0.301239 0.208191 0.000000
0.313965 0.208191 0.000000
0.326538 0.208191 0.000000
0.338898 0.208191 0.000000
0.351196 0.208130 0.000000
0.363281 0.208130 0.000000
0.375397 0.208191 0.000000
0.387604 0.208191 0.000000
0.399811 0.208130 0.000000
0.412170 0.208130 0.000000
0.424438 0.208191 0.000000
0.000000 0.221954 0.000000
0.015839 0.221954 0.000000
0.031525 0.221954 0.000000
0.047058 0.221954 0.000000
0.062469 0.221954 0.000000
0.077698 0.221954 0.000000
0.092804 0.221954 0.000000
0.107819 0.221954 0.000000
0.122528 0.221954 0.000000
0.137146 0.221954 0.000000
0.151703 0.221954 0.000000
0.166046 0.221954 0.000000
0.180298 0.221954 0.000000
0.194305 0.221954 0.000000
0.208130 0.221954 0.000000
0.221954 0.221954 0.000000
0.235535 0.221954 0.000000
0.249023 0.221954 0.000000
0.262299 0.221954 0.000000
0.275452 0.221985 0.000000
0.288422 0.221954 0.000000
0.301239 0.221954 0.000000
0.313965 0.221985 0.000000
0.326538 0.221924 0.000000
0.338898 0.221954 0.000000
0.351196 0.221985 0.000000
0.363281 0.221954 0.000000
0.375397 0.221985 0.000000
0.387604 0.221924 0.000000
0.399811 0.221985 0.000000
0.412170 0.221954 0.000000
0.424438 0.221954 0.000000
0.000000 0.235535 0.000000
0.015839 0.235535 0.000000
0.031555 0.235535 0.000000
0.047089 0.235535 0.000000
0.062469 0.235535 0.000000
0.077698 0.235535 0.000000
0.092834 0.235535 0.000000
0.107788 0.235535 0.000000
0.122559 0.235535 0.000000
0.137207 0.235535 0.000000
0.151703 0.235535 0.000000
0.166046 0.235535 0.000000
0.180237 0.235535 0.000000
0.194275 0.235535 0.000000
0.208191 0.235535 0.000000
0.221954 0.235535 0.000000
0.235535 0.235535 0.000000
0.249023 0.235565 0.000000
0.262299 0.235565 0.000000
0.275452 0.235535 0.000000
0.288422 0.235535 0.000000
0.301239 0.235535 0.000000
0.313965 0.235565 0.000000
0.326538 0.235504 0.000000
0.338898 0.235565 0.000000
0.351196 0.235504 0.000000
0.363281 0.235504 0.000000
0.375397 0.235504 0.000000
0.387604 0.235565 0.000000
0.399811 0.235535 0.000000
0.412170 0.235504 0.000000
0.424438 0.235535 0.000000
0.000000 0.249023 0.000000
0.015839 0.249023 0.000000
0.031555 0.249023 0.000000
0.047089 0.249023 0.000000
0.062531 0.249023 0.000000
0.077667 0.249023 0.000000
0.092804 0.249023 0.000000
0.107819 0.249023 0.000000
0.122528 0.249023 0.000000
0.137207 0.249023 0.000000
0.151672 0.249023 0.000000
0.166046 0.249023 0.000000
0.180237 0.249023 0.000000
0.194275 0.249023 0.000000
0.208191 0.249023 0.000000
0.221954 0.249023 0.000000
0.235565 0.249023 0.000000
0.249023 0.249023 0.000000
0.262299 0.249054 0.000000
0.275452 0.249023 0.000000
0.288422 0.249023 0.000000
0.301239 0.248993 0.000000
0.313965 0.248993 0.000000
0.326538 0.249054 0.000000
0.338898 0.249054 0.000000
0.351196 0.248993 0.000000
0.363281 0.248993 0.000000
0.375397 0.249023 0.000000
0.387604 0.249023 0.000000
0.399811 0.248993 0.000000
0.412170 0.248993 0.000000
0.424438 0.248993 0.000000
0.000000 0.262299 0.000000
0.015808 0.262299 0.000000
0.031525 0.262299 0.000000
0.047089 0.262299 0.000000
0.062469 0.262299 0.000000
0.077759 0.262299 0.000000
0.092804 0.262299 0.000000
0.107788 0.262299 0.000000
0.122528 0.262299 0.000000
0.137207 0.262299 0.000000
0.151764 0.262299 0.000000
0.166046 0.262299 0.000000
0.180206 0.262299 0.000000
0.194275 0.262299 0.000000
0.208130 0.262299 0.000000
0.221954 0.262299 0.000000
0.235565 0.262299 0.000000
0.249054 0.262299 0.000000
0.262299 0.262299 0.000000
0.275452 0.262329 0.000000
0.288422 0.262329 0.000000
0.301239 0.262299 0.000000
0.313965 0.262268 0.000000
0.326538 0.262329 0.000000
0.338898 0.262299 0.000000
0.351196 0.262299 0.000000
0.363281 0.262329 0.000000
0.375397 0.262329 0.000000
0.387604 0.262268 0.000000
0.399811 0.262329 0.000000
0.412170 0.262329 0.000000
0.424438 0.262268 0.000000
0.000000 0.275452 0.000000
0.015808 0.275452 0.000000
0.031525 0.275452 0.000000
0.047089 0.275452 0.000000
0.062439 0.275452 0.000000
0.077759 0.275452 0.000000
0.092804 0.275452 0.000000
0.107788 0.275452 0.000000
0.122589 0.275452 0.000000
0.137207 0.275452 0.000000
0.151703 0.275452 0.000000
0.166016 0.275452 0.000000
0.180237 0.275452 0.000000
0.194244 0.275452 0.000000
0.208191 0.275452 0.000000
0.221985 0.275452 0.000000
0.235535 0.275452 0.000000
0.249023 0.275452 0.000000
0.262329 0.275452 0.000000
0.275452 0.275452 0.000000
0.288422 0.275391 0.000000
0.301239 0.275452 0.000000
0.313965 0.275391 0.000000
0.326538 0.275452 0.000000
0.338898 0.275452 0.000000
0.351196 0.275452 0.000000
0.363281 0.275452 0.000000
0.375397 0.275391 0.000000
0.387604 0.275452 0.000000
0.399811 0.275452 0.000000
0.412170 0.275452 0.000000
0.424438 0.275391 0.000000
0.000000 0.288422 0.000000
0.015869 0.288422 0.000000
0.031555 0.288422 0.000000
0.047150 0.288422 0.000000
0.062469 0.288422 0.000000
0.077698 0.288422 0.000000
0.092834 0.288422 0.000000
0.107819 0.288422 0.000000
0.122528 0.288422 0.000000
0.137207 0.288422 0.000000
0.151703 0.288422 0.000000
0.166046 0.288422 0.000000
0.180298 0.288422 0.000000
0.194244 0.288422 0.000000
0.208191 0.288422 0.000000
0.221954 0.288422 0.000000
0.235535 0.288422 0.000000
0.249023 0.288422 0.000000
0.262329 0.288422 0.000000
0.275391 0.288422 0.000000
0.288422 0.288422 0.000000
0.301239 0.288422 0.000000
0.313965 0.288391 0.000000
0.326538 0.288422 0.000000
0.338898 0.288391 0.000000
0.351196 0.288422 0.000000
0.363281 0.288422 0.000000
0.375397 0.288422 0.000000
0.387604 0.288422 0.000000
0.399811 0.288422 0.000000
0.412170 0.288422 0.000000
0.424438 0.288422 0.000000
0.000000 0.301239 0.000000
0.015839 0.301239 0.000000
0.031525 0.301239 0.000000
0.047058 0.301239 0.000000
0.062469 0.301239 0.000000
0.077698 0.301239 0.000000
0.092804 0.301239 0.000000
0.107758 0.301239 0.000000
0.122528 0.301239 0.000000
0.137146 0.301239 0.000000
0.151703 0.301239 0.000000
0.166077 0.301239 0.000000
0.180298 0.301239 0.000000
0.194305 0.301239 0.000000
0.208191 0.301239 0.000000
0.221954 0.301239 0.000000
0.235535 0.301239 0.000000
0.248993 0.301239 0.000000
0.262299 0.301239 0.000000
0.275452 0.301239 0.000000
0.288422 0.301239 0.000000
0.301239 0.301239 0.000000
0.313965 0.301208 0.000000
0.326538 0.301270 0.000000
0.338898 0.301239 0.000000
0.351196 0.301208 0.000000
0.363281 0.301239 0.000000
0.375397 0.301270 0.000000
0.387604 0.301239 0.000000
0.399811 0.301239 0.000000
0.412170 0.301239 0.000000
0.424438 0.301270 0.000000
0.000000 0.313965 0.000000
0.015839 0.313965 0.000000
0.031616 0.313965 0.000000
0.047150 0.313965 0.000000
0.062531 0.313965 0.000000
0.077759 0.313965 0.000000
0.092804 0.313965 0.000000
0.107758 0.313965 0.000000
0.122528 0.313965 0.000000
0.137146 0.313965 0.000000
0.151703 0.313965 0.000000
0.166046 0.313965 0.000000
0.180237 0.313965 0.000000
0.194275 0.313965 0.000000
0.208191 0.313965 0.000000
0.221985 0.313965 0.000000
0.235565 0.313965 0.000000
0.248993 0.313965 0.000000
0.262268 0.313965 0.000000
0.275391 0.313965 0.000000
0.288391 0.313965 0.000000
0.301208 0.313965 0.000000
0.313965 0.313965 0.000000
0.326538 0.313965 0.000000
0.338898 0.313965 0.000000
0.351196 0.313965 0.000000
0.363281 0.313965 0.000000
0.375397 0.314026 0.000000
0.387604 0.313965 0.000000
0.399811 0.314026 0.000000
0.412170 0.314026 0.000000
0.424438 0.313965 0.000000
0.000000 0.326538 0.000000
0.015839 0.326538 0.000000
0.031525 0.326538 0.000000
0.047058 0.326538 0.000000
0.062439 0.326538 0.000000
0.077667 0.326538 0.000000
0.092773 0.326538 0.000000
0.107819 0.326538 0.000000
0.122589 0.326538 0.000000
0.137207 0.326538 0.000000
0.151703 0.326538 0.000000
0.166046 0.326538 0.000000
0.180237 0.326538 0.000000
0.194275 0.326538 0.000000
0.208191 0.326538 0.000000
0.221924 0.326538 0.000000
0.235504 0.326538 0.000000
0.249054 0.326538 0.000000
0.262329 0.326538 0.000000
0.275452 0.326538 0.000000
0.288422 0.326538 0.000000
0.301270 0.326538 0.000000
0.313965 0.326538 0.000000
0.326538 0.326538 0.000000
0.338898 0.326477 0.000000
0.351196 0.326538 0.000000
0.363281 0.326477 0.000000
0.375397 0.326477 0.000000
0.387604 0.326538 0.000000
0.399811 0.326538 0.000000
0.412170 0.326477 0.000000
0.424438 0.326538 0.000000
0.000000 0.338898 0.000000
0.015869 0.338898 0.000000
0.031616 0.338898 0.000000
0.047089 0.338898 0.000000
0.062531 0.338898 0.000000
0.077667 0.338898 0.000000
0.092834 0.338898 0.000000
0.107819 0.338898 0.000000
0.122528 0.338898 0.000000
0.137207 0.338898 0.000000
0.151703 0.338898 0.000000
0.166016 0.338898 0.000000
0.180237 0.338898 0.000000
0.194305 0.338898 0.000000
0.208191 0.338898 0.000000
0.221954 0.338898 0.000000
0.235565 0.338898 0.000000
0.249054 0.338898 0.000000
0.262299 0.338898 0.000000
0.275452 0.338898 0.000000
0.288391 0.338898 0.000000
0.301239 0.338898 0.000000
0.313965 0.338898 0.000000
0.326477 0.338898 0.000000
0.338898 0.338898 0.000000
0.351196 0.338898 0.000000
0.363281 0.338959 0.000000
0.375397 0.338959 0.000000
0.387604 0.338898 0.000000
0.399811 0.338898 0.000000
0.412170 0.338959 0.000000
0.424438 0.338898 0.000000
0.000000 0.351196 0.000000
0.015869 0.351196 0.000000
0.031555 0.351196 0.000000
0.047150 0.351196 0.000000
0.062439 0.351196 0.000000
0.077698 0.351196 0.000000
0.092834 0.351196 0.000000
0.107788 0.351196 0.000000
0.122589 0.351196 0.000000
0.137146 0.351196 0.000000
0.151672 0.351196 0.000000
0.166016 0.351196 0.000000
0.180237 0.351196 0.000000
0.194305 0.351196 0.000000
0.208130 0.351196 0.000000
0.221985 0.351196 0.000000
0.235504 0.351196 0.000000
0.248993 0.351196 0.000000
0.262299 0.351196 0.000000
0.275452 0.351196 0.000000
0.288422 0.351196 0.000000
0.301208 0.351196 0.000000
0.313965 0.351196 0.000000
0.326538 0.351196 0.000000
0.338898 0.351196 0.000000
0.351196 0.351196 0.000000
0.363281 0.351227 0.000000
0.375397 0.351227 0.000000
0.387604 0.351166 0.000000
0.399811 0.351166 0.000000
0.412170 0.351166 0.000000
0.424438 0.351166 0.000000
0.000000 0.363281 0.000000
0.015808 0.363281 0.000000
0.031525 0.363281 0.000000
0.047150 0.363281 0.000000
0.062469 0.363281 0.000000
0.077759 0.363281 0.000000
0.092804 0.363281 0.000000
0.107788 0.363281 0.000000
0.122528 0.363281 0.000000
0.137207 0.363281 0.000000
0.151764 0.363281 0.000000
0.166046 0.363281 0.000000
0.180206 0.363281 0.000000
0.194305 0.363281 0.000000
0.208130 0.363281 0.000000
0.221954 0.363281 0.000000
0.235504 0.363281 0.000000
0.248993 0.363281 0.000000
0.262329 0.363281 0.000000
0.275452 0.363281 0.000000
0.288422 0.363281 0.000000
0.301239 0.363281 0.000000
0.313965 0.363281 0.000000
0.326477 0.363281 0.000000
0.338959 0.363281 0.000000
0.351227 0.363281 0.000000
0.363281 0.363281 0.000000
0.375397 0.363281 0.000000
0.387604 0.363312 0.000000
0.399811 0.363312 0.000000
0.412170 0.363281 0.000000
0.424438 0.363281 0.000000
0.000000 0.375397 0.000000
0.015869 0.375397 0.000000
0.031616 0.375397 0.000000
0.047058 0.375397 0.000000
0.062531 0.375397 0.000000
0.077667 0.375397 0.000000
0.092804 0.375397 0.000000
0.107788 0.375397 0.000000
0.122589 0.375397 0.000000
0.137146 0.375397 0.000000
0.151672 0.375397 0.000000
0.166077 0.375397 0.000000
0.180206 0.375397 0.000000
0.194275 0.375397 0.000000
0.208191 0.375397 0.000000
0.221985 0.375397 0.000000
0.235504 0.375397 0.000000
