OTTER-Stable/projects/better/res/luts/RRDarkenedLUT.CUBE
#Created by: Adobe Photoshop Export Color Lookup Plugin
TITLE "tutoriallutchanges.PNG"
#LUT size
LUT_3D_SIZE 8
#data domain
#LUT data points
DOMAIN_MIN 0.000000 0.000000 0.000000
DOMAIN_MAX 0.903226 0.903226 0.903226
0.000000 0.000000 0.000000
0.062469 0.000000 0.000000
0.122559 0.000000 0.000000
0.180237 0.000000 0.000000
0.235535 0.000000 0.000000
0.288422 0.000000 0.000000
0.338898 0.000000 0.000000
0.387604 0.000000 0.000000
0.000000 0.062469 0.000000
0.062469 0.062469 0.000000
0.122559 0.062469 0.000000
0.180237 0.062469 0.000000
0.235535 0.062469 0.000000
0.288422 0.062469 0.000000
0.338898 0.062531 0.000000
0.387604 0.062469 0.000000
0.000000 0.122559 0.000000
0.062469 0.122559 0.000000
0.122559 0.122559 0.000000
0.180237 0.122559 0.000000
0.235535 0.122559 0.000000
0.288422 0.122528 0.000000
0.338898 0.122528 0.000000
0.387604 0.122528 0.000000
0.000000 0.180237 0.000000
0.062469 0.180237 0.000000
0.122559 0.180237 0.000000
0.180237 0.180237 0.000000
0.235535 0.180237 0.000000
0.288422 0.180298 0.000000
0.338898 0.180237 0.000000
0.387604 0.180206 0.000000
0.000000 0.235535 0.000000
0.062469 0.235535 0.000000
0.122559 0.235535 0.000000
0.180237 0.235535 0.000000
0.235535 0.235535 0.000000
0.288422 0.235535 0.000000
0.338898 0.235565 0.000000
0.387604 0.235565 0.000000
0.000000 0.288422 0.000000
0.062469 0.288422 0.000000
0.122528 0.288422 0.000000
0.180298 0.288422 0.000000
0.235535 0.288422 0.000000
0.288422 0.288422 0.000000
0.338898 0.288391 0.000000
0.387604 0.288422 0.000000
0.000000 0.338898 0.000000
0.062531 0.338898 0.000000
0.122528 0.338898 0.000000
0.180237 0.338898 0.000000
0.235565 0.338898 0.000000
0.288391 0.338898 0.000000
0.338898 0.338898 0.000000
0.387604 0.338898 0.000000
0.000000 0.387604 0.000000
0.062469 0.387604 0.000000
0.122528 0.387604 0.000000
0.180206 0.387604 0.000000
0.235565 0.387604 0.000000
0.288422 0.387604 0.000000
0.338898 0.387604 0.000000
0.387604 0.387604 0.000000
0.000000 0.000000 0.062469
0.062469 0.000000 0.062469
0.122559 0.000000 0.062469
0.180237 0.000000 0.062469
0.235535 0.000000 0.062469
0.288422 0.000000 0.062469
0.338898 0.000000 0.062531
0.387604 0.000000 0.062469
0.000000 0.062469 0.062469
0.062469 0.062469 0.062469
0.162018 0.020264 0.020264
0.235535 0.000000 0.000000
0.288422 0.000000 0.000000
0.338898 0.000000 0.000000
0.387604 0.000000 0.000000
0.436798 0.000000 0.000000
0.000000 0.122559 0.062469
0.020264 0.162018 0.020264
0.162018 0.162018 0.020264
0.235535 0.122559 0.000000
0.288422 0.102783 0.000000
0.338898 0.092834 0.000000
0.387604 0.086761 0.000000
0.436798 0.082825 0.000000
0.000000 0.180237 0.062469
0.000000 0.235535 0.000000
0.122559 0.235535 0.000000
0.235535 0.235535 0.000000
0.288422 0.198944 0.000000
0.338898 0.180237 0.000000
0.387604 0.168854 0.000000
0.436798 0.161224 0.000000
0.000000 0.235535 0.062469
0.000000 0.288422 0.000000
0.102783 0.288422 0.000000
0.198944 0.288422 0.000000
0.288422 0.288422 0.000000
0.338898 0.262299 0.000000
0.387604 0.246368 0.000000
0.436798 0.235535 0.000000
0.000000 0.288422 0.062469
0.000000 0.338898 0.000000
0.092834 0.338898 0.000000
0.180237 0.338898 0.000000
0.262299 0.338898 0.000000
0.338898 0.338898 0.000000
0.387604 0.319031 0.000000
0.436798 0.305573 0.000000
0.000000 0.338898 0.062531
0.000000 0.387604 0.000000
0.086761 0.387604 0.000000
0.168854 0.387604 0.000000
0.246368 0.387604 0.000000
0.319031 0.387604 0.000000
0.387604 0.387604 0.000000
0.436798 0.371338 0.000000
0.000000 0.387604 0.062469
0.000000 0.436798 0.000000
0.082825 0.436798 0.000000
0.161224 0.436798 0.000000
0.235535 0.436798 0.000000
0.305573 0.436798 0.000000
0.371338 0.436798 0.000000
0.436798 0.436798 0.000000
0.000000 0.000000 0.122559
0.062469 0.000000 0.122559
0.122559 0.000000 0.122559
0.180237 0.000000 0.122559
0.235535 0.000000 0.122559
0.288422 0.000000 0.122528
0.338898 0.000000 0.122528
0.387604 0.000000 0.122528
0.000000 0.062469 0.122559
0.020264 0.020264 0.162018
0.162018 0.020264 0.162018
0.235535 0.000000 0.122559
0.288422 0.000000 0.102783
0.338898 0.000000 0.092834
0.387604 0.000000 0.086761
0.436798 0.000000 0.082825
0.000000 0.122559 0.122559
0.020264 0.162018 0.162018
0.122559 0.122559 0.122559
0.218109 0.082001 0.082001
0.306824 0.040314 0.040314
0.387604 0.000000 0.000000
0.436798 0.000000 0.000000
0.486450 0.000000 0.000000
0.000000 0.180237 0.122559
0.000000 0.235535 0.122559
0.082001 0.218109 0.082001
0.218109 0.218109 0.082001
0.306824 0.180237 0.040314
0.387604 0.142029 0.000000
0.436798 0.122559 0.000000
0.486450 0.110687 0.000000
0.000000 0.235535 0.122559
0.000000 0.288422 0.102783
0.040314 0.306824 0.040314
0.180237 0.306824 0.040314
0.306824 0.306824 0.040314
0.387604 0.271057 0.000000
0.436798 0.235535 0.000000
0.486450 0.213654 0.000000
0.000000 0.288422 0.122528
0.000000 0.338898 0.092834
0.000000 0.387604 0.000000
0.142029 0.387604 0.000000
0.271057 0.387604 0.000000
0.387604 0.387604 0.000000
0.436798 0.338898 0.000000
0.486450 0.308929 0.000000
0.000000 0.338898 0.122528
0.000000 0.387604 0.086761
0.000000 0.436798 0.000000
0.122559 0.436798 0.000000
0.235535 0.436798 0.000000
0.338898 0.436798 0.000000
0.436798 0.436798 0.000000
0.486450 0.397430 0.000000
0.000000 0.387604 0.122528
0.000000 0.436798 0.082825
0.000000 0.486450 0.000000
0.110687 0.486450 0.000000
0.213654 0.486450 0.000000
0.308929 0.486450 0.000000
0.397430 0.486450 0.000000
0.486450 0.486450 0.000000
0.000000 0.000000 0.180237
0.062469 0.000000 0.180237
0.122559 0.000000 0.180237
0.180237 0.000000 0.180237
0.235535 0.000000 0.180237
0.288422 0.000000 0.180298
0.338898 0.000000 0.180237
0.387604 0.000000 0.180206
0.000000 0.062469 0.180237
0.000000 0.000000 0.235535
0.122559 0.000000 0.235535
0.235535 0.000000 0.235535
0.288422 0.000000 0.198944
0.338898 0.000000 0.180237
0.387604 0.000000 0.168854
0.436798 0.000000 0.161224
0.000000 0.122559 0.180237
0.000000 0.122559 0.235535
0.082001 0.082001 0.218109
0.218109 0.082001 0.218109
0.306824 0.040314 0.180237
0.387604 0.000000 0.142029
0.436798 0.000000 0.122559
0.486450 0.000000 0.110687
0.000000 0.180237 0.180237
0.000000 0.235535 0.235535
0.082001 0.218109 0.218109
0.180237 0.180237 0.180237
0.271729 0.141296 0.141296
0.356445 0.101257 0.101257
0.438721 0.060059 0.060059
0.522278 0.017822 0.017822
0.000000 0.235535 0.180237
0.000000 0.288422 0.198944
0.040314 0.306824 0.180237
0.141296 0.271729 0.141296
0.271729 0.271729 0.141296
0.356445 0.235535 0.101257
0.438721 0.198181 0.060059
0.522278 0.159821 0.017822
0.000000 0.288422 0.180298
0.000000 0.338898 0.180237
0.000000 0.387604 0.142029
0.101257 0.356445 0.101257
0.235535 0.356445 0.101257
0.356445 0.356445 0.101257
0.438721 0.322998 0.060059
0.522278 0.288422 0.017822
0.000000 0.338898 0.180237
0.000000 0.387604 0.168854
0.000000 0.436798 0.122559
0.060059 0.438721 0.060059
0.198181 0.438721 0.060059
0.322998 0.438721 0.060059
0.438721 0.438721 0.060059
0.522278 0.405212 0.017822
0.000000 0.387604 0.180206
0.000000 0.436798 0.161224
0.000000 0.486450 0.110687
0.017822 0.522278 0.017822
0.159821 0.522278 0.017822
0.288422 0.522278 0.017822
0.405212 0.522278 0.017822
0.522278 0.522278 0.017822
0.000000 0.000000 0.235535
0.062469 0.000000 0.235535
0.122559 0.000000 0.235535
0.180237 0.000000 0.235535
0.235535 0.000000 0.235535
0.288422 0.000000 0.235535
0.338898 0.000000 0.235565
0.387604 0.000000 0.235565
0.000000 0.062469 0.235535
0.000000 0.000000 0.288422
0.102783 0.000000 0.288422
0.198944 0.000000 0.288422
0.288422 0.000000 0.288422
0.338898 0.000000 0.262299
0.387604 0.000000 0.246368
0.436798 0.000000 0.235535
0.000000 0.122559 0.235535
0.000000 0.102783 0.288422
0.040314 0.040314 0.306824
0.180237 0.040314 0.306824
0.306824 0.040314 0.306824
0.387604 0.000000 0.271057
0.436798 0.000000 0.235535
0.486450 0.000000 0.213654
0.000000 0.180237 0.235535
0.000000 0.198944 0.288422
0.040314 0.180237 0.306824
0.141296 0.141296 0.271729
0.271729 0.141296 0.271729
0.356445 0.101257 0.235535
0.438721 0.060059 0.198181
0.522278 0.017822 0.159821
0.000000 0.235535 0.235535
0.000000 0.288422 0.288422
0.040314 0.306824 0.306824
0.141296 0.271729 0.271729
0.235535 0.235535 0.235535
0.322998 0.198212 0.198212
0.405182 0.159760 0.159760
0.488373 0.120239 0.120239
0.000000 0.288422 0.235535
0.000000 0.338898 0.262299
0.000000 0.387604 0.271057
0.101257 0.356445 0.235535
0.198212 0.322998 0.198212
0.322998 0.322998 0.198212
0.405182 0.288422 0.159760
0.488373 0.252716 0.120239
0.000000 0.338898 0.235565
0.000000 0.387604 0.246368
0.000000 0.436798 0.235535
0.060059 0.438721 0.198181
0.159760 0.405182 0.159760
0.288422 0.405182 0.159760
0.405182 0.405182 0.159760
0.488373 0.372009 0.120239
0.000000 0.387604 0.235565
0.000000 0.436798 0.235535
0.000000 0.486450 0.213654
0.017822 0.522278 0.159821
0.120239 0.488373 0.120239
0.252716 0.488373 0.120239
0.372009 0.488373 0.120239
0.488373 0.488373 0.120239
0.000000 0.000000 0.288422
0.062469 0.000000 0.288422
0.122528 0.000000 0.288422
0.180298 0.000000 0.288422
0.235535 0.000000 0.288422
0.288422 0.000000 0.288422
0.338898 0.000000 0.288391
0.387604 0.000000 0.288422
0.000000 0.062469 0.288422
0.000000 0.000000 0.338898
0.092834 0.000000 0.338898
0.180237 0.000000 0.338898
0.262299 0.000000 0.338898
0.338898 0.000000 0.338898
0.387604 0.000000 0.319031
0.436798 0.000000 0.305573
0.000000 0.122528 0.288422
0.000000 0.092834 0.338898
0.000000 0.000000 0.387604
0.142029 0.000000 0.387604
0.271057 0.000000 0.387604
0.387604 0.000000 0.387604
0.436798 0.000000 0.338898
0.486450 0.000000 0.308929
0.000000 0.180298 0.288422
0.000000 0.180237 0.338898
0.000000 0.142029 0.387604
0.101257 0.101257 0.356445
0.235535 0.101257 0.356445
0.356445 0.101257 0.356445
0.438721 0.060059 0.322998
0.522278 0.017822 0.288422
0.000000 0.235535 0.288422
0.000000 0.262299 0.338898
0.000000 0.271057 0.387604
0.101257 0.235535 0.356445
0.198212 0.198212 0.322998
0.322998 0.198212 0.322998
0.405182 0.159760 0.288422
0.488373 0.120239 0.252716
0.000000 0.288422 0.288422
0.000000 0.338898 0.338898
0.000000 0.387604 0.387604
0.101257 0.356445 0.356445
0.198212 0.322998 0.322998
0.288422 0.288422 0.288422
0.372009 0.252747 0.252747
0.454590 0.215942 0.215942
0.000000 0.338898 0.288391
0.000000 0.387604 0.319031
0.000000 0.436798 0.338898
0.060059 0.438721 0.322998
0.159760 0.405182 0.288422
0.252747 0.372009 0.252747
0.372009 0.372009 0.252747
0.454590 0.338898 0.215942
0.000000 0.387604 0.288422
0.000000 0.436798 0.305573
0.000000 0.486450 0.308929
0.017822 0.522278 0.288422
0.120239 0.488373 0.252716
0.215942 0.454590 0.215942
0.338898 0.454590 0.215942
0.454590 0.454590 0.215942
0.000000 0.000000 0.338898
0.062531 0.000000 0.338898
0.122528 0.000000 0.338898
0.180237 0.000000 0.338898
0.235565 0.000000 0.338898
0.288391 0.000000 0.338898
0.338898 0.000000 0.338898
0.387604 0.000000 0.338898
0.000000 0.062531 0.338898
0.000000 0.000000 0.387604
0.086761 0.000000 0.387604
0.168854 0.000000 0.387604
0.246368 0.000000 0.387604
0.319031 0.000000 0.387604
0.387604 0.000000 0.387604
0.436798 0.000000 0.371338
0.000000 0.122528 0.338898
0.000000 0.086761 0.387604
0.000000 0.000000 0.436798
0.122559 0.000000 0.436798
0.235535 0.000000 0.436798
0.338898 0.000000 0.436798
0.436798 0.000000 0.436798
0.486450 0.000000 0.397430
0.000000 0.180237 0.338898
0.000000 0.168854 0.387604
0.000000 0.122559 0.436798
0.060059 0.060059 0.438721
0.198181 0.060059 0.438721
0.322998 0.060059 0.438721
0.438721 0.060059 0.438721
0.522278 0.017822 0.405212
0.000000 0.235565 0.338898
0.000000 0.246368 0.387604
0.000000 0.235535 0.436798
0.060059 0.198181 0.438721
0.159760 0.159760 0.405182
0.288422 0.159760 0.405182
0.405182 0.159760 0.405182
0.488373 0.120239 0.372009
0.000000 0.288391 0.338898
0.000000 0.319031 0.387604
0.000000 0.338898 0.436798
0.060059 0.322998 0.438721
0.159760 0.288422 0.405182
0.252747 0.252747 0.372009
0.372009 0.252747 0.372009
0.454590 0.215942 0.338898
0.000000 0.338898 0.338898
0.000000 0.387604 0.387604
0.000000 0.436798 0.436798
0.060059 0.438721 0.438721
0.159760 0.405182 0.405182
0.252747 0.372009 0.372009
0.338898 0.338898 0.338898
0.420990 0.304871 0.304871
0.000000 0.387604 0.338898
0.000000 0.436798 0.371338
0.000000 0.486450 0.397430
0.017822 0.522278 0.405212
0.120239 0.488373 0.372009
0.215942 0.454590 0.338898
0.304871 0.420990 0.304871
0.420990 0.420990 0.304871
0.000000 0.000000 0.387604
0.062469 0.000000 0.387604
0.122528 0.000000 0.387604
0.180206 0.000000 0.387604
0.235565 0.000000 0.387604
0.288422 0.000000 0.387604
0.338898 0.000000 0.387604
0.387604 0.000000 0.387604
0.000000 0.062469 0.387604
0.000000 0.000000 0.436798
0.082825 0.000000 0.436798
0.161224 0.000000 0.436798
0.235535 0.000000 0.436798
0.305573 0.000000 0.436798
0.371338 0.000000 0.436798
0.436798 0.000000 0.436798
0.000000 0.122528 0.387604
0.000000 0.082825 0.436798
0.000000 0.000000 0.486450
0.110687 0.000000 0.486450
0.213654 0.000000 0.486450
0.308929 0.000000 0.486450
0.397430 0.000000 0.486450
0.486450 0.000000 0.486450
0.000000 0.180206 0.387604
0.000000 0.161224 0.436798
0.000000 0.110687 0.486450
0.017822 0.017822 0.522278
0.159821 0.017822 0.522278
0.288422 0.017822 0.522278
0.405212 0.017822 0.522278
0.522278 0.017822 0.522278
0.000000 0.235565 0.387604
0.000000 0.235535 0.436798
0.000000 0.213654 0.486450
0.017822 0.159821 0.522278
0.120239 0.120239 0.488373
0.252716 0.120239 0.488373
0.372009 0.120239 0.488373
0.488373 0.120239 0.488373
0.000000 0.288422 0.387604
0.000000 0.305573 0.436798
0.000000 0.308929 0.486450
0.017822 0.288422 0.522278
0.120239 0.252716 0.488373
0.215942 0.215942 0.454590
0.338898 0.215942 0.454590
0.454590 0.215942 0.454590
0.000000 0.338898 0.387604
0.000000 0.371338 0.436798
0.000000 0.397430 0.486450
0.017822 0.405212 0.522278
0.120239 0.372009 0.488373
0.215942 0.338898 0.454590
0.304871 0.304871 0.420990
0.420990 0.304871 0.420990
0.000000 0.387604 0.387604
0.000000 0.436798 0.436798
0.000000 0.486450 0.486450
0.017822 0.522278 0.522278
0.120239 0.488373 0.488373
0.215942 0.454590 0.454590
0.304871 0.420990 0.420990
0.387604 0.387604 0.387604
