OTTER-Stable/projects/better/res/luts/RRWarmLUT.CUBE
#Created by: Adobe Photoshop Export Color Lookup Plugin
TITLE "tutoriallutchanges.PNG"
#LUT size
LUT_3D_SIZE 32
#data domain
DOMAIN_MIN 0.0 0.0 0.0
DOMAIN_MAX 1.0 1.0 1.0
#LUT data points
0.000000 0.000000 0.000000
0.029022 0.002197 0.000305
0.055695 0.003784 0.000824
0.081848 0.006592 0.001373
0.109589 0.009064 0.002167
0.138367 0.011749 0.003052
0.167114 0.015656 0.004242
0.197662 0.019409 0.005463
0.230225 0.022278 0.007599
0.262329 0.026978 0.009705
0.295654 0.032104 0.012268
0.331146 0.036835 0.015717
0.367645 0.041748 0.019623
0.405334 0.046387 0.023926
0.444153 0.051056 0.028381
0.484436 0.055023 0.033661
0.525635 0.058350 0.039673
0.564758 0.063507 0.044708
0.601959 0.068329 0.050293
0.637604 0.073273 0.055939
0.672058 0.078156 0.061798
0.705444 0.083008 0.067963
0.738281 0.087799 0.074402
0.770538 0.092651 0.080994
0.802399 0.097443 0.087769
0.834167 0.102203 0.094666
0.866241 0.107025 0.101685
0.898621 0.111847 0.108948
0.931915 0.116608 0.116516
0.966675 0.121368 0.124268
1.000000 0.127533 0.132782
1.000000 0.144897 0.146973
0.007568 0.033356 0.000763
0.034546 0.031433 0.001221
0.059601 0.033142 0.001709
0.086121 0.034668 0.002472
0.113373 0.036743 0.003143
0.141144 0.039551 0.003998
0.171051 0.041748 0.005341
0.200470 0.045227 0.006989
0.232361 0.048035 0.009064
0.264587 0.051636 0.011292
0.298615 0.054993 0.014069
0.333557 0.058380 0.017426
0.369537 0.061981 0.021179
0.406860 0.065460 0.025085
0.445343 0.068878 0.029633
0.484772 0.072540 0.034027
0.525391 0.075439 0.039581
0.565918 0.077972 0.046112
0.603821 0.081299 0.052002
0.640930 0.084076 0.058868
0.676178 0.087463 0.065430
0.710571 0.090729 0.072693
0.743591 0.094879 0.079010
0.775726 0.099335 0.085663
0.807648 0.103912 0.092133
0.839447 0.108337 0.099121
0.871552 0.112885 0.106201
0.904205 0.117432 0.113373
0.937744 0.122070 0.120789
0.970917 0.127808 0.126984
1.000000 0.135956 0.133667
1.000000 0.153839 0.144073
0.015381 0.062256 0.001892
0.040527 0.060059 0.002228
0.066071 0.057800 0.003021
0.090363 0.059784 0.003876
0.116882 0.061462 0.004486
0.144745 0.063232 0.005493
0.173889 0.064941 0.006958
0.203125 0.067719 0.008026
0.234406 0.069855 0.010223
0.266144 0.072845 0.012268
0.299591 0.075439 0.015076
0.334747 0.077881 0.018311
0.369690 0.081512 0.021423
0.406677 0.084381 0.025116
0.445404 0.086914 0.029510
0.484711 0.089722 0.034119
0.524445 0.092743 0.038971
0.564667 0.094910 0.045227
0.602295 0.097839 0.050842
0.638702 0.100525 0.057373
0.674042 0.103119 0.064392
0.707916 0.106506 0.070526
0.741211 0.109741 0.077362
0.773346 0.113586 0.084015
0.805695 0.117157 0.091064
0.837158 0.121521 0.097565
0.868591 0.126038 0.104126
0.900177 0.130798 0.110718
0.931458 0.136292 0.116730
0.962708 0.142395 0.122345
0.995636 0.148438 0.128235
1.000000 0.164398 0.138031
0.021973 0.092102 0.002777
0.045654 0.090088 0.003357
0.069427 0.087524 0.003937
0.093658 0.086548 0.004608
0.120331 0.087616 0.005493
0.147430 0.089142 0.006500
0.175659 0.091064 0.007538
0.205292 0.092621 0.009521
0.235779 0.094879 0.010956
0.267487 0.097046 0.013336
0.300629 0.099274 0.015991
0.334717 0.101929 0.018616
0.369781 0.104553 0.021851
0.406433 0.107178 0.025085
0.443970 0.109772 0.028931
0.482819 0.112488 0.032806
0.522461 0.114899 0.037933
0.561340 0.117737 0.042694
0.598785 0.120178 0.048492
0.634888 0.122559 0.054657
0.669525 0.125275 0.060638
0.703217 0.128082 0.066833
0.735992 0.131134 0.073273
0.767761 0.134583 0.079651
0.799316 0.138184 0.086090
0.830048 0.142395 0.092102
0.860870 0.146606 0.098480
0.890991 0.151459 0.104462
0.921021 0.156891 0.109985
0.951599 0.162292 0.115784
0.982880 0.168121 0.121155
1.000000 0.179016 0.129333
0.028442 0.122681 0.003845
0.052399 0.120026 0.004425
0.073944 0.118164 0.004852
0.098114 0.115845 0.005768
0.124634 0.114502 0.006805
0.149872 0.116577 0.007690
0.178680 0.117584 0.008911
0.207428 0.119385 0.010651
0.237915 0.121155 0.012146
0.268982 0.123291 0.014435
0.301941 0.125061 0.017059
0.335388 0.127563 0.019409
0.370178 0.130035 0.022125
0.406586 0.132172 0.025238
0.443756 0.134644 0.028778
0.481903 0.137238 0.032593
0.521027 0.139771 0.036835
0.559753 0.141876 0.042175
0.596466 0.144470 0.046936
0.631653 0.147247 0.052216
0.665619 0.149902 0.057617
0.698608 0.152771 0.063507
0.730652 0.155731 0.069275
0.761932 0.159058 0.075226
0.792633 0.162659 0.081055
0.822968 0.166382 0.087097
0.852905 0.170532 0.092682
0.882172 0.175201 0.098358
0.912140 0.179657 0.104370
0.942017 0.184662 0.109985
0.972412 0.189911 0.115601
1.000000 0.196594 0.122070
0.036896 0.153259 0.004944
0.059540 0.150909 0.005463
0.079407 0.149048 0.006073
0.101929 0.147186 0.007172
0.127380 0.145050 0.008179
0.154449 0.144104 0.009521
0.182037 0.145477 0.010681
0.210419 0.147125 0.012207
0.240448 0.148804 0.013885
0.271423 0.150513 0.016174
0.303772 0.152344 0.018311
0.336884 0.154633 0.020538
0.371613 0.156769 0.023010
0.407501 0.158752 0.026428
0.444122 0.161194 0.029358
0.482269 0.163269 0.033142
0.520966 0.165680 0.037140
0.558899 0.168121 0.041534
0.595215 0.170502 0.046204
0.629761 0.173126 0.051300
0.663330 0.175781 0.056244
0.695648 0.178650 0.061462
0.727264 0.181549 0.066895
0.758179 0.184601 0.072540
0.788483 0.187866 0.078247
0.818268 0.191437 0.083893
0.847565 0.195435 0.089264
0.876740 0.199493 0.095001
0.906006 0.203796 0.100647
0.935364 0.208282 0.106232
0.965302 0.213043 0.111786
0.995697 0.218170 0.117310
0.047943 0.183472 0.006165
0.068512 0.181549 0.006775
0.085632 0.180481 0.007782
0.106293 0.179291 0.008545
0.130859 0.177094 0.009857
0.157806 0.174896 0.011475
0.186340 0.174164 0.012848
0.214203 0.175781 0.014313
0.243622 0.177338 0.016235
0.274628 0.178894 0.018005
0.306274 0.180786 0.019989
0.339294 0.182709 0.022278
0.373718 0.184662 0.024597
0.408844 0.186920 0.027374
0.445496 0.188843 0.030640
0.483063 0.191071 0.034058
0.521301 0.193390 0.037689
0.558838 0.195740 0.041809
0.594757 0.197998 0.046478
0.629089 0.200409 0.051025
0.662201 0.202850 0.056061
0.694275 0.205566 0.060791
0.725433 0.208374 0.066071
0.755798 0.211487 0.071136
0.785614 0.214630 0.076508
0.815186 0.217896 0.081909
0.844086 0.221497 0.087311
0.872711 0.225433 0.092590
0.901794 0.229187 0.098236
0.930542 0.233521 0.103729
0.959686 0.237976 0.109161
0.989838 0.242462 0.114838
0.059845 0.214355 0.007690
0.076080 0.213959 0.008667
0.092743 0.212555 0.009521
0.112091 0.211395 0.010437
0.134094 0.210388 0.011597
0.160828 0.207855 0.013184
0.189331 0.205841 0.014740
0.218933 0.205414 0.016510
0.247528 0.207031 0.018097
0.278107 0.208557 0.019806
0.309601 0.210175 0.021881
0.342255 0.212036 0.024048
0.376099 0.214050 0.026245
0.411255 0.215881 0.029236
0.447327 0.217896 0.032288
0.484558 0.220032 0.035461
0.522614 0.222046 0.039154
0.559784 0.224274 0.043213
0.595276 0.226471 0.047546
0.629181 0.228821 0.051971
0.661865 0.231415 0.056335
0.693634 0.233856 0.061127
0.724396 0.236694 0.065887
0.754486 0.239471 0.070679
0.784119 0.242432 0.076050
0.813141 0.245636 0.081024
0.841888 0.248932 0.086304
0.870331 0.252533 0.091370
0.898773 0.256195 0.096863
0.927490 0.260040 0.102356
0.956146 0.264252 0.107758
0.985596 0.268524 0.113190
0.071564 0.246307 0.009399
0.085938 0.245850 0.010468
0.099640 0.245636 0.011169
0.117401 0.244873 0.012207
0.138275 0.243774 0.013641
0.163208 0.241974 0.014984
0.190704 0.240234 0.016602
0.221771 0.237793 0.018677
0.252197 0.237732 0.020294
0.282196 0.239227 0.022003
0.313263 0.240845 0.024200
0.345581 0.242615 0.026093
0.379181 0.244354 0.028503
0.413849 0.246277 0.031006
0.449860 0.247986 0.034485
0.486633 0.250122 0.037506
0.524261 0.252045 0.041351
0.561157 0.254120 0.044952
0.596405 0.256256 0.049103
0.630005 0.258545 0.053284
0.662384 0.261017 0.057343
0.693817 0.263428 0.061798
0.724243 0.266052 0.066437
0.754089 0.268738 0.071289
0.783478 0.271545 0.076080
0.812103 0.274597 0.080963
0.840576 0.277771 0.086090
0.868835 0.281006 0.091339
0.897095 0.284454 0.096558
0.925262 0.288208 0.101624
0.953735 0.291962 0.107178
0.982971 0.295929 0.112457
0.081818 0.279663 0.011017
0.094818 0.279266 0.011749
0.106201 0.279724 0.012817
0.123077 0.278778 0.013794
0.143188 0.277802 0.015076
0.166748 0.276398 0.016479
0.193176 0.274841 0.018127
0.222504 0.272919 0.020203
0.255066 0.270874 0.022430
0.287079 0.270721 0.024445
0.317688 0.272369 0.026367
0.349579 0.274109 0.028381
0.382690 0.275757 0.031036
0.417206 0.277496 0.033691
0.452637 0.279388 0.036530
0.489410 0.281158 0.039825
0.526611 0.283203 0.043427
0.562988 0.285278 0.046997
0.597900 0.287354 0.050842
0.631287 0.289490 0.054810
0.663483 0.291809 0.058716
0.694611 0.294067 0.063354
0.724945 0.296509 0.067749
0.754578 0.299103 0.072205
0.783539 0.301910 0.076874
0.812012 0.304749 0.081757
0.840424 0.307617 0.086792
0.868317 0.310822 0.091827
0.896240 0.314117 0.096802
0.924133 0.317596 0.101868
0.952484 0.321136 0.107178
0.981262 0.324890 0.112457
0.092560 0.313324 0.012268
0.103516 0.313385 0.013123
0.114502 0.313599 0.013947
0.129883 0.313080 0.015167
0.147980 0.312653 0.016449
0.169983 0.311584 0.018158
0.195313 0.310120 0.019867
0.223663 0.308655 0.021698
0.255005 0.306885 0.023926
0.289734 0.304779 0.026428
0.322510 0.304901 0.028931
0.354065 0.306519 0.031067
0.386871 0.308197 0.033691
0.420868 0.309845 0.036438
0.456299 0.311584 0.039276
0.492523 0.313385 0.042603
0.529480 0.315399 0.045746
0.565521 0.317383 0.049164
0.600067 0.319397 0.053040
0.633240 0.321442 0.056854
0.665070 0.323700 0.060760
0.696014 0.325867 0.065094
0.726044 0.328278 0.069366
0.755432 0.330688 0.073883
0.784332 0.333313 0.078308
0.812592 0.336060 0.082947
0.840607 0.338837 0.087860
0.868591 0.341827 0.092682
0.896149 0.344971 0.097626
0.924103 0.348175 0.102631
0.952301 0.351532 0.107819
0.980713 0.354980 0.113190
0.102051 0.348328 0.013428
0.112213 0.348206 0.014404
0.122009 0.348480 0.015350
0.135925 0.348328 0.016479
0.152802 0.348145 0.017761
0.173157 0.347595 0.019409
0.197205 0.346497 0.021118
0.224640 0.345032 0.023346
0.254730 0.343567 0.025604
0.288177 0.341797 0.028320
0.325287 0.339661 0.031311
0.359222 0.339935 0.034119
0.391632 0.341675 0.036346
0.425232 0.343292 0.039276
0.460358 0.344940 0.042297
0.496246 0.346680 0.045166
0.532806 0.348694 0.048370
0.568665 0.350525 0.051941
0.602783 0.352570 0.055328
0.635559 0.354523 0.059174
0.667145 0.356659 0.063080
0.697876 0.358826 0.067261
0.727783 0.361084 0.071320
0.756989 0.363495 0.075592
0.785553 0.365906 0.080170
0.813843 0.368500 0.084717
0.841705 0.371277 0.089355
0.869354 0.374084 0.094055
0.897034 0.376984 0.098907
0.924683 0.380035 0.104095
0.952606 0.383209 0.109131
0.980988 0.386627 0.114075
0.112244 0.383240 0.014709
0.119873 0.384033 0.015717
0.129578 0.384003 0.016449
0.141998 0.384216 0.017700
0.157806 0.384094 0.019226
0.177246 0.383698 0.020538
0.200073 0.382813 0.022583
0.225983 0.381805 0.024658
0.254730 0.380737 0.026947
0.287140 0.379150 0.029694
0.322632 0.377441 0.032959
0.361603 0.375641 0.036499
0.396790 0.376099 0.039459
0.430145 0.377747 0.042023
0.464783 0.379425 0.044830
0.500336 0.381134 0.048126
0.536652 0.383026 0.051147
0.571991 0.384888 0.054596
0.605804 0.386780 0.058075
0.638428 0.388672 0.061981
0.669769 0.390747 0.065704
0.700165 0.392883 0.069580
0.729889 0.395050 0.073669
0.758881 0.397400 0.077850
0.787415 0.399689 0.082184
0.815338 0.402252 0.086731
0.843231 0.404724 0.091370
0.870758 0.407501 0.095917
0.898346 0.410217 0.100800
0.925873 0.413177 0.105743
0.953735 0.416290 0.110596
0.982208 0.419342 0.115784
0.120514 0.419617 0.015869
0.128510 0.419800 0.016815
0.136841 0.420166 0.017548
0.148102 0.420593 0.018860
0.162872 0.420746 0.020172
0.180878 0.420624 0.021912
0.202087 0.420166 0.023895
0.226837 0.419373 0.026093
0.254852 0.418335 0.028442
0.285767 0.417145 0.031311
0.320068 0.415802 0.034424
0.357849 0.414215 0.038177
0.399261 0.412567 0.042053
0.435547 0.413086 0.045288
0.469879 0.414764 0.048004
0.505035 0.416565 0.050812
0.540894 0.418365 0.054260
0.575958 0.420105 0.057526
0.609375 0.422028 0.061066
0.641602 0.423920 0.064789
0.672760 0.425903 0.068329
0.703003 0.427948 0.072296
0.732391 0.430054 0.076294
0.761261 0.432312 0.080170
0.789673 0.434540 0.084717
0.817596 0.436920 0.088928
0.845245 0.439331 0.093567
0.872711 0.441956 0.098206
0.900116 0.444641 0.102844
0.927643 0.447418 0.107697
0.955597 0.450287 0.112640
0.983856 0.453339 0.117493
0.128632 0.456329 0.017151
0.135712 0.456757 0.017822
0.143219 0.457184 0.018768
0.154388 0.457275 0.019867
0.167389 0.457947 0.021362
0.184662 0.457825 0.022949
0.204834 0.457581 0.025177
0.228088 0.457245 0.027100
0.254730 0.456451 0.029755
0.284393 0.455597 0.032745
0.317566 0.454529 0.035889
0.353943 0.453400 0.039276
0.394104 0.451935 0.043335
0.438324 0.450287 0.047791
0.475403 0.451141 0.051117
0.510254 0.452850 0.054138
0.545837 0.454620 0.057220
0.580139 0.456512 0.060516
0.613312 0.458282 0.063904
0.645294 0.460144 0.067657
0.676147 0.462097 0.071289
0.706238 0.463989 0.075104
0.735565 0.466064 0.078979
0.764221 0.468231 0.083099
0.792511 0.470367 0.087189
0.820282 0.472687 0.091614
0.847778 0.475037 0.096191
0.875183 0.477570 0.100586
0.902649 0.480072 0.105286
0.930145 0.482758 0.109924
0.958008 0.485565 0.114777
0.986420 0.488373 0.119843
0.136414 0.493469 0.017975
0.142639 0.493988 0.018860
0.149445 0.494537 0.019562
0.159271 0.495056 0.020752
0.172211 0.495331 0.022278
0.188080 0.495544 0.023956
0.206909 0.495605 0.026031
0.228912 0.495514 0.028229
0.254028 0.495300 0.030731
0.282928 0.494446 0.033691
0.314697 0.493744 0.036774
0.350037 0.492828 0.040466
0.388885 0.491730 0.044617
0.431732 0.490448 0.048950
0.478394 0.489075 0.053833
0.515778 0.490143 0.057343
0.550964 0.491913 0.060425
0.585052 0.493622 0.063629
0.617737 0.495453 0.067047
0.649292 0.497253 0.070679
0.679962 0.499084 0.074402
0.709808 0.501068 0.077881
0.738983 0.502930 0.081940
0.767517 0.504974 0.086060
0.795532 0.507141 0.090240
0.823303 0.509277 0.094299
0.850830 0.511475 0.098724
0.878113 0.513885 0.103302
0.905457 0.516296 0.107910
0.933075 0.518860 0.112549
0.960999 0.521393 0.117432
0.989471 0.524109 0.122284
0.143097 0.530884 0.018860
0.149048 0.531281 0.019501
0.155548 0.531708 0.020355
0.164307 0.532349 0.021545
0.176056 0.532959 0.023010
0.191071 0.533356 0.024719
0.208771 0.533691 0.026703
0.229462 0.533875 0.028992
0.253754 0.533661 0.031372
0.281128 0.533264 0.034485
0.311523 0.532928 0.037506
0.345825 0.532196 0.041138
0.383514 0.531433 0.044983
0.424774 0.530457 0.049713
0.470062 0.529388 0.054657
0.519043 0.528320 0.059967
0.556641 0.529388 0.063568
0.590179 0.531128 0.066833
0.622620 0.532776 0.070282
0.653992 0.534485 0.073822
0.684265 0.536285 0.077271
0.713837 0.537964 0.081238
0.742767 0.539764 0.085114
0.771179 0.541656 0.088898
0.799133 0.543610 0.093109
0.826843 0.545593 0.097412
0.854248 0.547668 0.101685
0.881531 0.549805 0.106049
0.908875 0.551880 0.110809
0.936554 0.554169 0.115295
0.964478 0.556427 0.120239
0.993134 0.558838 0.125153
0.149231 0.566467 0.019775
0.154449 0.567047 0.020355
0.160339 0.567505 0.021118
0.168610 0.568115 0.022308
0.179535 0.568848 0.023682
0.193634 0.569397 0.025208
0.210388 0.569824 0.027283
0.230164 0.570068 0.029663
0.253204 0.570221 0.032196
0.279266 0.570160 0.035034
0.308746 0.569855 0.038269
0.341492 0.569580 0.041870
0.378143 0.568848 0.045990
0.418091 0.568207 0.050354
0.462280 0.567352 0.055298
0.510925 0.566345 0.060822
0.561310 0.565369 0.066833
0.595703 0.566711 0.070282
0.627625 0.568329 0.073578
0.658539 0.569946 0.077148
0.688721 0.571503 0.080750
0.718048 0.573181 0.084595
0.746765 0.574799 0.088379
0.775055 0.576508 0.092377
0.802979 0.578247 0.096405
0.830505 0.580017 0.100708
0.857788 0.581909 0.105072
0.885132 0.583771 0.109497
0.912537 0.585754 0.113983
0.940216 0.587769 0.118652
0.968262 0.589844 0.123474
0.997131 0.591949 0.128235
0.154510 0.599976 0.020538
0.159302 0.600464 0.021301
0.164825 0.601044 0.022034
0.172516 0.601715 0.023163
0.182739 0.602478 0.024597
0.195862 0.603180 0.026215
0.211792 0.603790 0.028137
0.230530 0.604248 0.030426
0.252686 0.604431 0.032990
0.277588 0.604553 0.036011
0.305939 0.604553 0.039185
0.337799 0.604340 0.042786
0.373169 0.603943 0.046814
0.412323 0.603394 0.051483
0.455078 0.602844 0.056335
0.504364 0.602051 0.062042
0.555054 0.601379 0.067688
0.601257 0.600616 0.074127
0.632843 0.602112 0.077393
0.663483 0.603607 0.081055
0.693329 0.605103 0.084534
0.722412 0.606628 0.088348
0.751038 0.608154 0.092041
0.779083 0.609833 0.096039
0.806854 0.611328 0.100098
0.834320 0.613007 0.104340
0.861694 0.614655 0.108551
0.889008 0.616364 0.113068
0.916290 0.618134 0.117584
0.944092 0.619995 0.122192
0.972321 0.621887 0.126801
1.000000 0.624054 0.133087
0.159180 0.631592 0.021698
0.163574 0.632141 0.022400
0.168671 0.632721 0.023132
0.176147 0.633331 0.024200
0.185822 0.634125 0.025574
0.198120 0.634949 0.027191
0.213013 0.635712 0.029205
0.231018 0.636292 0.031525
0.252045 0.636780 0.034058
0.276093 0.637024 0.037018
0.303436 0.637177 0.040283
0.334290 0.637207 0.043854
0.368500 0.637085 0.047943
0.406708 0.636719 0.052460
0.448517 0.636322 0.057434
0.498962 0.635834 0.063171
0.550232 0.635193 0.069061
0.596802 0.634583 0.075317
0.638184 0.634338 0.081635
0.668488 0.635834 0.084961
0.698059 0.637207 0.088654
0.726959 0.638611 0.092407
0.755402 0.640015 0.096222
0.783325 0.641541 0.100037
0.810913 0.643036 0.104156
0.838348 0.644531 0.108368
0.865631 0.646149 0.112610
0.892853 0.647705 0.116852
0.920258 0.649323 0.121521
0.948151 0.651031 0.126068
0.976624 0.652740 0.130798
1.000000 0.655121 0.141266
0.163239 0.661652 0.023041
0.167297 0.662201 0.023621
0.171814 0.662903 0.024445
0.178894 0.663574 0.025391
0.188141 0.664398 0.026672
0.199768 0.665283 0.028290
0.214386 0.665955 0.030334
0.231415 0.666870 0.032593
0.251526 0.667389 0.035217
0.274750 0.667877 0.038208
0.301117 0.668243 0.041443
0.330994 0.668365 0.045166
0.364380 0.668427 0.049316
0.401398 0.668335 0.053864
0.442291 0.668091 0.058807
0.494995 0.667755 0.064545
0.546417 0.667358 0.070404
0.592957 0.666931 0.076904
0.635986 0.666595 0.083557
0.673615 0.666656 0.089691
0.702911 0.667999 0.093262
0.731628 0.669373 0.096771
0.759827 0.670807 0.100586
0.787689 0.672150 0.104492
0.815247 0.673553 0.108643
0.842499 0.674988 0.112701
0.869690 0.676422 0.116882
0.896942 0.677917 0.121307
0.924438 0.679474 0.125824
0.952484 0.681000 0.130341
0.981049 0.682678 0.134918
1.000000 0.685150 0.151062
0.166656 0.690430 0.024445
0.170685 0.690948 0.025116
0.174927 0.691589 0.025787
0.181702 0.692230 0.026825
0.190491 0.693146 0.028107
0.201385 0.694122 0.029755
0.215363 0.694946 0.031677
0.231812 0.695831 0.033905
0.251068 0.696625 0.036530
0.273438 0.697327 0.039520
0.299011 0.697754 0.042786
0.328064 0.698090 0.046478
0.360687 0.698212 0.050812
0.396698 0.698364 0.055389
0.438477 0.698395 0.060425
0.492371 0.698212 0.066254
0.543579 0.698029 0.072327
0.590302 0.697754 0.078613
0.633392 0.697540 0.085266
0.673340 0.697449 0.092224
0.707886 0.697784 0.098053
0.736359 0.699097 0.101685
0.764343 0.700409 0.105560
0.792023 0.701752 0.109283
0.819458 0.703094 0.113373
0.846710 0.704437 0.117310
0.873932 0.705811 0.121643
0.901276 0.707184 0.125946
0.928864 0.708588 0.130493
0.956818 0.710052 0.134857
0.985718 0.711578 0.139557
1.000000 0.714111 0.162598
0.169647 0.718048 0.025940
0.173431 0.718567 0.026550
0.177795 0.719086 0.027283
0.183838 0.719971 0.028229
0.192230 0.720825 0.029602
0.202911 0.721832 0.031219
0.216248 0.722748 0.033203
0.232147 0.723724 0.035431
0.250763 0.724609 0.038055
0.272430 0.725403 0.041077
0.297333 0.726044 0.044403
0.325439 0.726563 0.048187
0.357086 0.726959 0.052307
0.392395 0.727203 0.057098
0.436798 0.727386 0.062378
0.491058 0.727417 0.068146
0.541901 0.727448 0.074127
0.588531 0.727386 0.080597
0.631653 0.727356 0.087280
0.671631 0.727325 0.094116
0.709167 0.727264 0.101318
0.741150 0.727936 0.106995
0.769012 0.729218 0.110687
0.796600 0.730469 0.114532
0.823822 0.731781 0.118439
0.851105 0.733032 0.122559
0.878265 0.734375 0.126740
0.905579 0.735687 0.131042
0.933167 0.737030 0.135437
0.961426 0.738403 0.139954
0.990479 0.739777 0.144562
1.000000 0.742035 0.175751
0.172394 0.744629 0.027679
0.175964 0.745209 0.028198
0.180054 0.745728 0.028839
0.186035 0.746552 0.029938
0.194031 0.747498 0.031189
0.204437 0.748474 0.032745
0.217072 0.749481 0.034790
0.232269 0.750610 0.037018
0.250336 0.751709 0.039581
0.271484 0.752502 0.042664
0.295654 0.753265 0.046143
0.322968 0.754028 0.050018
0.353912 0.754578 0.054321
0.388367 0.755066 0.058990
0.436798 0.755371 0.064392
0.490723 0.755646 0.070129
0.541290 0.755798 0.076355
0.587769 0.755890 0.082825
0.630768 0.755981 0.089508
0.670776 0.756104 0.096405
0.708374 0.756134 0.103729
0.743713 0.756378 0.111084
0.773712 0.757172 0.116394
0.801056 0.758514 0.120087
0.828308 0.759644 0.124084
0.855469 0.760925 0.128143
0.882690 0.762207 0.132172
0.909973 0.763458 0.136475
0.937744 0.764740 0.140839
0.966003 0.765991 0.145233
0.995392 0.767334 0.149902
1.000000 0.769073 0.191132
0.174652 0.770416 0.029388
0.178162 0.770905 0.029999
0.182037 0.771515 0.030670
0.187866 0.772247 0.031708
0.195709 0.773193 0.032898
0.205566 0.774231 0.034546
0.217865 0.775391 0.036438
0.232605 0.776611 0.038788
0.250183 0.777679 0.041473
0.270752 0.778656 0.044525
0.294128 0.779633 0.048035
0.320984 0.780518 0.051941
0.351105 0.781250 0.056335
0.384949 0.781891 0.061127
0.437408 0.782471 0.066589
0.491394 0.782867 0.072571
0.541595 0.783112 0.078705
0.587769 0.783478 0.085205
0.630524 0.783783 0.091919
0.670624 0.783997 0.099060
0.708130 0.784210 0.106262
0.743683 0.784454 0.113708
0.777191 0.784760 0.121399
0.805695 0.785767 0.126160
0.832794 0.786926 0.130035
0.859924 0.788177 0.133972
0.887146 0.789398 0.138184
0.914490 0.790619 0.142242
0.942322 0.791840 0.146729
0.970734 0.793060 0.151093
1.000000 0.794342 0.156372
1.000000 0.795197 0.208832
0.177094 0.795135 0.031311
0.180176 0.795837 0.031860
0.184174 0.796356 0.032532
0.189636 0.797211 0.033478
0.197083 0.798157 0.034821
0.206787 0.799225 0.036346
0.218750 0.800415 0.038330
0.232910 0.801727 0.040710
0.250122 0.802948 0.043427
0.269989 0.804077 0.046570
0.292877 0.805237 0.050018
0.319122 0.806183 0.054047
0.348785 0.807098 0.058502
0.385925 0.807892 0.063446
0.439728 0.808624 0.068909
0.493164 0.809265 0.075012
0.542725 0.809723 0.081268
0.588531 0.810150 0.087982
0.631226 0.810577 0.094696
0.671051 0.810944 0.101868
0.708710 0.811340 0.109039
0.744232 0.811737 0.116608
0.777924 0.812073 0.124329
0.810089 0.812500 0.132233
0.837402 0.813629 0.136536
0.864410 0.814850 0.140381
0.891632 0.816071 0.144501
0.919037 0.817291 0.148651
0.946960 0.818390 0.152893
0.975677 0.819611 0.157257
1.000000 0.820435 0.172180
1.000000 0.820435 0.228912
0.179047 0.819458 0.033234
0.182312 0.819977 0.033844
0.185974 0.820587 0.034515
0.191345 0.821350 0.035492
0.198547 0.822479 0.036682
0.207886 0.823486 0.038422
0.219482 0.824768 0.040375
0.233429 0.826202 0.042725
0.250153 0.827515 0.045441
0.269653 0.828644 0.048645
0.292053 0.829987 0.052277
0.317719 0.831116 0.056305
0.346741 0.832214 0.060852
0.389435 0.833160 0.065948
0.442871 0.834076 0.071655
0.495697 0.834869 0.077789
0.544830 0.835541 0.084167
0.590057 0.836212 0.090881
0.632446 0.836731 0.097687
0.672211 0.837311 0.104828
0.709778 0.837769 0.112305
0.745300 0.838318 0.119781
0.779083 0.838867 0.127472
0.811432 0.839355 0.135437
0.841980 0.839966 0.143280
0.868988 0.841125 0.147095
0.896118 0.842285 0.151154
0.923645 0.843445 0.155212
0.951691 0.844574 0.159454
0.980591 0.845734 0.163879
1.000000 0.845734 0.190491
1.000000 0.844635 0.251892
0.181122 0.843018 0.035248
0.184265 0.843506 0.035858
0.187775 0.844116 0.036530
0.193024 0.845001 0.037506
0.200043 0.846069 0.038788
0.209137 0.847198 0.040466
0.220428 0.848572 0.042480
0.234192 0.849884 0.044861
0.250549 0.851288 0.047699
0.269470 0.852753 0.050903
0.291473 0.854065 0.054596
0.316528 0.855530 0.058716
0.345123 0.856720 0.063385
0.394043 0.857849 0.068634
0.447052 0.858948 0.074341
0.499207 0.859955 0.080597
0.547516 0.860779 0.087219
