OTTER-Stable/projects/better/res/luts/RRWarmLUT.CUBE
#Created by: Adobe Photoshop Export Color Lookup Plugin
TITLE "tutoriallutchanges.PNG"
#LUT size
LUT_3D_SIZE 8
#data domain
#LUT data points
DOMAIN_MIN 0.000000 0.000000 0.000000
DOMAIN_MAX 0.903226 0.903226 0.903226
0.000000 0.000000 0.000000
0.109589 0.009064 0.002167
0.230225 0.022278 0.007599
0.367645 0.041748 0.019623
0.525635 0.058350 0.039673
0.672058 0.078156 0.061798
0.802399 0.097443 0.087769
0.931915 0.116608 0.116516
0.028442 0.122681 0.003845
0.124634 0.114502 0.006805
0.237915 0.121155 0.012146
0.370178 0.130035 0.022125
0.521027 0.139771 0.036835
0.665619 0.149902 0.057617
0.792633 0.162659 0.081055
0.912140 0.179657 0.104370
0.071564 0.246307 0.009399
0.138275 0.243774 0.013641
0.252197 0.237732 0.020294
0.379181 0.244354 0.028503
0.524261 0.252045 0.041351
0.662384 0.261017 0.057343
0.783478 0.271545 0.076080
0.897095 0.284454 0.096558
0.112244 0.383240 0.014709
0.157806 0.384094 0.019226
0.254730 0.380737 0.026947
0.396790 0.376099 0.039459
0.536652 0.383026 0.051147
0.669769 0.390747 0.065704
0.787415 0.399689 0.082184
0.898346 0.410217 0.100800
0.143097 0.530884 0.018860
0.176056 0.532959 0.023010
0.253754 0.533661 0.031372
0.383514 0.531433 0.044983
0.556641 0.529388 0.063568
0.684265 0.536285 0.077271
0.799133 0.543610 0.093109
0.908875 0.551880 0.110809
0.163239 0.661652 0.023041
0.188141 0.664398 0.026672
0.251526 0.667389 0.035217
0.364380 0.668427 0.049316
0.546417 0.667358 0.070404
0.702911 0.667999 0.093262
0.815247 0.673553 0.108643
0.924438 0.679474 0.125824
0.174652 0.770416 0.029388
0.195709 0.773193 0.032898
0.250183 0.777679 0.041473
0.351105 0.781250 0.056335
0.541595 0.783112 0.078705
0.708130 0.784210 0.106262
0.832794 0.786926 0.130035
0.942322 0.791840 0.146729
0.183228 0.865875 0.037445
0.201630 0.869049 0.040955
0.251038 0.874634 0.049988
0.348053 0.880646 0.066040
0.551147 0.885437 0.090454
0.713562 0.888977 0.119202
0.846649 0.892029 0.150970
0.961090 0.895996 0.173859
0.011597 0.000580 0.036774
0.114258 0.010773 0.040710
0.232513 0.024414 0.047119
0.369476 0.042786 0.059082
0.526337 0.059265 0.078186
0.672607 0.078522 0.098694
0.802887 0.097748 0.121979
0.932556 0.116852 0.148438
0.039825 0.111237 0.042084
0.128723 0.115295 0.046234
0.243500 0.109833 0.044983
0.376068 0.108185 0.049744
0.526733 0.113861 0.063141
0.672852 0.121429 0.084137
0.802643 0.133179 0.107971
0.924866 0.151306 0.130371
0.077789 0.242157 0.042297
0.121643 0.251221 0.035431
0.259827 0.244232 0.047089
0.383667 0.239624 0.055145
0.527405 0.242310 0.064301
0.664307 0.248688 0.078094
0.784912 0.258026 0.095032
0.898407 0.270447 0.114075
0.113892 0.382263 0.042755
0.141724 0.388550 0.035675
0.248596 0.385834 0.047241
0.402496 0.381073 0.062653
0.539764 0.380676 0.073639
0.671326 0.384796 0.085632
0.787994 0.391846 0.100372
0.898407 0.401337 0.117249
0.144043 0.529449 0.042511
0.162659 0.534912 0.035767
0.244263 0.536713 0.046661
0.379669 0.534729 0.063202
0.560333 0.532684 0.084625
0.685822 0.534698 0.096924
0.799713 0.539612 0.111115
0.908752 0.546539 0.127136
0.163544 0.660339 0.041931
0.176971 0.664368 0.036530
0.242065 0.668213 0.046692
0.357697 0.669556 0.063202
0.544037 0.668732 0.087463
0.704834 0.669556 0.111908
0.815796 0.672485 0.125946
0.924530 0.676910 0.141937
0.175262 0.768982 0.044312
0.186188 0.772125 0.040039
0.241425 0.777252 0.049866
0.343475 0.781372 0.066681
0.535980 0.783508 0.091827
0.706940 0.784760 0.121887
0.833771 0.787628 0.146759
0.942352 0.790833 0.162079
0.183746 0.864777 0.049103
0.193329 0.867310 0.046051
0.242676 0.873596 0.056061
0.336151 0.880005 0.073792
0.543762 0.885071 0.100433
0.710510 0.888855 0.131470
0.845764 0.891937 0.165192
0.961578 0.896057 0.188477
0.033203 0.000061 0.089935
0.124725 0.007019 0.110474
0.238617 0.023071 0.118866
0.373779 0.042419 0.130981
0.528534 0.060059 0.149445
0.674255 0.079529 0.168945
0.804443 0.098663 0.191132
0.934296 0.117676 0.215942
0.058258 0.105194 0.110992
0.114685 0.084961 0.118317
0.250397 0.097015 0.126923
0.380066 0.106079 0.128601
0.530273 0.112946 0.141022
0.675812 0.120941 0.160492
0.805084 0.133179 0.181763
0.928467 0.150787 0.201996
0.096832 0.225494 0.114441
0.141418 0.236908 0.123230
0.258698 0.237427 0.128723
0.388855 0.232361 0.127533
0.532990 0.224487 0.127106
0.669067 0.222443 0.134064
0.789429 0.226746 0.146271
0.903931 0.236389 0.161896
0.130554 0.371552 0.104950
0.154572 0.381775 0.103027
0.223602 0.392059 0.094788
0.410309 0.386688 0.122192
0.545166 0.376099 0.135834
0.674683 0.372955 0.139771
0.790009 0.374878 0.148895
0.899445 0.381073 0.161530
0.153625 0.525391 0.090973
0.167053 0.532898 0.086243
0.217987 0.541687 0.079590
0.367889 0.540619 0.105530
0.567474 0.538666 0.135895
0.689270 0.531372 0.150208
0.801300 0.531250 0.159576
0.909027 0.534515 0.170959
0.166595 0.658569 0.078949
0.180145 0.662201 0.077362
0.217896 0.669647 0.071045
0.340118 0.672424 0.094513
0.537292 0.671997 0.127838
0.709106 0.673004 0.158478
0.817810 0.669983 0.171448
0.924896 0.671417 0.185608
0.177795 0.767303 0.074921
0.188416 0.770172 0.073425
0.219482 0.776337 0.068085
0.324341 0.781860 0.090393
0.521576 0.784668 0.122925
0.704224 0.786072 0.160522
0.836334 0.789185 0.188599
0.943207 0.788513 0.201935
0.186066 0.863098 0.074799
0.195343 0.865479 0.073486
0.222534 0.870880 0.069611
0.316803 0.878632 0.091766
0.525452 0.884674 0.124664
0.703217 0.888702 0.162323
0.843781 0.892090 0.201416
0.962830 0.896362 0.226166
0.066528 0.000061 0.144073
0.142273 0.000061 0.203033
0.248627 0.020355 0.217285
0.381348 0.040466 0.232178
0.532349 0.060974 0.250000
0.677338 0.080688 0.269745
0.807404 0.099823 0.291626
0.937744 0.118835 0.315979
0.092499 0.093689 0.204224
0.133972 0.068939 0.214508
0.250549 0.085785 0.226624
0.389191 0.098999 0.238831
0.537018 0.109924 0.249146
0.681976 0.118866 0.268097
0.811310 0.131409 0.288361
0.936249 0.149048 0.307465
0.122955 0.216248 0.210388
0.155426 0.216003 0.219910
0.232452 0.194641 0.231537
0.397186 0.207214 0.243835
0.538452 0.217194 0.238953
0.673218 0.219727 0.244904
0.793549 0.225586 0.255707
0.908356 0.236023 0.269135
0.161224 0.354065 0.214691
0.188782 0.363678 0.223419
0.259003 0.377625 0.236237
0.405548 0.375031 0.244507
0.549408 0.371918 0.244934
0.679321 0.361877 0.240692
0.794037 0.355438 0.240479
0.902740 0.354828 0.245209
0.184387 0.513214 0.185730
0.200623 0.520660 0.185547
0.241943 0.534729 0.180817
0.341431 0.543213 0.180023
0.573578 0.541718 0.232880
0.693756 0.528839 0.252777
0.804718 0.521790 0.250885
0.911011 0.519135 0.253967
0.196686 0.650909 0.157471
0.206207 0.655914 0.154388
0.230927 0.666443 0.144623
0.308624 0.674957 0.145294
0.523102 0.675385 0.197876
0.715088 0.676697 0.242981
0.821350 0.667236 0.260681
0.927032 0.664795 0.268555
0.201080 0.762878 0.136749
0.206757 0.766541 0.132660
0.225464 0.774200 0.124359
0.292969 0.781952 0.127838
0.495453 0.786194 0.175293
0.699371 0.788208 0.228790
0.840698 0.791595 0.264832
0.945526 0.785461 0.277771
0.202423 0.860291 0.123566
0.205597 0.863037 0.118927
0.227600 0.868774 0.117035
0.286011 0.876312 0.120331
0.493225 0.883942 0.165436
0.691467 0.888794 0.216675
0.841125 0.892517 0.266968
0.965820 0.897064 0.295380
0.102844 0.000061 0.212585
0.165344 0.000061 0.296417
0.264893 0.014160 0.342285
0.391113 0.038635 0.359985
0.538818 0.060822 0.379395
0.682343 0.081360 0.400146
0.812225 0.100800 0.422363
0.943420 0.119873 0.446503
0.137817 0.075623 0.325500
0.171478 0.048462 0.339813
0.269470 0.072693 0.356812
0.397766 0.089050 0.371918
0.550049 0.102142 0.391266
0.693054 0.113342 0.408966
0.823273 0.126343 0.429169
0.950592 0.144745 0.446991
0.157745 0.205170 0.331024
0.183228 0.201233 0.341461
0.242554 0.173523 0.356903
0.385895 0.189484 0.372314
0.548828 0.201630 0.387756
0.681274 0.213684 0.387817
0.801300 0.222473 0.396210
0.916901 0.234100 0.407593
0.191650 0.343719 0.342194
0.212982 0.346405 0.351044
0.267944 0.344818 0.365997
0.372101 0.325775 0.378937
0.558838 0.338715 0.394653
0.685699 0.349762 0.383026
0.800018 0.349609 0.382385
0.909241 0.351959 0.386047
0.230164 0.496429 0.345062
0.248840 0.504150 0.353180
0.298645 0.518219 0.368713
0.395905 0.531464 0.384338
0.567841 0.527740 0.394867
0.698334 0.526520 0.396576
0.810333 0.516968 0.390045
0.916229 0.508453 0.384613
0.242981 0.639374 0.315826
0.254883 0.644562 0.317719
0.286957 0.655212 0.319305
0.348236 0.668549 0.314728
0.499329 0.674988 0.324921
0.720459 0.677185 0.381561
0.826935 0.667175 0.405121
0.932343 0.660492 0.399139
0.249908 0.754639 0.300751
0.257965 0.758270 0.299011
0.279327 0.766632 0.292694
0.320129 0.778137 0.277069
0.458588 0.786530 0.281036
0.693756 0.789490 0.348694
0.846832 0.793457 0.387573
0.950836 0.783600 0.406738
0.254242 0.854248 0.299347
0.259796 0.857025 0.295319
0.274475 0.863800 0.284149
0.302490 0.873688 0.262421
0.450134 0.882446 0.263977
0.677521 0.888702 0.326447
0.839600 0.893097 0.379517
0.971497 0.898132 0.406555
0.137146 0.000061 0.287964
0.192383 0.000061 0.386444
0.286255 0.002472 0.475189
0.404602 0.034332 0.495758
0.547424 0.059387 0.516449
0.688965 0.081085 0.536743
0.818451 0.101135 0.557495
0.950592 0.120544 0.579559
0.185760 0.052734 0.459961
0.215942 0.021484 0.476990
0.299500 0.054230 0.498077
0.416840 0.075714 0.515594
0.562195 0.090942 0.536163
0.708130 0.104431 0.558472
0.836334 0.120941 0.574158
0.970978 0.137543 0.592529
0.195892 0.191742 0.460693
0.217346 0.186218 0.471222
0.266266 0.155731 0.488312
0.393280 0.175964 0.506744
0.544647 0.190369 0.522827
0.693237 0.202698 0.539703
0.812225 0.216553 0.544617
0.928955 0.230316 0.552979
0.222717 0.334076 0.470734
0.240753 0.333618 0.478821
0.285248 0.325684 0.493164
0.369629 0.298950 0.508667
0.536621 0.314240 0.524933
0.695496 0.326416 0.539398
0.808563 0.339752 0.533539
0.918701 0.346649 0.535187
0.261230 0.486816 0.482483
0.276947 0.489807 0.489288
0.318665 0.493408 0.502747
0.398804 0.491821 0.518616
0.532166 0.479340 0.531403
0.706696 0.491882 0.545959
0.817383 0.501892 0.535187
0.924133 0.500000 0.532013
0.294861 0.626740 0.485046
0.308990 0.631897 0.491241
0.346893 0.642944 0.504425
0.421265 0.656799 0.521332
0.549652 0.668152 0.536346
0.717468 0.665833 0.547302
0.832703 0.666382 0.550354
0.940491 0.660645 0.546265
0.301697 0.745453 0.471069
0.311737 0.749207 0.473480
0.338867 0.757782 0.478394
0.391785 0.769867 0.483459
0.499664 0.782257 0.486176
0.690063 0.787659 0.510559
0.853149 0.792542 0.541656
0.959290 0.785278 0.558868
0.306671 0.847473 0.467316
0.314209 0.850433 0.467438
0.334351 0.857422 0.466736
0.373901 0.867767 0.463776
0.480255 0.879578 0.458008
0.668304 0.887756 0.479645
0.840973 0.892883 0.523804
0.979675 0.898499 0.544708
0.164642 0.000061 0.354095
0.216248 0.000061 0.461395
0.303406 0.000061 0.571381
0.418243 0.029022 0.611938
0.556549 0.056976 0.634277
0.695892 0.080139 0.655457
0.824921 0.100830 0.676453
0.958191 0.120605 0.698395
0.230011 0.026642 0.581268
0.249176 0.000061 0.583344
0.326782 0.037537 0.617950
0.436035 0.063324 0.638824
0.572205 0.084320 0.657928
0.711975 0.102936 0.676605
0.842865 0.120422 0.695740
0.978943 0.137482 0.714111
0.229584 0.178833 0.573669
0.248749 0.172516 0.584320
0.292725 0.139404 0.602722
0.407440 0.163635 0.624146
0.549622 0.180664 0.641815
0.695038 0.194061 0.659393
0.825226 0.207825 0.675415
0.943146 0.224731 0.681366
0.251678 0.324493 0.581848
0.267059 0.322662 0.589539
0.305267 0.311432 0.603302
0.377777 0.280975 0.619507
0.530914 0.298615 0.637604
0.685059 0.311890 0.652557
0.818329 0.324493 0.665588
0.929047 0.338959 0.664185
0.285065 0.479706 0.592621
0.298737 0.480164 0.598785
0.334045 0.478210 0.611145
0.402618 0.468445 0.626404
0.517426 0.448883 0.641266
0.684662 0.462585 0.656403
0.825317 0.474487 0.668365
0.932617 0.487152 0.660645
0.324951 0.618927 0.603973
0.337585 0.621582 0.609161
0.371277 0.626892 0.620453
0.437042 0.632019 0.635681
0.547180 0.634369 0.651276
0.693207 0.633667 0.663605
0.840210 0.643097 0.675537
0.947754 0.648804 0.666992
0.351044 0.736420 0.607574
0.362457 0.740387 0.612213
0.393463 0.749268 0.622894
0.454376 0.761963 0.638214
0.562378 0.775238 0.654816
0.708130 0.784882 0.668335
0.852783 0.784332 0.678680
0.967224 0.785889 0.682373
0.356110 0.840607 0.604797
0.364868 0.843658 0.607056
0.388885 0.850922 0.612305
0.436035 0.861938 0.619720
0.539703 0.874481 0.628021
0.682739 0.885712 0.636047
0.847778 0.891174 0.664734
0.988464 0.897247 0.680084
0.186646 0.000061 0.410553
0.236084 0.000061 0.522339
0.318115 0.000061 0.645386
0.431274 0.023285 0.712372
0.565216 0.054230 0.737854
0.702637 0.078735 0.761383
0.831238 0.100159 0.784454
0.965637 0.120300 0.808289
0.266876 0.000061 0.679047
0.268951 0.000061 0.642792
0.344879 0.028259 0.715668
0.447998 0.057922 0.740387
0.579254 0.081360 0.762726
0.716888 0.101257 0.783905
0.847168 0.119385 0.804993
0.986816 0.137085 0.827545
0.258240 0.167175 0.670837
0.276062 0.160095 0.682251
0.317810 0.124481 0.703857
0.423706 0.152039 0.729065
0.558868 0.171112 0.749908
0.701752 0.185608 0.770172
0.830811 0.200378 0.787079
0.958832 0.217499 0.800781
0.276062 0.316040 0.677338
0.290283 0.313110 0.685120
0.324646 0.299957 0.699280
0.389587 0.267120 0.716736
0.532410 0.287079 0.738007
0.682312 0.301544 0.754974
0.813843 0.314575 0.768738
0.939972 0.328644 0.780701
0.305847 0.473236 0.687653
0.318390 0.472168 0.693726
0.350098 0.466705 0.705933
0.410828 0.452454 0.721405
0.513031 0.428619 0.737274
0.673706 0.443604 0.754395
0.811493 0.455780 0.767090
0.941101 0.468140 0.777771
0.342651 0.613831 0.698761
0.353821 0.615112 0.703735
0.384094 0.616760 0.714508
0.442444 0.616547 0.729370
0.540344 0.612915 0.745331
0.676758 0.608765 0.760162
0.819946 0.618805 0.772644
0.954926 0.627960 0.782928
0.381195 0.730103 0.710266
0.391754 0.732513 0.714508
0.420624 0.737732 0.724121
0.476929 0.744690 0.738190
0.571136 0.751556 0.754364
0.701477 0.757355 0.769440
0.838013 0.764221 0.780762
0.974579 0.771606 0.790649
0.400452 0.834167 0.715729
0.410187 0.837372 0.719421
0.436707 0.844910 0.728363
0.488953 0.856415 0.742096
0.585388 0.869873 0.758514
0.715424 0.881958 0.774048
0.856384 0.889893 0.787903
0.992676 0.892944 0.796600
