OTTER-Stable/projects/better/res/luts/RRWarmLUT.CUBE
#Created by: Adobe Photoshop Export Color Lookup Plugin
TITLE "tutoriallutchanges.PNG"
#LUT size
LUT_3D_SIZE 5
#data domain
#LUT data points
DOMAIN_MIN 0.000000 0.000000 0.000000
DOMAIN_MAX 0.903226 0.903226 0.903226
0.000000 0.000000 0.000000
0.197662 0.019409 0.005463
0.444153 0.051056 0.028381
0.705444 0.083008 0.067963
0.931915 0.116608 0.116516
0.059845 0.214355 0.007690
0.218933 0.205414 0.016510
0.447327 0.217896 0.032288
0.693634 0.233856 0.061127
0.898773 0.256195 0.096863
0.128632 0.456329 0.017151
0.228088 0.457245 0.027100
0.475403 0.451141 0.051117
0.706238 0.463989 0.075104
0.902649 0.480072 0.105286
0.166656 0.690430 0.024445
0.231812 0.695831 0.033905
0.438477 0.698395 0.060425
0.736359 0.699097 0.101685
0.928864 0.708588 0.130493
0.183228 0.865875 0.037445
0.234985 0.873169 0.047119
0.452240 0.883240 0.077362
0.748932 0.889801 0.126831
0.961090 0.895996 0.173859
0.026642 0.000061 0.076721
0.205322 0.020142 0.095856
0.447876 0.051910 0.118622
0.707092 0.084076 0.153717
0.933746 0.117432 0.195892
0.081573 0.195435 0.093842
0.224640 0.205505 0.105011
0.455597 0.194397 0.103363
0.699951 0.194763 0.119812
0.906738 0.212402 0.149109
0.138428 0.450653 0.080597
0.197266 0.465912 0.069458
0.486237 0.460388 0.110107
0.709381 0.453461 0.129944
0.902740 0.461517 0.151337
0.168884 0.687714 0.067230
0.205414 0.696289 0.059174
0.421295 0.701111 0.097778
0.740662 0.702393 0.150909
0.929047 0.703369 0.175812
0.185089 0.863617 0.066956
0.212738 0.869781 0.061829
0.422363 0.882111 0.100525
0.742706 0.889557 0.161743
0.962463 0.896210 0.214142
0.084534 0.000061 0.175903
0.227692 0.012085 0.272888
0.458557 0.050659 0.301575
0.712738 0.085938 0.336517
0.940247 0.119354 0.377502
0.130737 0.179077 0.265015
0.207977 0.150482 0.285889
0.468964 0.174225 0.309937
0.708710 0.191101 0.318695
0.916595 0.211090 0.342255
0.195435 0.423462 0.274872
0.257294 0.443237 0.294342
0.485291 0.449860 0.315369
0.717133 0.440063 0.312164
0.907837 0.427643 0.307922
0.220123 0.675781 0.217072
0.246857 0.687408 0.209534
0.375092 0.704865 0.200989
0.750397 0.707916 0.306946
0.933746 0.694733 0.332031
0.227325 0.857422 0.206940
0.239319 0.864929 0.188599
0.338104 0.879364 0.167236
0.726929 0.889954 0.276367
0.968170 0.897644 0.344971
0.144623 0.000061 0.305328
0.263885 0.000061 0.482697
0.476715 0.046509 0.537079
0.723572 0.086060 0.572937
0.952484 0.120575 0.610321
0.200348 0.153656 0.489227
0.256775 0.118347 0.514893
0.473206 0.154419 0.547028
0.729523 0.177216 0.578491
0.939331 0.204224 0.593750
0.247559 0.406891 0.505920
0.291443 0.406097 0.522797
0.441620 0.376892 0.549011
0.731049 0.400055 0.574677
0.921997 0.416260 0.565582
0.309692 0.655518 0.517273
0.347076 0.667725 0.531830
0.481964 0.690979 0.560394
0.751984 0.696838 0.581757
0.946960 0.694061 0.582581
0.319427 0.845734 0.504730
0.341644 0.853638 0.506439
0.429382 0.872192 0.506409
0.716522 0.888733 0.529999
0.981995 0.898407 0.579315
0.186646 0.000061 0.410553
0.293915 0.000061 0.615265
0.495667 0.039795 0.725372
0.735168 0.084290 0.767212
0.965637 0.120300 0.808289
0.256256 0.129852 0.671082
0.308838 0.087585 0.704285
0.497955 0.134308 0.746735
0.743958 0.160919 0.785278
0.970856 0.191315 0.812378
0.289520 0.393372 0.682312
0.324982 0.385986 0.698456
0.444885 0.344238 0.726563
0.711884 0.371521 0.757080
0.938812 0.393982 0.777954
0.352112 0.644592 0.701569
0.383453 0.648193 0.713654
0.493988 0.651031 0.739441
0.717743 0.649994 0.765594
0.959473 0.665527 0.784790
0.400452 0.834167 0.715729
0.428131 0.842560 0.725616
0.531067 0.863037 0.750031
0.749603 0.884369 0.777313
0.992676 0.892944 0.796600
