OTTER-Stable/projects/better/res/luts/shrooms.cube
LUT_3D_SIZE 16
0.000000 0.000000 0.000000
0.055370 0.019235 0.057624
0.110740 0.038469 0.115238
0.166099 0.057700 0.172845
0.221478 0.076940 0.230495
0.276850 0.096166 0.288140
0.332193 0.115403 0.345684
0.387569 0.134631 0.403321
0.442990 0.153877 0.460978
0.498367 0.173091 0.518648
0.553716 0.192331 0.576261
0.609082 0.211571 0.633919
0.664357 0.230797 0.691360
0.719862 0.250055 0.749179
0.775119 0.269264 0.806664
0.830547 0.288533 0.864429
0.059383 0.057682 0.030571
0.084963 0.058390 0.059956
0.131050 0.064443 0.114386
0.180592 0.075670 0.171735
0.232199 0.090019 0.229491
0.285094 0.106157 0.287311
0.338785 0.123325 0.345066
0.392943 0.141111 0.402821
0.447475 0.159284 0.460512
0.502203 0.177750 0.518239
0.557053 0.196312 0.575888
0.612042 0.215085 0.633593
0.666995 0.233895 0.691248
0.722209 0.252853 0.748950
0.777415 0.271768 0.806608
0.832619 0.290801 0.864277
0.118766 0.115360 0.061140
0.132620 0.115349 0.076806
0.169914 0.116765 0.119902
0.214714 0.121265 0.172758
0.262097 0.128891 0.228775
0.311035 0.139096 0.285900
0.361198 0.151341 0.343475
0.412377 0.165122 0.401162
0.464394 0.180059 0.458983
0.517040 0.195863 0.516828
0.570216 0.212317 0.574637
0.623774 0.229305 0.632459
0.677539 0.246654 0.690121
0.731748 0.264309 0.748109
0.785967 0.282213 0.805652
0.840380 0.300357 0.863291
0.178109 0.173061 0.091709
0.186692 0.172985 0.101374
0.215200 0.173344 0.133828
0.254886 0.175148 0.179867
0.299112 0.179120 0.231934
0.345483 0.185217 0.286829
0.393146 0.193332 0.343164
0.441811 0.203122 0.400186
0.491458 0.214469 0.457551
0.541777 0.226986 0.515240
0.592774 0.240570 0.572945
0.644486 0.254983 0.630778
0.696677 0.270060 0.688540
0.749236 0.285770 0.746396
0.802084 0.301901 0.804151
0.855406 0.318520 0.861901
0.237519 0.230699 0.122271
0.243396 0.230700 0.128926
0.265240 0.230703 0.153611
0.299252 0.231506 0.192594
0.339853 0.233548 0.239817
0.383770 0.237263 0.291434
0.429420 0.242522 0.345512
0.476297 0.249429 0.401065
0.524154 0.257788 0.457525
0.572763 0.267420 0.514448
0.622039 0.278193 0.571782
0.671997 0.290018 0.629395
0.722319 0.302645 0.686904
0.773382 0.316136 0.744641
0.824717 0.330228 0.802365
0.876517 0.344946 0.860283
0.296892 0.288449 0.152841
0.301273 0.288373 0.157779
0.318353 0.288324 0.177033
0.347165 0.288622 0.209829
0.383768 0.289734 0.251924
0.424779 0.291960 0.299769
0.468501 0.295445 0.351067
0.513781 0.300298 0.404610
0.560127 0.306399 0.459519
0.607354 0.313696 0.515434
0.655276 0.322200 0.571920
0.703839 0.331781 0.628878
0.752750 0.342182 0.686068
0.802388 0.353536 0.743485
0.852421 0.365563 0.800966
0.903012 0.378343 0.858725
0.356222 0.346116 0.183414
0.359696 0.346116 0.187264
0.373365 0.345957 0.202747
0.397821 0.346080 0.230391
0.430426 0.346689 0.267654
0.468394 0.348005 0.311501
0.509747 0.350328 0.359720
0.553303 0.353775 0.410862
0.598262 0.358286 0.463868
0.644215 0.363756 0.518318
0.690897 0.370417 0.573698
0.738330 0.378120 0.629781
0.786251 0.386666 0.686262
0.834871 0.396046 0.743234
0.883675 0.406251 0.800246
0.933143 0.417261 0.857722
0.415596 0.403792 0.214010
0.418420 0.403740 0.217110
0.429703 0.403671 0.229847
0.450571 0.403646 0.253385
0.479517 0.403954 0.286294
0.514290 0.404810 0.326194
0.553178 0.406264 0.371193
0.594767 0.408683 0.419674
0.638161 0.412040 0.470622
0.682938 0.416304 0.523374
0.728622 0.421528 0.577310
0.774922 0.427640 0.632307
0.821836 0.434602 0.687968
0.869309 0.442485 0.744095
0.917209 0.451126 0.800614
0.965813 0.460393 0.857436
0.475066 0.461437 0.244561
0.477301 0.461414 0.247129
0.486783 0.461401 0.257856
0.504782 0.461307 0.278097
0.530444 0.461375 0.307214
0.562232 0.461957 0.343489
0.598531 0.462991 0.385208
0.637985 0.464678 0.430898
0.679652 0.467089 0.479621
0.723023 0.470417 0.530492
0.767528 0.474517 0.582858
0.812944 0.479405 0.636541
0.858785 0.485163 0.691000
0.905627 0.491589 0.746475
0.952633 0.498868 0.802166
1.000380 0.506885 0.858392
0.534427 0.519179 0.275122
0.536393 0.519148 0.277331
0.544566 0.519078 0.286517
0.560131 0.519016 0.304127
0.583010 0.519058 0.329947
0.611891 0.519337 0.362910
0.645608 0.520019 0.401435
0.682922 0.521205 0.444477
0.722903 0.523019 0.490753
0.764692 0.525526 0.539571
0.808033 0.528756 0.590324
0.852344 0.532721 0.642582
0.897395 0.537407 0.695714
0.943379 0.542794 0.750012
0.989619 0.548919 0.805017
1.036461 0.555685 0.860462
0.593768 0.576872 0.305653
0.595442 0.576840 0.307614
0.602533 0.576781 0.315542
0.616251 0.576665 0.331041
0.636715 0.576637 0.354093
0.663095 0.576798 0.384007
0.694313 0.577240 0.419651
0.729361 0.578121 0.459944
0.767480 0.579435 0.503872
0.807725 0.581354 0.550606
0.849661 0.583907 0.599504
0.892988 0.587064 0.650321
0.937004 0.590920 0.702094
0.981826 0.595409 0.755421
1.027546 0.600591 0.809147
1.073651 0.606389 0.863774
0.653224 0.634581 0.336293
0.654624 0.634541 0.337930
0.660909 0.634516 0.344959
0.673058 0.634414 0.358588
0.691430 0.634303 0.379405
0.715493 0.634411 0.406604
0.744541 0.634770 0.439506
0.777343 0.635314 0.477246
0.813566 0.636285 0.518761
0.852186 0.637797 0.563413
0.892584 0.639767 0.610422
0.934561 0.642356 0.659557
0.977616 0.645548 0.709926
1.021878 0.649292 0.761974
1.066644 0.653621 0.814783
1.112036 0.658527 0.868517
0.712423 0.692240 0.366818
0.713790 0.692184 0.368241
0.719424 0.692153 0.374451
0.730224 0.692032 0.386781
0.746754 0.691901 0.405488
0.768880 0.691997 0.430314
0.795646 0.692134 0.460782
0.826632 0.692500 0.496053
0.860928 0.693298 0.535311
0.897711 0.694383 0.577844
0.936772 0.695981 0.623015
0.977569 0.698097 0.670443
1.019592 0.700587 0.719485
1.062688 0.703862 0.770116
1.106491 0.707570 0.821646
1.151238 0.711731 0.874346
0.771940 0.750001 0.397439
0.773039 0.750041 0.398758
0.778110 0.749983 0.404281
0.787926 0.749833 0.415385
0.802938 0.749712 0.432397
0.823216 0.749708 0.455080
0.848076 0.749855 0.483348
0.876823 0.750046 0.516247
0.909348 0.750603 0.553306
0.944688 0.751450 0.593773
0.982210 0.752730 0.637105
1.021646 0.754367 0.682689
1.062450 0.756514 0.730236
1.104592 0.759229 0.779371
1.147644 0.762270 0.829852
1.191491 0.765932 0.881340
0.831127 0.807520 0.428003
0.832287 0.807515 0.429175
0.836793 0.807484 0.434183
0.845750 0.807459 0.444155
0.859402 0.807389 0.459654
0.877833 0.807182 0.480604
0.901086 0.807285 0.506763
0.928144 0.807499 0.537576
0.958974 0.807977 0.572511
0.992540 0.808643 0.610975
1.028567 0.809639 0.652336
1.066606 0.810838 0.696376
1.106309 0.812570 0.742427
1.147497 0.814940 0.790218
1.189442 0.817310 0.839322
1.232430 0.820481 0.889717
0.890600 0.865189 0.458517
0.891677 0.865141 0.459566
0.895616 0.865312 0.464183
0.903787 0.865256 0.473379
0.916431 0.865076 0.487570
0.933609 0.864989 0.506856
0.955155 0.865041 0.531109
0.980415 0.865202 0.559994
1.009465 0.865280 0.592943
1.041508 0.865819 0.629506
1.075975 0.866714 0.669094
1.112732 0.867729 0.711506
1.151219 0.869224 0.755762
1.191206 0.871034 0.802232
1.232310 0.873226 0.850132
1.274413 0.875985 0.899384
0.000000 0.026777 0.024135
0.030473 0.032604 0.066743
0.093717 0.046669 0.121151
0.154377 0.063201 0.176880
0.212995 0.080877 0.233406
0.270391 0.099161 0.290317
0.327107 0.117754 0.347470
0.383371 0.136546 0.404789
0.439504 0.155457 0.462190
0.495359 0.174484 0.519674
0.551128 0.193495 0.577156
0.606903 0.212634 0.634769
0.662407 0.231709 0.692117
0.718125 0.250887 0.749816
0.773530 0.270011 0.807247
0.829180 0.289181 0.864864
0.040235 0.066577 0.038589
0.066670 0.066670 0.066670
0.116564 0.070976 0.119401
0.169839 0.080545 0.175430
0.224132 0.093698 0.232272
0.278831 0.109009 0.289429
0.333760 0.125615 0.346750
0.388868 0.142978 0.404179
0.444065 0.160861 0.461649
0.499352 0.179070 0.519227
0.554473 0.197490 0.576742
0.609814 0.216136 0.634327
0.665007 0.234837 0.691881
0.720443 0.253662 0.749488
0.775682 0.272532 0.807112
0.831166 0.291465 0.864817
0.108335 0.120014 0.065202
0.122365 0.119900 0.080628
0.160508 0.120908 0.123230
0.206663 0.124826 0.175540
0.255397 0.131839 0.231071
0.305485 0.141562 0.287782
0.356604 0.153389 0.344990
0.408514 0.166859 0.402552
0.461123 0.181524 0.460165
0.514236 0.197136 0.517799
0.567711 0.213449 0.575465
0.621557 0.230317 0.633222
0.675600 0.247559 0.690861
0.729851 0.265120 0.748550
0.784367 0.282921 0.806177
0.838881 0.300995 0.863881
0.171666 0.175894 0.094173
0.180305 0.175821 0.103782
0.209022 0.176019 0.136064
0.249156 0.177673 0.181869
0.293993 0.181368 0.233731
0.340952 0.187216 0.288375
0.389166 0.195075 0.344489
0.438386 0.204702 0.401369
0.488377 0.215823 0.458575
0.539086 0.228153 0.516115
0.590453 0.241601 0.573761
0.642364 0.255925 0.631447
0.694733 0.270933 0.689153
0.747665 0.286542 0.747030
0.800474 0.302615 0.804701
0.853921 0.319078 0.862438
0.233055 0.232679 0.123975
0.239028 0.232657 0.130604
0.260881 0.232638 0.155213
0.295077 0.233278 0.194081
0.335926 0.235256 0.241198
0.380159 0.238812 0.292702
0.426237 0.244022 0.346693
0.473329 0.250750 0.402090
0.521508 0.258953 0.458418
0.570334 0.268475 0.515284
0.619828 0.279159 0.572492
0.669929 0.290863 0.630012
0.720548 0.303462 0.687409
0.771734 0.316878 0.745260
0.823177 0.330867 0.802910
0.875239 0.345532 0.860747
0.293594 0.289875 0.154092
0.297997 0.289813 0.159041
0.315116 0.289747 0.178255
0.344003 0.290030 0.210966
0.380625 0.291033 0.253019
0.421886 0.293238 0.300771
0.465780 0.296642 0.352012
0.511251 0.301390 0.405447
0.557772 0.307423 0.460314
0.605235 0.314682 0.516163
0.653311 0.323078 0.572583
0.702001 0.332515 0.629455
0.751062 0.342902 0.686529
0.800857 0.354179 0.744055
0.850994 0.366184 0.801472
0.901689 0.378893 0.859140
0.353742 0.347251 0.184374
0.357107 0.347156 0.188223
0.370823 0.347130 0.203701
0.395315 0.347154 0.231318
0.427996 0.347705 0.268518
0.466097 0.349043 0.312334
0.507468 0.351356 0.360509
0.551180 0.354685 0.411588
0.596251 0.359176 0.464660
0.642355 0.364649 0.518982
0.689143 0.371243 0.574279
0.736804 0.378816 0.630373
0.784764 0.387315 0.686816
0.833411 0.396785 0.743722
0.882339 0.406875 0.800781
0.931702 0.417812 0.858042
0.413577 0.404734 0.214735
0.416300 0.404685 0.217899
0.427704 0.404572 0.230585
0.448433 0.404537 0.254122
0.477448 0.404772 0.287021
0.512344 0.405618 0.326940
0.551292 0.407143 0.371861
0.592920 0.409533 0.420317
0.636429 0.412868 0.471239
0.681159 0.417001 0.523931
0.726924 0.422159 0.577855
0.773483 0.428265 0.632839
0.820403 0.435285 0.688395
0.868118 0.443101 0.744638
0.915896 0.451682 0.801005
0.964548 0.460945 0.857979
0.473266 0.462243 0.245212
0.475525 0.462204 0.247798
0.485102 0.462212 0.258507
0.503098 0.462146 0.278754
0.528760 0.462160 0.307835
0.560561 0.462711 0.344067
0.596863 0.463646 0.385808
0.636429 0.465328 0.431487
0.678196 0.467802 0.480185
0.721706 0.471026 0.530994
0.766113 0.475067 0.583338
0.811517 0.479980 0.637037
0.857680 0.485618 0.691450
0.904479 0.492240 0.746812
0.951692 0.499405 0.802521
0.999286 0.507366 0.858914
0.532970 0.519819 0.275688
0.534927 0.519810 0.277882
0.543082 0.519722 0.287061
0.558738 0.519649 0.304693
0.581537 0.519669 0.330515
0.610455 0.519956 0.363395
0.644238 0.520605 0.401978
0.681528 0.521800 0.444911
0.721569 0.523618 0.491255
0.763421 0.526113 0.540030
0.806635 0.529295 0.590723
0.851061 0.533223 0.642948
0.896208 0.537896 0.696246
0.942135 0.543292 0.750453
0.988535 0.549370 0.805324
1.035467 0.556184 0.860834
0.592526 0.577438 0.306131
0.594221 0.577400 0.308060
0.601295 0.577306 0.316066
0.615011 0.577237 0.331546
0.635455 0.577196 0.354507
0.661825 0.577351 0.384481
0.693057 0.577770 0.420102
0.728160 0.578634 0.460364
0.766259 0.579974 0.504268
0.806716 0.581896 0.551012
0.848500 0.584376 0.599895
0.891743 0.587541 0.650637
0.936123 0.591388 0.702650
0.981021 0.595927 0.755617
1.026585 0.601030 0.809584
1.072793 0.606822 0.864234
0.652065 0.635082 0.336709
0.653552 0.634997 0.338391
0.659818 0.634970 0.345330
0.672002 0.634904 0.359064
0.690308 0.634780 0.379813
0.714348 0.634905 0.406998
0.743421 0.635274 0.439959
0.776280 0.635760 0.477628
0.812588 0.636753 0.519134
0.851099 0.638213 0.563774
0.891603 0.640107 0.610848
0.933599 0.642734 0.659890
0.976785 0.645969 0.710423
1.020982 0.649671 0.762323
1.065782 0.653977 0.815014
1.111235 0.658873 0.868712
0.711448 0.692647 0.367222
0.712781 0.692632 0.368677
0.718303 0.692514 0.374860
0.729242 0.692432 0.387123
0.745892 0.692388 0.405777
0.767815 0.692405 0.430683
0.794649 0.692492 0.461153
0.825703 0.692943 0.496313
0.859792 0.693741 0.535641
0.896780 0.694890 0.578141
0.935942 0.696349 0.623325
0.976551 0.698458 0.670658
1.018721 0.701147 0.719665
1.061867 0.704203 0.770361
1.105749 0.707795 0.821834
1.150405 0.712095 0.874465
0.771042 0.750404 0.397767
0.772310 0.750323 0.399076
0.777337 0.750265 0.404659
0.787034 0.750120 0.415714
0.802163 0.749996 0.432599
0.822171 0.749997 0.455413
0.847238 0.750075 0.483594
0.876092 0.750479 0.516579
0.908548 0.751062 0.553584
0.943928 0.751866 0.594072
0.981511 0.753081 0.637393
1.020862 0.754877 0.683044
1.061628 0.756800 0.730437
1.103851 0.759433 0.779750
1.146909 0.762669 0.830087
1.190809 0.766176 0.881708
0.830462 0.807892 0.428235
0.831531 0.807893 0.429442
0.835883 0.807856 0.434478
0.844923 0.807787 0.444516
0.858749 0.807699 0.459976
0.877107 0.807620 0.480984
0.900412 0.807609 0.507035
0.927491 0.807861 0.537878
0.958172 0.808161 0.572811
0.991643 0.808838 0.611293
1.027814 0.809895 0.652678
1.065837 0.811138 0.696689
1.105601 0.812939 0.742795
1.146605 0.815111 0.790455
1.188674 0.817743 0.839463
1.231738 0.820758 0.890027
0.889878 0.865550 0.458745
0.890943 0.865551 0.459871
0.895014 0.865494 0.464492
0.903167 0.865467 0.473572
0.915682 0.865268 0.487774
0.932815 0.865220 0.507135
0.954409 0.865264 0.531357
0.979751 0.865419 0.560263
1.008750 0.865733 0.593244
1.040856 0.866260 0.629824
1.075258 0.866988 0.669419
1.112124 0.868087 0.711637
1.150545 0.869542 0.755995
1.190461 0.871267 0.802362
1.231591 0.873415 0.850267
1.273833 0.876161 0.899457
0.000000 0.053551 0.048275
0.000000 0.055789 0.081173
0.060943 0.065209 0.133477
0.124687 0.078360 0.187446
0.187448 0.093335 0.242318
0.248769 0.109483 0.297793
0.308743 0.126405 0.353811
0.367715 0.143882 0.410183
0.425999 0.161765 0.466826
0.483684 0.179944 0.523671
0.540792 0.198322 0.580623
0.597660 0.216861 0.637801
0.654218 0.235489 0.694939
0.710622 0.254292 0.752353
0.766792 0.273113 0.809649
0.822954 0.291993 0.866973
0.008448 0.084086 0.055905
0.032991 0.083977 0.080982
0.084165 0.086929 0.131424
0.140913 0.094445 0.185681
0.199221 0.105522 0.240925
0.257605 0.118959 0.296703
0.315697 0.134030 0.352978
0.373317 0.150182 0.409419
0.430703 0.167062 0.466316
0.487545 0.184470 0.523259
0.544215 0.202267 0.580270
0.600669 0.220314 0.637495
0.656789 0.238605 0.694711
0.713021 0.257076 0.752015
0.769043 0.275616 0.809396
0.824856 0.294283 0.866691
0.080468 0.133153 0.077182
0.094368 0.132913 0.091969
0.133333 0.133333 0.133333
0.181643 0.136191 0.184452
0.233118 0.141948 0.238799
0.286042 0.150388 0.294468
0.339695 0.161091 0.350814
0.393811 0.173540 0.407485
0.448198 0.187386 0.464556
0.502930 0.202323 0.521682
0.557691 0.218017 0.578871
0.612663 0.234373 0.636217
0.667509 0.251211 0.693500
0.722735 0.268474 0.750923
0.777754 0.285954 0.808384
0.832981 0.303739 0.865787
0.150256 0.185630 0.102807
0.158927 0.185472 0.112201
0.187989 0.185434 0.143932
0.229150 0.186547 0.189058
0.275493 0.189595 0.240243
0.324231 0.194652 0.294179
0.374233 0.201751 0.349665
0.425021 0.210667 0.405873
0.476490 0.221157 0.462636
0.528478 0.232961 0.519705
0.580911 0.245919 0.576984
0.633803 0.259811 0.634348
0.686897 0.274420 0.691746
0.740430 0.289753 0.749474
0.793945 0.305574 0.806770
0.847905 0.321807 0.864430
0.216681 0.240020 0.130417
0.222675 0.239949 0.136960
0.244719 0.239804 0.161267
0.279394 0.240205 0.199819
0.321033 0.241830 0.246478
0.366189 0.244964 0.297588
0.413321 0.249650 0.351084
0.461683 0.255926 0.406140
0.510786 0.263687 0.462163
0.560603 0.272786 0.518623
0.610975 0.283094 0.575537
0.661929 0.294468 0.632806
0.713195 0.306776 0.689973
0.764990 0.319900 0.747501
0.817018 0.333717 0.805082
0.869487 0.348159 0.862711
0.280772 0.295573 0.159074
0.285151 0.295501 0.163940
0.302407 0.295384 0.183036
0.331511 0.295492 0.215549
0.368621 0.296369 0.257349
0.410400 0.298275 0.304874
0.454906 0.301418 0.355832
0.501081 0.305872 0.408973
0.548366 0.311571 0.463630
0.596443 0.318532 0.519109
0.645202 0.326654 0.575312
0.694510 0.335851 0.631997
0.744109 0.345968 0.688862
0.794526 0.356992 0.746241
0.845137 0.368850 0.803460
0.896125 0.381324 0.861044
0.343352 0.351792 0.188342
0.346796 0.351784 0.192167
0.360602 0.351642 0.207568
0.385181 0.351610 0.235097
0.418042 0.352090 0.272146
0.456403 0.353234 0.315759
0.498351 0.355375 0.363747
0.542399 0.358456 0.414596
0.587994 0.362743 0.467457
0.634604 0.368046 0.521660
0.681889 0.374448 0.576786
0.729875 0.381825 0.632620
0.778246 0.390095 0.688958
0.827318 0.399380 0.745673
0.876783 0.409373 0.802690
0.926692 0.420168 0.859928
0.405028 0.408439 0.218015
0.407824 0.408441 0.221143
0.419143 0.408320 0.233853
0.440171 0.408214 0.257288
0.469236 0.408508 0.290021
0.504241 0.409200 0.329858
0.543439 0.410565 0.374609
0.585374 0.412853 0.422909
0.629189 0.415984 0.473773
0.674313 0.420007 0.526287
0.720343 0.425049 0.580102
0.767248 0.430930 0.634939
0.814597 0.437776 0.690356
0.862513 0.445458 0.746405
0.910888 0.453889 0.802734
0.959690 0.463164 0.859558
0.466123 0.465384 0.247960
0.468526 0.465298 0.250536
0.478062 0.465302 0.261225
0.496055 0.465156 0.281409
0.521762 0.465286 0.310435
0.553652 0.465653 0.346595
0.590135 0.466545 0.388168
0.629942 0.468270 0.433867
0.671892 0.470553 0.482406
0.715511 0.473626 0.533082
0.760314 0.477560 0.585429
0.806098 0.482402 0.638988
0.852373 0.488042 0.693296
0.899335 0.494365 0.748518
0.946633 0.501482 0.804156
0.994678 0.509349 0.860397
0.526799 0.522510 0.278038
0.528789 0.522490 0.280234
0.536994 0.522438 0.289392
0.552667 0.522316 0.306964
0.575535 0.522324 0.332709
0.604535 0.522541 0.365573
0.638387 0.523162 0.404070
0.675799 0.524325 0.446994
0.715871 0.526041 0.493183
0.758031 0.528449 0.541945
0.801484 0.531556 0.592525
0.846113 0.535439 0.644719
0.891534 0.539973 0.697881
0.937541 0.545297 0.752050
0.984187 0.551330 0.806845
1.031274 0.558007 0.862264
0.587185 0.579749 0.308198
0.588916 0.579720 0.310102
0.595987 0.579644 0.318054
0.609742 0.579574 0.333487
0.630250 0.579494 0.356518
0.656613 0.579609 0.386379
0.688017 0.580023 0.421933
0.723136 0.580827 0.462177
0.761250 0.582071 0.506046
0.801803 0.583985 0.552695
0.843775 0.586469 0.601561
0.887070 0.589549 0.652142
0.931596 0.593277 0.704037
0.976783 0.597709 0.757163
1.022490 0.602777 0.810922
1.068904 0.608489 0.865477
0.647446 0.637148 0.338509
0.648954 0.637126 0.340171
0.655200 0.637097 0.347137
0.667425 0.636901 0.360879
0.685736 0.636852 0.381467
0.709896 0.636903 0.408674
0.738782 0.637120 0.441649
0.771846 0.637701 0.479223
0.808085 0.638576 0.520753
0.846786 0.640162 0.565304
0.887351 0.642062 0.612302
0.929618 0.644537 0.661257
0.972800 0.647646 0.711758
1.017104 0.651357 0.763566
1.061971 0.655657 0.816323
1.107507 0.660530 0.869982
0.707455 0.694470 0.368734
0.708724 0.694416 0.370246
0.714204 0.694301 0.376451
0.725160 0.694337 0.388696
0.741690 0.694247 0.407423
0.763662 0.694241 0.432237
0.790625 0.694306 0.462620
0.821650 0.694770 0.497781
0.856012 0.695398 0.537081
0.892993 0.696463 0.579614
0.932052 0.698072 0.624644
0.972911 0.700127 0.671975
1.014938 0.702687 0.720992
1.058362 0.705734 0.771565
1.102360 0.709346 0.823195
1.147121 0.713460 0.875859
0.767358 0.751875 0.399130
0.768533 0.751825 0.400519
0.773493 0.751936 0.406067
0.783308 0.751826 0.417104
0.798331 0.751804 0.434099
0.818666 0.751791 0.456753
0.843459 0.751857 0.484923
0.872482 0.751898 0.517905
0.904899 0.752504 0.554924
0.940281 0.753424 0.595345
0.977883 0.754565 0.638675
1.017380 0.756250 0.684269
1.058379 0.758284 0.731586
1.100624 0.760948 0.780819
1.143716 0.764047 0.831165
1.187638 0.767577 0.882716
0.827159 0.809437 0.429460
0.828045 0.809431 0.430684
0.832659 0.809392 0.435788
0.841444 0.809230 0.445807
0.855361 0.809132 0.461191
0.873864 0.809129 0.482209
0.896986 0.809090 0.508271
0.924373 0.809333 0.539076
0.954882 0.809494 0.574053
0.988365 0.810226 0.612374
1.024634 0.811180 0.653908
1.062770 0.812481 0.697728
1.102483 0.814274 0.743631
1.143619 0.816336 0.791609
1.185751 0.819012 0.840615
1.228901 0.822138 0.891098
0.886783 0.866992 0.459997
0.887782 0.866977 0.461011
0.892045 0.866939 0.465537
0.900026 0.866782 0.474753
0.912496 0.866708 0.488955
0.929833 0.866723 0.508263
0.951270 0.866675 0.532542
0.976702 0.866733 0.561365
1.005816 0.866993 0.594302
1.037907 0.867555 0.630866
1.072406 0.868186 0.670436
1.109221 0.869230 0.712638
1.147614 0.870700 0.757013
1.187690 0.872552 0.803462
1.228831 0.874703 0.851127
1.271088 0.877368 0.900355
0.000000 0.080326 0.072403
0.000000 0.081323 0.097785
0.028711 0.087404 0.147372
0.091424 0.097817 0.200209
0.155267 0.110577 0.254027
0.218654 0.124794 0.308503
0.281126 0.140014 0.363398
0.342663 0.156000 0.418791
0.403290 0.172564 0.474668
0.463144 0.189588 0.530690
0.522271 0.207012 0.586965
0.580903 0.224726 0.643611
0.638913 0.242634 0.700165
0.696797 0.260782 0.757117
0.754060 0.279029 0.814086
0.811186 0.297444 0.871134
0.000000 0.104119 0.076708
0.000642 0.104039 0.097954
0.049974 0.106284 0.145623
0.107119 0.112483 0.198470
0.167011 0.121982 0.252612
0.227642 0.133842 0.307370
0.288335 0.147361 0.362575
0.348452 0.162103 0.418103
0.408156 0.177745 0.473988
0.467223 0.194057 0.530157
0.525775 0.210870 0.586563
0.583912 0.228153 0.643088
0.641654 0.245673 0.699823
0.699227 0.263521 0.756750
0.756131 0.281505 0.813636
0.813136 0.299725 0.870723
0.048373 0.149798 0.093259
0.061581 0.149544 0.107036
0.100032 0.149662 0.146750
0.149068 0.151871 0.196651
0.202217 0.156657 0.249990
0.257248 0.163981 0.304669
0.313232 0.173464 0.360085
0.369623 0.184819 0.415849
0.426341 0.197590 0.472075
0.483022 0.211549 0.528450
0.539593 0.226374 0.585021
0.596211 0.241981 0.641795
0.652617 0.258129 0.698703
0.708908 0.274806 0.755688
0.765043 0.291775 0.812655
0.821315 0.309147 0.869890
0.120697 0.199704 0.115772
0.129223 0.199537 0.124836
0.158257 0.199305 0.155701
0.200010 0.200010 0.200010
0.247551 0.202372 0.250351
0.297862 0.206678 0.303528
0.349699 0.212894 0.358209
0.402412 0.220944 0.413709
0.455807 0.230597 0.469822
0.509541 0.241603 0.526249
0.563583 0.253813 0.582927
0.617921 0.267048 0.639779
0.672376 0.281071 0.696798
0.726995 0.295888 0.753953
0.781771 0.311191 0.811120
0.836526 0.327052 0.868420
0.191123 0.251803 0.140976
0.197072 0.251683 0.147387
0.219163 0.251423 0.171261
0.254238 0.251590 0.209249
0.296627 0.252791 0.255369
0.342926 0.255384 0.305877
0.391382 0.259492 0.358799
0.441118 0.265146 0.413285
0.491706 0.272234 0.468713
0.542965 0.280722 0.524729
0.594685 0.290445 0.581098
0.646917 0.301281 0.637899
0.699334 0.313043 0.694735
0.752068 0.325687 0.751849
0.805151 0.339113 0.809159
0.858378 0.353164 0.866395
0.259066 0.305420 0.167781
0.263514 0.305305 0.172612
0.280772 0.305112 0.191468
0.310114 0.305057 0.223633
0.347682 0.305659 0.265018
0.390220 0.307206 0.312123
0.435611 0.309957 0.362627
0.482839 0.313954 0.415407
0.531201 0.319226 0.469553
0.580340 0.325676 0.524727
0.630134 0.333319 0.580539
0.680446 0.342072 0.636841
0.731159 0.351807 0.693405
0.782282 0.362526 0.750316
0.833654 0.373923 0.807369
0.885582 0.386137 0.864754
0.324997 0.360044 0.195603
0.328494 0.360016 0.199396
0.342283 0.359796 0.214658
0.367057 0.359752 0.241930
0.400193 0.359969 0.278719
0.439029 0.360873 0.322046
0.481511 0.362771 0.369702
0.526269 0.365580 0.420293
0.572658 0.369523 0.472833
0.619969 0.374472 0.526726
0.668120 0.380513 0.581540
0.716977 0.387513 0.637116
0.766037 0.395450 0.693080
0.815873 0.404424 0.749596
0.865981 0.414142 0.806264
0.916473 0.424642 0.863246
0.389407 0.415443 0.224127
0.392168 0.415385 0.227213
0.403549 0.415267 0.239849
0.424592 0.415081 0.263150
0.453884 0.415247 0.295711
0.489226 0.415725 0.335289
0.528795 0.416967 0.379916
0.571221 0.419051 0.427949
