OTTER-Stable/projects/better/res/luts/shrooms.cube
LUT_3D_SIZE 6
0.000000 0.000000 0.000000
0.166099 0.057700 0.172845
0.332193 0.115403 0.345684
0.498367 0.173091 0.518648
0.664357 0.230797 0.691360
0.830547 0.288533 0.864429
0.178109 0.173061 0.091709
0.254886 0.175148 0.179867
0.393146 0.193332 0.343164
0.541777 0.226986 0.515240
0.696677 0.270060 0.688540
0.855406 0.318520 0.861901
0.356222 0.346116 0.183414
0.397821 0.346080 0.230391
0.509747 0.350328 0.359720
0.644215 0.363756 0.518318
0.786251 0.386666 0.686262
0.933143 0.417261 0.857722
0.534427 0.519179 0.275122
0.560131 0.519016 0.304127
0.645608 0.520019 0.401435
0.764692 0.525526 0.539571
0.897395 0.537407 0.695714
1.036461 0.555685 0.860462
0.712423 0.692240 0.366818
0.730224 0.692032 0.386781
0.795646 0.692134 0.460782
0.897711 0.694383 0.577844
1.019592 0.700587 0.719485
1.151238 0.711731 0.874346
0.890600 0.865189 0.458517
0.903787 0.865256 0.473379
0.955155 0.865041 0.531109
1.041508 0.865819 0.629506
1.151219 0.869224 0.755762
1.274413 0.875985 0.899384
0.000000 0.080326 0.072403
0.091424 0.097817 0.200209
0.281126 0.140014 0.363398
0.463144 0.189588 0.530690
0.638913 0.242634 0.700165
0.811186 0.297444 0.871134
0.120697 0.199704 0.115772
0.200010 0.200010 0.200010
0.349699 0.212894 0.358209
0.509541 0.241603 0.526249
0.672376 0.281071 0.696798
0.836526 0.327052 0.868420
0.324997 0.360044 0.195603
0.367057 0.359752 0.241930
0.481511 0.362771 0.369702
0.619969 0.374472 0.526726
0.766037 0.395450 0.693080
0.916473 0.424642 0.863246
0.515088 0.527726 0.282567
0.540953 0.527505 0.311386
0.627111 0.528125 0.408192
0.747510 0.533065 0.545629
0.881942 0.544147 0.701092
1.022893 0.561646 0.865250
0.699336 0.698092 0.371902
0.716924 0.697843 0.391838
0.782709 0.697866 0.465557
0.885282 0.699887 0.582332
1.007759 0.705787 0.723438
1.140481 0.716445 0.878000
0.880857 0.869687 0.462381
0.893987 0.869496 0.477071
0.945180 0.869241 0.534792
1.031894 0.870097 0.632976
1.142089 0.873183 0.759065
1.265821 0.879743 0.902291
0.000000 0.160652 0.144809
0.000000 0.167354 0.243502
0.182836 0.195618 0.400389
0.374129 0.235096 0.562368
0.562309 0.280022 0.726887
0.746265 0.328413 0.893390
0.025333 0.252264 0.167709
0.099006 0.251893 0.242924
0.252463 0.260801 0.394346
0.422842 0.283363 0.556982
0.597621 0.316523 0.722699
0.772931 0.356900 0.890187
0.241381 0.399387 0.231539
0.283080 0.398657 0.275887
0.400026 0.400026 0.400026
0.544901 0.408556 0.553392
0.699365 0.425778 0.716411
0.857999 0.451222 0.883433
0.450815 0.556889 0.308445
0.476867 0.556491 0.336673
0.564083 0.556278 0.431766
0.687606 0.559721 0.567223
0.826564 0.568743 0.720694
0.972655 0.583995 0.882602
0.650037 0.720086 0.391225
0.667872 0.719670 0.410902
0.734087 0.719433 0.483878
0.838034 0.720671 0.599445
0.962851 0.725495 0.739429
1.098625 0.734873 0.892799
0.842237 0.886616 0.477334
0.855495 0.886622 0.491943
0.907159 0.886134 0.549214
0.994612 0.886567 0.646753
1.105770 0.889114 0.772037
1.231276 0.894872 0.914493
0.000000 0.240967 0.217219
0.000000 0.243957 0.293332
0.086091 0.262231 0.442171
0.274243 0.293458 0.600699
0.465596 0.331777 0.762000
0.655978 0.374412 0.925422
0.000000 0.312389 0.230099
0.001900 0.312131 0.293892
0.149857 0.318862 0.436875
0.321374 0.337501 0.595427
0.501001 0.365956 0.757840
0.683063 0.401488 0.922061
0.145123 0.449479 0.279796
0.184721 0.448618 0.321077
0.300076 0.449000 0.440271
0.447211 0.455527 0.590047
0.606571 0.469939 0.750001
0.771667 0.491888 0.914144
0.362107 0.599155 0.347346
0.387727 0.598637 0.374455
0.474855 0.597890 0.467083
0.600042 0.600042 0.600042
0.742672 0.607113 0.750985
0.893421 0.620101 0.910662
0.573326 0.755366 0.422859
0.591052 0.754946 0.442158
0.657522 0.754277 0.513828
0.762716 0.754762 0.627783
0.889878 0.758361 0.766011
1.028774 0.766024 0.917497
0.777359 0.916095 0.503362
0.790560 0.915925 0.517798
0.842331 0.915267 0.574374
0.930438 0.915057 0.670867
1.043036 0.916870 0.794949
1.170701 0.921694 0.936407
0.000000 0.321291 0.289604
0.000000 0.322808 0.349099
0.000000 0.334706 0.487005
0.176449 0.358827 0.641797
0.365659 0.391260 0.800798
0.557209 0.428926 0.962088
0.000000 0.377730 0.297551
0.000000 0.377622 0.350326
0.052148 0.382776 0.483207
0.220160 0.398155 0.637213
0.399579 0.422868 0.796874
0.583941 0.454519 0.958788
0.050685 0.504510 0.335413
0.087109 0.503728 0.372930
0.197943 0.503803 0.485897
0.344087 0.509151 0.631519
0.504908 0.521593 0.788616
0.673284 0.541001 0.950238
0.266042 0.648121 0.394096
0.290752 0.647508 0.420032
0.376198 0.646547 0.509311
0.501207 0.647834 0.639182
0.645279 0.653622 0.787639
0.799292 0.664728 0.945214
0.482785 0.798826 0.463072
0.500373 0.798358 0.481722
0.566130 0.797482 0.551750
0.671409 0.797432 0.663587
0.799983 0.799983 0.799984
0.941267 0.806365 0.949831
0.694932 0.954539 0.538016
0.708180 0.954141 0.552190
0.759808 0.953407 0.607806
0.848066 0.952766 0.702903
0.961837 0.953967 0.825725
1.091126 0.957635 0.965476
0.000000 0.401632 0.362055
0.000000 0.402564 0.409394
0.000000 0.410404 0.535239
0.083071 0.428883 0.685089
0.267266 0.455930 0.841701
0.457027 0.488984 1.001122
0.000000 0.447012 0.367343
0.000000 0.446996 0.411078
0.000000 0.451045 0.532557
0.122508 0.463617 0.681283
0.299091 0.484908 0.838004
0.482801 0.513029 0.997931
0.000000 0.563165 0.396026
0.000000 0.562526 0.429665
0.098694 0.562487 0.535231
0.241573 0.566976 0.676120
0.401617 0.577911 0.830104
0.570790 0.595360 0.989327
0.169818 0.701028 0.446531
0.193235 0.700443 0.470851
0.275633 0.699347 0.556197
0.398946 0.700128 0.682557
0.542964 0.705091 0.828336
0.698174 0.714889 0.983629
0.386994 0.847194 0.509085
0.404105 0.846738 0.527117
0.468546 0.845757 0.594974
0.573136 0.845252 0.704401
0.701708 0.847185 0.838641
0.844294 0.852527 0.986336
0.603480 0.998557 0.578864
0.616517 0.998384 0.592708
0.667726 0.997210 0.647085
0.755640 0.996550 0.740668
0.869637 0.997163 0.861833
1.000091 1.000000 1.000000
